<?xml version="1.0" encoding="UTF-8"?>
<map version="1.10" tiledversion="1.11.1-99-gec89c545" orientation="orthogonal" renderorder="right-down" width="30" height="30" tilewidth="64" tileheight="64" infinite="0" nextlayerid="5" nextobjectid="2">
 <editorsettings>
  <export target="../maps/level3.lua" format="lua"/>
 </editorsettings>
 <tileset firstgid="1" name="TX Tileset Grass" tilewidth="64" tileheight="64" tilecount="16" columns="4">
  <image source="../maps/Texture/TX Tileset Grass.png" trans="ff00ff" width="256" height="256"/>
 </tileset>
 <tileset firstgid="17" name="TX Tileset Wall" tilewidth="64" tileheight="64" tilecount="64" columns="8">
  <image source="../maps/Texture/TX Tileset Wall.png" trans="ff00ff" width="512" height="512"/>
 </tileset>
 <tileset firstgid="81" name="TX Struct" tilewidth="64" tileheight="64" tilecount="64" columns="8">
  <image source="../maps/Texture/TX Struct.png" trans="ff00ff" width="512" height="512"/>
 </tileset>
 <tileset firstgid="145" name="TX Plant" tilewidth="64" tileheight="64" tilecount="64" columns="8">
  <image source="../maps/Texture/TX Plant.png" trans="ff00ff" width="512" height="512"/>
 </tileset>
 <tileset firstgid="209" name="tileset" tilewidth="64" tileheight="64" tilecount="54" columns="9">
  <image source="../maps/Texture/tileset.png" trans="ff00ff" width="576" height="384"/>
 </tileset>
 <tileset firstgid="263" name="TX Props" tilewidth="64" tileheight="64" tilecount="64" columns="8">
  <image source="../maps/Texture/TX Props.png" trans="ff00ff" width="512" height="512"/>
 </tileset>
 <tileset firstgid="327" name="TX Tileset Stone Ground" tilewidth="64" tileheight="64" tilecount="16" columns="4">
  <image source="../maps/Texture/TX Tileset Stone Ground.png" trans="ff00ff" width="256" height="256"/>
 </tileset>
 <tileset firstgid="343" name="binary0" tilewidth="128" tileheight="128" tilecount="1" columns="1">
  <image source="../maps/Texture/binary0.png" trans="ff00ff" width="128" height="128"/>
 </tileset>
 <tileset firstgid="344" name="abcd" tilewidth="64" tileheight="64" tilecount="209" columns="19">
  <image source="../maps/Texture/abcd.png" trans="ff00ff" width="1248" height="712"/>
 </tileset>
 <tileset firstgid="553" name="TX Tileset Stone Ground" tilewidth="64" tileheight="64" tilecount="16" columns="4">
  <image source="../maps/Texture/TX Tileset Stone Ground.png" trans="ff00ff" width="256" height="256"/>
 </tileset>
 <tileset firstgid="569" name="TX Tileset Grass" tilewidth="64" tileheight="64" tilecount="16" columns="4">
  <image source="../maps/Texture/TX Tileset Grass.png" trans="ff00ff" width="256" height="256"/>
 </tileset>
 <tileset firstgid="585" name="door" tilewidth="64" tileheight="64" tilecount="2" columns="2">
  <image source="../maps/Texture/door.png" trans="ff00ff" width="156" height="89"/>
 </tileset>
 <layer id="1" name="Ground" width="30" height="30">
  <data encoding="csv">
1,1,1,1,1,1,1,1,1,1,1,1,1,1,1,1,1,1,1,1,1,1,1,1,1,1,1,1,1,1,
1,1,1,1,1,1,1,1,1,1,1,1,1,1,1,1,1,1,1,1,1,1,1,1,1,1,1,1,1,1,
1,1,1,1,1,1,1,1,1,1,1,1,1,1,1,1,1,1,1,1,1,1,1,1,1,1,1,1,1,1,
1,1,1,1,1,1,1,1,1,1,1,1,1,1,1,1,1,1,1,1,1,1,1,1,1,1,1,1,1,1,
1,1,1,1,1,1,1,1,1,1,1,1,1,1,1,1,1,1,1,1,1,1,1,1,1,1,1,1,1,1,
1,1,569,569,7,7,569,569,5,1,1,1,1,1,1,1,1,1,1,1,1,1,1,1,1,1,1,1,1,1,
1,1,569,7,11,11,7,569,5,1,1,1,1,1,1,1,1,1,1,1,1,1,1,1,1,1,1,1,1,1,
1,1,7,10,9,9,10,7,5,1,1,2,1,1,1,1,1,1,1,1,1,1,1,1,1,1,1,1,1,1,
1,1,7,10,9,9,10,7,5,11,11,5,11,11,1,11,11,1,11,11,1,1,1,1,1,1,1,1,1,1,
1,1,569,7,11,11,7,569,5,569,569,569,569,569,569,569,569,569,569,569,1,1,1,1,1,1,1,1,1,1,
1,1,569,569,7,7,569,569,5,5,5,5,5,1,1,5,5,1,1,1,1,1,1,1,1,1,1,1,1,1,
1,1,1,1,15,9,1,5,5,5,5,5,5,1,5,5,5,1,1,1,1,1,1,1,1,1,1,1,1,1,
1,1,1,1,9,15,1,5,5,5,6,5,1,1,5,1,1,1,1,1,1,1,1,1,1,1,1,1,1,1,
1,1,1,1,9,9,1,5,5,5,5,5,5,5,5,1,1,5,5,1,1,1,1,1,1,1,1,1,1,1,
1,1,1,5,9,9,3221225485,9,9,13,3221225485,15,1,1,2,1,1,1,1,1,1,1,1,1,1,1,1,1,1,1,
1,1,1,5,14,13,9,15,9,13,9,2684354575,1,1,2,1,1,1,1,1,1,1,1,1,1,1,1,1,1,1,
1,1,1,1,1,1,1,5,5,5,3221226055,9,577,2147484231,1,1,1,1,1,1,1,1,1,1,1,1,1,1,1,1,
5,5,5,5,5,5,5,5,5,5,573,581,577,577,577,1,1,1,1,1,1,1,1,1,1,1,1,1,1,1,
5,5,5,5,5,5,5,5,5,5,573,573,1,583,577,577,1610613317,1,1,1,1,1,1,1,1,1,1,1,1,1,
1,1,5,5,5,5,5,5,5,5,573,573,1,2,2684355141,577,577,1,1,1,1,571,1,1,1,1,1,1,1,1,
1,1,1,5,1,5,5,2,2,5,573,573,573,573,573,581,577,577,3221226053,577,577,583,577,573,573,1,1,1,1,1,
1,1,1,5,1,1,5,1,1,5,573,573,573,573,573,3221226055,577,577,581,1073742407,577,577,581,583,573,1,1,1,1,1,
1,1,1,5,1,1,1,1,1,1,573,573,1,1,1,1,1,1,1,584,1,1,582,577,577,1,1,1,1,1,
1,1,1,5,1,1,1,1,1,1,573,569,570,570,1,1,1,1,1,1,1,1,2684355144,2684355141,3221226053,577,1,1,1,1,
1,1,1,5,1,1,1,1,1,1,569,570,574,574,569,569,1,1,1,1,1,1,573,2684355141,577,577,1,1,1,1,
1,1,1,1,1,1,1,1,1,573,573,574,573,569,569,569,1,1,1,1,1,1,573,573,582,1610613317,3758096967,1,1,1,
1,1,1,1,1,1,1,1,1,573,573,573,573,573,1,1,1,1,1,1,1,1,573,573,2684355141,577,577,577,573,1,
1,1,1,1,1,1,1,1,1,573,573,573,573,573,5,5,1,1,1,1,1,1,1,1,2684355141,577,577,1610613317,583,1,
1,1,1,1,1,1,1,1,1,573,573,573,573,573,1,1,5,1,1,1,1,1,1,1,2684355144,582,581,2684355143,577,3221226055,
1,1,1,1,1,1,1,1,1,1,1,1,1,1,1,1,1,1,1,1,1,1,1,1,1,573,2684355141,577,1073742405,577
</data>
 </layer>
 <layer id="3" name="letters" width="30" height="30">
  <data encoding="csv">
0,0,0,0,0,0,0,0,0,0,0,0,0,0,0,0,0,0,0,0,0,0,0,0,0,0,0,0,0,0,
0,0,0,0,0,0,0,0,0,0,0,0,0,0,0,0,0,0,0,0,0,0,0,0,0,0,0,0,0,0,
0,0,0,0,0,0,0,0,0,0,0,0,0,0,0,0,0,0,0,0,0,0,0,0,0,0,0,0,0,0,
0,0,0,0,0,0,0,0,0,0,0,0,0,0,0,0,0,0,0,0,0,0,0,0,0,0,0,0,0,0,
0,0,0,0,0,0,0,0,0,0,0,0,0,0,0,0,0,0,0,0,0,0,0,0,0,0,0,0,0,0,
0,0,0,0,0,0,0,0,0,0,0,0,0,0,0,0,0,0,0,0,0,0,0,0,0,0,0,0,0,0,
0,0,0,0,0,0,0,0,0,0,0,0,0,0,0,0,0,0,0,0,0,0,0,0,0,0,0,0,0,0,
0,0,0,0,0,0,0,0,0,0,0,0,0,0,0,0,0,0,0,0,0,0,0,0,0,0,0,0,0,0,
0,0,0,0,0,0,0,0,0,406,407,0,406,407,0,406,407,0,406,407,0,0,0,0,0,0,0,0,0,0,
0,0,0,0,0,0,0,0,0,0,0,0,0,0,0,0,0,0,0,0,0,0,0,0,0,0,0,0,0,0,
0,0,0,0,0,0,0,0,0,0,0,0,0,0,0,0,0,0,0,0,0,0,0,0,0,0,0,0,0,0,
0,0,0,0,0,0,0,0,0,0,0,0,0,0,0,0,0,0,0,0,0,0,0,0,0,0,0,0,0,0,
0,0,0,0,0,0,0,0,0,0,0,0,2147483797,0,0,0,0,0,0,0,0,0,0,0,0,0,0,0,0,0,
0,0,0,0,0,0,0,0,0,0,0,0,0,0,0,0,0,0,0,0,0,0,0,0,0,0,0,0,0,0,
0,0,0,0,0,0,0,0,0,0,0,0,0,0,0,0,0,0,0,0,0,0,0,0,0,0,0,0,0,0,
0,0,0,0,0,0,0,0,0,0,0,0,0,0,0,0,0,0,0,0,0,0,0,0,0,0,0,0,0,0,
0,0,0,0,0,0,0,0,0,0,0,0,0,2147483813,0,0,0,0,0,0,0,0,0,0,0,0,0,0,0,0,
0,0,0,0,0,0,0,0,161,0,0,0,0,0,0,0,0,0,0,0,0,0,0,0,0,0,0,0,0,0,
0,0,0,0,0,0,0,0,0,0,0,0,0,0,0,0,0,0,0,0,0,0,0,0,0,0,0,0,0,0,
0,0,0,0,0,0,0,0,0,0,0,0,0,0,0,0,0,0,0,0,0,0,0,0,0,0,0,0,0,0,
0,0,0,0,0,0,0,0,0,0,0,0,0,0,0,0,0,0,0,0,0,0,0,0,0,0,0,0,0,0,
0,0,0,0,0,0,0,0,0,0,0,0,0,0,0,0,0,0,0,0,0,0,0,0,0,0,0,0,0,0,
0,0,0,0,0,0,0,0,0,0,0,0,0,0,0,0,0,0,0,0,0,0,0,0,0,0,0,0,0,0,
0,0,0,0,0,0,0,0,0,0,0,0,0,0,0,0,0,0,0,0,0,0,0,0,0,0,0,0,0,0,
0,0,0,0,0,0,0,0,0,0,0,0,0,0,0,0,0,0,0,0,0,0,0,0,0,0,0,0,0,0,
0,0,0,0,0,0,0,0,0,0,0,0,0,0,0,0,0,0,0,0,0,0,0,0,0,0,0,0,0,0,
0,0,0,0,0,0,0,0,0,0,0,0,0,0,0,0,0,0,0,0,0,0,0,0,0,0,0,0,0,0,
0,0,0,0,0,0,0,0,0,0,0,0,0,0,0,0,0,0,0,0,0,0,0,0,0,0,263,0,0,0,
0,0,0,0,0,0,0,0,165,0,0,0,0,0,0,0,0,0,0,0,0,0,0,0,0,0,0,585,586,0,
0,0,0,0,0,0,0,0,0,0,0,0,0,0,0,0,0,0,0,0,0,0,0,0,0,0,0,0,0,0
</data>
 </layer>
 <objectgroup id="2" name="Walls">
  <object id="1" x="1780" y="1800" width="62" height="56"/>
 </objectgroup>
</map>
