<?xml version="1.0" encoding="UTF-8"?>
<map version="1.10" tiledversion="1.11.0" orientation="orthogonal" renderorder="right-down" width="60" height="40" tilewidth="16" tileheight="16" infinite="0" nextlayerid="10" nextobjectid="1">
 <tileset firstgid="1" name="Interiors_free_16x16" tilewidth="16" tileheight="16" tilecount="1424" columns="16">
  <image source="Texture/Modern_tiles/Interiors_free/16x16/Interiors_free_16x16.png" width="256" height="1424"/>
 </tileset>
 <tileset firstgid="1425" name="plains" tilewidth="16" tileheight="16" tilecount="72" columns="6">
  <image source="Texture/mystic_woods_free_2.2/sprites/tilesets/plains.png" width="96" height="192"/>
 </tileset>
 <tileset firstgid="1497" name="Floors_Tiles" tilewidth="16" tileheight="16" tilecount="650" columns="25">
  <transformations hflip="1" vflip="1" rotate="1" preferuntransformed="1"/>
  <image source="Texture/PixelCrawler/Pixel Crawler - Free Pack/Environment/Tilesets/Floors_Tiles.png" width="400" height="416"/>
 </tileset>
 <tileset firstgid="2147" name="pokemontileset" tilewidth="16" tileheight="16" tilecount="20832" columns="16">
  <transformations hflip="1" vflip="1" rotate="1" preferuntransformed="0"/>
  <image source="Texture/pokemontileset.png" width="256" height="20832"/>
 </tileset>
 <layer id="1" name="Piso" width="60" height="40">
  <data encoding="csv">
1754,1754,1754,1754,1754,1754,1754,1754,1754,1754,1754,1754,1754,1754,1754,1754,1754,1754,1754,1754,1754,1754,1754,5131,5131,5132,5147,5147,5131,5132,5132,5132,5131,5132,5131,5132,1754,1754,1754,1754,1754,1754,1754,1754,1754,1754,1754,1754,1754,1754,1754,1754,1754,1754,1754,1754,1754,1754,1754,1754,
1754,1754,1754,1754,1754,1754,1754,1754,1754,1754,1754,1754,1754,1754,1754,1754,1754,1754,1754,1754,1754,5131,5132,5147,5147,5131,5132,5132,5132,5148,5148,5148,5147,5148,5147,5148,1754,1754,1754,1754,1754,1754,1754,1754,1754,1754,1754,1754,1754,1754,1754,1754,1754,1754,1754,1754,1754,1754,1754,1754,
1754,1754,1754,1754,1754,1754,1754,1754,1754,1754,1754,1754,1754,1754,1754,1754,1754,1754,1754,1754,5131,5147,5148,1754,1754,5131,5132,5148,5148,5148,5147,5148,5131,5147,5148,1754,1754,1754,1754,1754,1754,1754,1754,1754,1754,1754,1754,1754,1754,1754,1754,1754,1754,1754,1754,1754,1754,1754,1754,1754,
1754,1754,1754,1754,1754,1754,1754,1754,1754,1754,1754,1754,1754,1754,1754,1754,1754,1754,1754,5131,5147,5148,1754,1754,1754,5147,5148,5132,5147,5147,5148,5131,5147,5148,1754,1754,1754,1754,1754,1754,1754,1754,1754,1754,1754,1754,1754,1754,1754,1754,1754,1754,1754,1754,1754,1754,1754,1754,1754,1754,
1754,1754,1754,1754,1754,1754,1754,1754,1754,1754,1754,1754,1754,1754,1754,1754,1754,5132,5131,5147,5148,1754,1754,1754,1754,5131,5132,5148,5148,5148,5131,5147,5148,1754,1754,1754,1754,1754,1754,1754,1754,1754,1754,1754,1754,1754,1754,1754,1754,1754,1754,1754,1754,1754,1754,1754,1754,1754,1754,1754,
1754,1754,1754,1754,1754,1754,1754,1754,1754,1754,1754,1754,1754,1754,5131,5132,5147,5148,5147,5148,1754,1754,1754,1754,1754,5147,5148,5148,5132,5131,5147,5148,1754,1754,1754,1754,1754,1754,1754,1754,1754,1754,1754,1754,1754,1754,1754,1754,1754,1754,1754,1754,1754,1754,1754,1754,1754,1754,1754,1754,
1754,1754,1754,1754,1754,1754,1754,1754,1754,1754,1754,1754,1754,1754,5147,5148,5131,5132,5131,1754,1754,1754,1754,1754,1754,5147,5148,5147,5148,5147,5148,1754,1754,1754,1754,1754,1754,1754,1754,1754,1754,1754,1754,1754,1754,1754,1754,1754,1754,1754,1754,1754,1754,1754,1754,1754,1754,1754,1754,1754,
1754,1754,1754,1754,1754,1754,1754,1754,1754,1754,1754,1754,1754,1754,5147,5148,5147,5148,5132,1754,1754,1754,1754,1754,1754,5147,5148,5131,5132,5131,5132,1754,1754,1754,1754,1754,1754,1754,1754,1754,1754,1754,1754,1754,1754,1754,1754,1754,1754,1754,1754,1754,1754,1754,1754,1754,1754,1754,1754,1754,
1754,1754,1754,1754,1754,1754,1754,1754,1754,1754,1754,1754,1754,1754,5147,5148,5131,5132,5148,5132,1754,1754,1754,1754,1754,5147,5148,5147,5148,5147,5148,1754,1754,1754,1754,1754,1754,1754,1754,1754,1754,1754,1754,1754,1754,1754,1754,1754,1754,1754,1754,1754,1754,1754,1754,1754,1754,1754,1754,1754,
1754,1754,1754,1754,1754,1754,1754,1754,1754,1754,1754,1754,1754,1754,5147,5148,5147,5148,5147,5148,5132,1754,1754,1754,1754,5147,5148,5147,5148,5148,5148,1754,1754,1754,1754,1754,1754,1754,1754,1754,1754,1754,1754,1754,1754,1754,1754,1754,1754,1754,1754,1754,1754,1754,1754,1754,1754,1754,1754,1754,
1754,1754,1754,1754,1754,1754,1754,1754,1754,1754,1754,1754,1754,1754,5147,5148,5147,5148,1754,5147,5148,5132,1754,1754,1754,5147,5148,5131,5132,5147,5148,1754,1754,1754,1754,1754,1754,1754,1754,1754,1754,1754,1754,1754,1754,1754,1754,1754,1754,1754,1754,1754,1754,1754,1754,1754,1754,1754,1754,1754,
1754,1754,1754,1754,1754,1754,1754,1754,1754,1754,1754,1754,1754,1754,5147,5148,5147,5148,1754,1754,5147,5148,5132,1754,1754,5147,5148,5131,5132,5147,5148,1754,1754,1754,1754,1754,1754,1754,1754,1754,1754,1754,1754,1754,1754,1754,1754,1754,1754,1754,1754,1754,1754,1754,1754,1754,1754,1754,1754,1754,
1754,1754,1754,1754,1754,1754,1754,1754,1754,1754,1754,1754,1754,1754,5147,5148,5147,5148,1754,1754,1754,5147,5148,5132,5131,5147,5148,5131,5132,5147,5148,1754,1754,1754,1754,1754,1754,1754,1754,1754,1754,1754,1754,1754,1754,1754,1754,1754,1754,1754,1754,1754,1754,1754,1754,1754,1754,1754,1754,1754,
1754,1754,1754,1754,1754,1754,1754,1754,1754,1754,1754,1754,1754,1754,5147,5148,5147,5148,1754,1754,1754,1754,5147,5148,5132,5147,5148,5131,5132,5147,5148,1754,1754,1754,1754,1754,1754,1754,1754,1754,1754,1754,1754,1754,1754,1754,1754,1754,1754,1754,1754,1754,1754,1754,1754,1754,1754,1754,1754,1754,
1754,1754,1754,1754,1754,1754,1754,1754,1754,1754,1754,1754,1754,1754,5147,5148,5147,5148,1754,1754,1754,1754,1754,5147,5148,5147,5148,5131,5132,5147,5148,1754,1754,1754,1754,1754,1754,1754,1754,1754,1754,1754,1754,1754,1754,1754,1754,1754,1754,1754,1754,1754,1754,1754,1754,1754,1754,1754,1754,1754,
1754,1754,1754,1754,1754,1754,1754,1754,1754,1754,1754,1754,1754,1754,5147,5148,5132,5148,1754,1754,1754,1754,1754,1754,1754,5147,5148,5131,5132,5147,5148,1754,1754,1754,1754,1754,1754,1754,1754,1754,1754,1754,1754,1754,1754,1754,1754,1754,1754,1754,1754,1754,1754,1754,1754,1754,1754,1754,1754,1754,
1754,1754,1754,1754,1754,1754,1754,1754,1754,1754,1754,1754,1754,1754,5147,5148,5148,5148,1754,1754,1754,1754,1754,1754,1754,5147,5148,5131,5132,5147,5148,1754,1754,1754,1754,1754,1754,1754,1754,1754,1754,1754,1754,1754,1754,1754,1754,1754,1754,1754,1754,1754,1754,1754,1754,1754,1754,1754,1754,1754,
1754,1754,1754,1754,1754,1754,1754,1754,1754,1754,1754,1754,1754,1754,5147,5148,5148,5148,1754,1754,1754,1754,1754,1754,1754,5147,5148,5147,5148,5147,5148,1754,1754,1754,1754,1754,1754,1754,1754,1754,1754,1754,1754,1754,1754,1754,1754,1754,1754,1754,1754,1754,1754,1754,1754,1754,1754,1754,1754,1754,
1754,1754,1754,1754,1754,1754,1754,1754,1754,1754,1754,1754,1754,1754,5147,5148,5148,5148,1754,1754,1754,1754,1754,1754,1754,5147,5148,5131,5132,5132,5132,1754,1754,1754,1754,1754,1754,1754,1754,1754,1754,1754,1754,1754,1754,1754,1754,1754,1754,1754,1754,1754,1754,1754,1754,1754,1754,1754,1754,1754,
1754,1754,1754,1754,1754,1754,1754,1754,1754,1754,1754,1754,1754,1754,5131,5147,5148,5148,1754,1754,1754,1754,1754,1754,1754,5147,5148,5147,5148,5148,5148,1754,1754,1754,1754,1754,1754,1754,1754,1754,1754,1754,1754,1754,1754,1754,1754,1754,1754,1754,1754,1754,1754,1754,1754,1754,1754,1754,1754,1754,
1754,1754,1754,1754,1754,1754,1754,1754,1754,1754,1754,1754,1754,1754,5147,5147,5148,5148,1754,1754,1754,1754,1754,1754,1754,5147,5148,5131,5132,5147,5148,1754,1754,1754,1754,1754,1754,1754,1754,1754,1754,1754,1754,1754,1754,1754,1754,1754,1754,1754,1754,1754,1754,1754,1754,1754,1754,1754,1754,1754,
1754,1754,1754,1754,1754,1754,1754,1754,1754,1754,1754,1754,1754,1754,5147,5148,5147,5148,1754,1754,1754,1754,1754,1754,1754,5147,5148,5131,5132,5147,5148,1754,1754,1754,1754,1754,1754,1754,1754,1754,1754,1754,1754,1754,1754,1754,1754,1754,1754,1754,1754,1754,1754,1754,1754,1754,1754,1754,1754,1754,
1754,1754,1754,1754,1754,1754,1754,1754,1754,1754,1754,1754,1754,1754,5131,5132,5147,5148,1754,1754,1754,1754,1754,1754,1754,5147,5148,5131,5132,5147,5148,1754,1754,1754,1754,1754,1754,1754,1754,1754,1754,1754,1754,1754,1754,1754,1754,1754,1754,1754,1754,1754,1754,1754,1754,1754,1754,1754,1754,1754,
1754,1754,1754,1754,1754,1754,1754,1754,1754,1754,1754,1754,1754,1754,5131,5132,5131,5132,1754,1754,1754,1754,1754,1754,1754,5147,5148,5131,5132,5147,5148,1754,1754,1754,1754,1754,1754,1754,1754,1754,1754,1754,1754,1754,1754,1754,1754,1754,1754,1754,1754,1754,1754,1754,1754,1754,1754,1754,1754,1754,
1754,1754,1754,1754,1754,1754,1754,1754,1754,1754,1754,1754,1754,1754,5131,5132,5131,5132,1754,1754,1754,1754,1754,1754,1754,5147,5148,5131,5132,5147,5148,1754,1754,1754,1754,1754,1754,1754,1754,1754,1754,1754,1754,1754,1754,1754,1754,1754,1754,1754,1754,1754,1754,1754,1754,1754,1754,1754,1754,1754,
1754,1754,1754,1754,1754,1754,1754,1754,1754,1754,1754,1754,1754,1754,5131,5132,5131,5132,1754,1754,1754,1754,1754,1754,1754,5147,5148,5131,5132,5147,5148,1754,1754,1754,1754,1754,1754,1754,1754,1754,1754,1754,1754,1754,1754,1754,1754,1754,1754,1754,1754,1754,1754,1754,1754,1754,1754,1754,1754,1754,
1754,1754,1754,1754,1754,1754,1754,1754,1754,1754,1754,1754,1754,1754,5131,5132,5131,5132,1754,1754,1754,1754,1754,1754,1754,5147,5148,5131,5132,5147,5148,1754,1754,1754,1754,1754,1754,1754,1754,1754,1754,1754,1754,1754,1754,1754,1754,1754,1754,1754,1754,1754,1754,1754,1754,1754,1754,1754,1754,1754,
1754,1754,1754,1754,1754,1754,1754,1754,1754,1754,1754,1754,1754,1754,5131,5132,5147,5148,1754,1754,1754,1754,1754,1754,1754,5147,5148,5131,5132,5147,5148,1754,1754,1754,1754,1754,1754,1754,1754,1754,1754,1754,1754,1754,1754,1754,1754,1754,1754,1754,1754,1754,1754,1754,1754,1754,1754,1754,1754,1754,
1754,1754,1754,1754,1754,1754,1754,1754,1754,1754,1754,1754,1754,1754,5131,5132,5148,5148,1754,1754,1754,1754,1754,1754,1754,5147,5148,5131,5132,5147,5148,1754,1754,1754,1754,1754,1754,1754,1754,1754,1754,1754,1754,1754,1754,1754,1754,1754,1754,1754,1754,1754,1754,1754,1754,1754,1754,1754,1754,1754,
1754,1754,1754,1754,1754,1754,1754,1754,1754,1754,1754,1754,1754,1754,5131,5132,5147,5148,1754,1754,1754,1754,1754,1754,1754,5147,5148,5131,5132,5147,5148,1754,1754,1754,1754,1754,1754,1754,1754,1754,1754,1754,1754,1754,1754,1754,1754,1754,1754,1754,1754,1754,1754,1754,1754,1754,1754,1754,1754,1754,
1754,1754,1754,1754,1754,1754,1754,1754,1754,1754,1754,1754,1754,1754,5131,5132,5148,5131,5132,5132,5131,5131,5131,5132,5131,5131,5132,5131,5132,5147,5148,5132,5132,5132,5132,5132,5132,5132,5132,5132,5132,5132,5132,5132,5132,5132,5132,5132,5132,5132,5132,5132,5132,5132,5132,5132,5132,5132,5131,5132,
1754,1754,1754,1754,1754,1754,1754,1754,1754,1754,1754,1754,1754,1754,5131,5132,5148,5131,5132,5148,5132,5132,5131,5131,5147,5131,5132,5147,5148,5147,5148,5148,5148,5148,5148,5148,5148,5148,5148,5148,5148,5148,5148,5148,5148,5148,5148,5148,5148,5148,5148,5148,5148,5148,5148,5148,5148,5148,5131,5132,
1754,1754,1754,1754,1754,1754,1754,1754,1754,1754,1754,1754,1754,1754,5131,5132,5148,5131,5132,5148,5148,5148,5132,5132,5132,5132,5132,5131,5132,5131,5132,5132,5132,5132,5132,5132,5132,5132,5132,5132,5132,5132,5132,5132,5132,5132,5132,5132,5132,5132,5132,5132,5132,5132,5132,5132,5132,5132,5131,5132,
1754,1754,1754,1754,1754,1754,1754,1754,1754,1754,1754,1754,1754,1754,5147,5148,5148,5147,5148,5148,5147,5148,5148,5148,5148,5148,5148,5147,5148,5147,5148,5148,5148,5148,5148,5148,5148,5148,5148,5148,5148,5148,5148,5148,5148,5148,5148,5148,5148,5148,5148,5148,5148,5148,5148,5148,5148,5148,5147,5148,
1754,1754,1754,1754,1754,1754,1754,1754,1754,1754,1754,1754,1754,1754,1754,1754,1754,1754,1754,1754,1754,1754,1754,1754,1754,1754,1754,1754,1754,1754,1754,1754,1754,1754,1754,1754,1754,1754,1754,1754,1754,1754,1754,1754,1754,1754,1754,1754,1754,1754,1754,1754,1754,1754,1754,1754,1754,1754,1754,1754,
1754,1754,1754,1754,1754,1754,1754,1754,1754,1754,1754,1754,1754,1754,1754,1754,1754,1754,1754,1754,1754,1754,1754,1754,1754,1754,1754,1754,1754,1754,1754,1754,1754,1754,1754,1754,1754,1754,1754,1754,1754,1754,1754,1754,1754,1754,1754,1754,1754,1754,1754,1754,1754,1754,1754,1754,1754,1754,1754,1754,
1754,1754,1754,1754,1754,1754,1754,1754,1754,1754,1754,1754,1754,1754,1754,1754,1754,1754,1754,1754,1754,1754,1754,1754,1754,1754,1754,1754,1754,1754,1754,1754,1754,1754,1754,1754,1754,1754,1754,1754,1754,1754,1754,1754,1754,1754,1754,1754,1754,1754,1754,1754,1754,1754,1754,1754,1754,1754,1754,1754,
1754,1754,1754,1754,1754,1754,1754,1754,1754,1754,1754,1754,1754,1754,1754,1754,1754,1754,1754,1754,1754,1754,1754,1754,1754,1754,1754,1754,1754,1754,1754,1754,1754,1754,1754,1754,1754,1754,1754,1754,1754,1754,1754,1754,1754,1754,1754,1754,1754,1754,1754,1754,1754,1754,1754,1754,1754,1754,1754,1754,
1754,1754,1754,1754,1754,1754,1754,1754,1754,1754,1754,1754,1754,1754,1754,1754,1754,1754,1754,1754,1754,1754,1754,1754,1754,1754,1754,1754,1754,1754,1754,1754,1754,1754,1754,1754,1754,1754,1754,1754,1754,1754,1754,1754,1754,1754,1754,1754,1754,1754,1754,1754,1754,1754,1754,1754,1754,1754,1754,1754,
1754,1754,1754,1754,1754,1754,1754,1754,1754,1754,1754,1754,1754,1754,1754,1754,1754,1754,1754,1754,1754,1754,1754,1754,1754,1754,1754,1754,1754,1754,1754,1754,1754,1754,1754,1754,1754,1754,1754,1754,1754,1754,1754,1754,1754,1754,1754,1754,1754,1754,1754,1754,1754,1754,1754,1754,1754,1754,1754,1754
</data>
 </layer>
 <layer id="7" name="Folhagem4" width="60" height="40">
  <data encoding="csv">
0,0,0,0,0,0,0,0,0,0,0,0,0,0,0,0,0,0,0,0,0,0,0,0,0,0,0,0,0,0,0,0,0,0,0,0,0,0,0,0,0,0,0,0,0,0,0,0,0,0,0,0,0,0,0,0,0,0,0,0,
0,0,0,0,0,0,0,0,0,0,0,0,0,0,0,0,0,0,0,0,0,0,0,0,0,0,0,0,0,0,0,0,0,0,0,0,0,0,0,0,0,0,0,0,0,0,0,0,0,0,0,0,0,0,0,0,0,0,0,0,
0,0,0,0,0,0,0,0,0,0,0,0,0,0,0,0,0,0,0,0,0,0,0,0,0,0,0,0,0,0,0,0,0,0,0,0,0,0,0,0,0,0,0,0,0,0,0,0,0,0,0,0,0,0,0,0,0,0,0,0,
0,0,0,0,0,0,0,0,0,0,0,0,0,0,0,0,0,0,0,0,0,0,0,0,0,0,0,0,0,0,0,0,0,0,0,0,0,0,0,0,0,0,0,0,0,0,0,0,0,0,0,0,0,0,0,0,0,0,0,0,
0,0,0,0,0,0,0,0,0,0,0,0,0,0,0,0,0,0,0,0,0,0,0,0,0,0,0,0,0,0,0,0,0,0,0,0,0,0,0,0,0,0,0,0,0,0,0,0,0,0,0,0,0,0,0,0,0,0,0,0,
0,0,0,0,0,0,0,0,0,0,0,0,0,0,0,0,0,0,0,0,0,0,0,0,0,0,0,0,0,0,0,0,0,0,0,0,0,0,0,0,0,0,0,0,0,0,0,0,0,0,0,0,0,0,0,0,0,0,0,0,
0,0,0,0,0,0,0,0,0,0,0,0,0,0,0,0,0,0,0,0,0,0,0,0,0,0,0,0,0,0,0,0,0,0,0,0,0,0,0,0,0,0,0,0,0,0,0,0,0,0,0,0,0,0,0,0,0,0,0,0,
0,0,0,0,0,0,0,0,0,0,0,0,0,0,0,0,0,0,0,0,0,0,0,0,0,0,0,0,0,0,0,0,0,0,0,0,0,0,0,0,0,0,0,0,0,0,0,0,0,0,0,0,0,0,0,0,0,0,0,0,
0,0,0,0,0,0,0,0,0,0,0,0,0,0,0,0,0,0,0,0,0,0,0,0,0,0,0,0,0,0,0,0,0,0,0,0,0,0,0,0,0,0,0,0,0,0,0,0,0,0,0,0,0,0,0,0,0,0,0,0,
0,0,0,0,0,0,0,0,0,0,0,0,0,0,0,0,0,0,0,0,0,0,0,0,0,0,0,0,0,0,0,0,0,0,0,0,0,0,0,0,0,0,0,0,0,0,0,0,0,0,0,0,0,0,0,0,0,0,0,0,
0,0,0,0,0,0,0,0,0,0,0,0,0,0,0,0,0,0,0,0,0,0,0,0,0,0,0,0,0,0,0,0,0,0,0,0,0,0,0,0,0,0,0,0,0,0,0,0,0,0,0,0,0,0,0,0,0,0,0,0,
0,0,0,0,0,0,0,0,0,0,0,0,0,0,0,0,0,0,0,0,0,0,0,0,0,0,0,0,0,0,0,0,0,0,0,0,0,0,0,0,0,0,0,0,0,0,0,0,0,0,0,0,0,0,0,0,0,0,0,0,
0,0,0,0,0,0,0,0,0,0,0,3647,3648,3649,3650,0,3647,3648,3649,3650,0,0,0,0,0,0,0,0,0,0,0,0,0,0,0,0,0,0,0,0,0,0,0,0,0,0,0,0,0,0,0,0,0,0,0,0,0,0,0,0,
0,0,0,0,0,0,0,0,0,0,0,3663,3664,3665,3666,0,3663,3664,3665,3666,0,0,0,0,0,0,0,0,0,0,0,0,0,0,0,0,0,0,0,0,0,0,0,0,0,0,0,0,0,0,0,0,0,0,0,0,0,0,0,0,
0,0,0,0,0,0,0,0,0,0,0,3679,3680,3681,3682,0,3679,3680,3681,3682,0,0,0,0,0,0,0,0,0,0,0,0,0,0,0,0,0,0,0,0,0,0,0,0,0,0,0,0,0,0,0,0,0,0,0,0,0,0,0,0,
0,0,0,0,0,0,0,0,0,0,0,0,0,0,0,0,0,0,0,0,0,0,0,0,0,0,0,0,0,0,0,0,0,0,0,0,0,0,0,0,0,0,0,0,0,0,0,0,0,0,0,0,0,0,0,0,0,0,0,0,
0,0,0,0,0,0,0,0,0,0,0,0,0,0,0,0,0,0,0,0,0,0,0,0,0,0,0,0,0,0,0,0,0,0,0,0,0,0,0,0,0,0,0,0,0,0,0,0,0,0,0,0,0,0,0,0,0,0,0,0,
0,0,0,0,0,0,0,0,0,0,0,0,0,0,0,0,0,0,0,0,0,0,0,0,0,0,0,0,0,0,0,0,0,0,0,0,0,0,0,0,0,0,0,0,0,0,0,0,0,0,0,0,0,0,0,0,0,0,0,0,
0,0,0,0,0,0,0,0,0,0,0,0,0,0,0,0,0,0,0,0,0,0,0,0,0,0,0,0,0,0,0,0,0,0,0,0,0,0,0,0,0,0,0,0,0,0,0,0,0,0,0,0,0,0,0,0,0,0,0,0,
0,0,0,0,0,0,0,0,0,0,0,0,0,0,0,0,0,0,0,0,0,0,0,0,0,0,0,0,0,0,0,0,0,0,0,0,0,0,0,0,0,0,0,0,0,0,0,0,0,0,0,0,0,0,0,0,0,0,0,0,
0,0,0,0,0,0,0,0,0,0,0,0,0,0,0,0,0,0,0,0,0,0,0,0,0,0,0,0,0,0,0,0,0,0,0,0,0,0,0,0,0,0,0,0,0,0,0,0,0,0,0,0,0,0,0,0,0,0,0,0,
0,0,0,0,0,0,0,0,0,0,0,0,0,0,0,0,0,0,0,0,0,0,0,0,0,0,0,0,0,0,0,0,0,0,0,0,0,0,0,0,0,0,0,0,0,0,0,0,0,0,0,0,0,0,0,0,0,0,0,0,
0,0,0,0,0,0,0,0,0,0,0,0,0,0,0,0,0,0,0,0,0,0,0,0,0,0,0,0,0,0,0,0,0,0,0,0,0,0,0,0,0,0,0,0,0,0,0,0,0,0,0,0,0,0,0,0,0,0,0,0,
0,0,0,0,0,0,0,0,0,0,0,0,0,0,0,0,0,0,0,0,0,0,0,0,0,0,0,0,0,0,0,0,0,0,0,0,0,0,0,0,0,0,0,0,0,0,0,0,0,0,0,0,0,0,0,0,0,0,0,0,
0,0,0,0,0,0,0,0,0,0,0,0,0,0,0,0,0,0,0,0,0,0,0,0,0,0,0,0,0,0,0,0,0,0,0,0,0,0,0,0,0,0,0,0,0,0,0,0,0,0,0,0,0,0,0,0,0,0,0,0,
0,0,0,0,0,0,0,0,0,0,0,0,0,0,0,0,0,0,0,0,0,0,0,0,0,0,0,0,0,0,0,0,0,0,0,0,0,0,0,0,0,0,0,0,0,0,0,0,0,0,0,0,0,0,0,0,0,0,0,0,
0,0,0,0,0,0,0,0,0,0,0,0,0,0,0,0,0,0,0,0,0,0,0,0,0,0,0,0,0,0,0,0,0,0,0,0,0,0,0,0,0,0,0,0,0,0,0,0,0,0,0,0,0,0,0,0,0,0,0,0,
0,0,0,0,0,0,0,0,0,0,0,0,0,0,0,0,0,0,0,0,0,0,0,0,0,0,0,0,0,0,0,0,0,0,0,0,0,0,0,0,0,0,0,0,0,0,0,0,0,0,0,0,0,0,0,0,0,0,0,0,
0,0,0,0,0,0,0,0,0,0,0,0,0,0,0,0,0,0,0,0,0,0,0,0,0,0,0,0,0,0,0,0,0,0,0,0,0,0,0,0,0,0,0,0,0,0,0,0,0,0,0,0,0,0,0,0,0,0,0,0,
0,0,0,0,0,0,0,0,0,0,0,0,0,0,0,0,0,0,0,0,0,0,0,0,0,0,0,0,0,0,0,0,0,0,0,0,0,0,0,0,0,0,0,0,0,0,0,0,0,0,0,0,0,0,0,0,0,0,0,0,
0,0,0,0,0,0,0,0,0,0,0,0,0,0,0,0,0,0,0,0,0,0,0,0,0,0,0,0,0,0,0,0,0,0,0,0,0,0,0,0,0,0,0,0,0,0,0,0,0,0,0,0,0,0,0,0,0,0,0,0,
0,0,0,0,0,0,0,0,0,0,0,0,0,0,0,0,0,0,0,0,0,0,0,0,0,0,0,0,0,0,0,0,0,0,0,0,0,0,0,0,0,0,0,0,0,0,0,0,0,0,0,0,0,0,0,0,0,0,0,0,
0,0,0,0,0,0,0,0,0,0,0,0,0,0,0,0,0,0,0,0,0,0,0,0,0,0,0,0,0,0,0,0,0,0,0,0,0,0,0,0,0,0,0,0,0,0,0,0,0,9891,9892,9893,9894,9895,9896,0,0,0,0,0,
0,0,0,0,0,0,0,0,0,0,0,0,0,0,0,0,0,0,0,0,0,0,0,0,0,0,0,0,0,0,0,0,0,0,0,0,0,0,0,0,0,0,0,0,0,0,0,0,0,9907,9908,9909,9910,9911,9912,0,0,0,0,0,
0,0,0,0,0,0,0,0,0,0,0,0,0,0,0,0,0,0,0,0,0,0,0,0,0,0,0,0,0,0,0,0,0,0,0,0,0,0,0,0,0,0,0,0,0,0,0,0,9891,9923,9924,9925,9926,9927,9928,0,0,0,0,0,
0,0,0,0,0,0,0,0,0,0,0,0,0,0,0,0,0,0,0,0,0,0,0,0,0,0,0,0,0,0,0,0,0,0,0,0,0,0,0,0,0,0,0,0,0,0,0,0,9907,9939,9940,9941,9942,9943,9944,0,0,0,0,0,
0,0,0,0,0,0,0,0,0,0,0,0,0,0,0,0,0,0,0,0,0,0,0,0,0,0,0,0,0,0,0,0,0,0,0,0,0,0,0,0,0,0,0,0,0,0,0,0,9923,9955,9956,9957,9958,9959,9960,0,0,0,0,0,
0,0,0,0,0,0,0,0,0,0,0,0,0,0,0,0,0,0,0,0,0,0,0,0,0,0,0,0,0,0,0,0,0,0,0,0,0,0,0,0,0,0,0,0,0,0,0,0,9939,9971,9972,9973,9974,9975,9976,0,0,0,0,0,
0,0,0,0,0,0,0,0,0,0,0,0,0,0,0,0,0,0,0,0,0,0,0,0,0,0,0,0,0,0,0,0,0,0,0,0,0,0,0,0,0,0,0,0,0,0,0,0,9955,9956,9957,9958,9959,9960,0,0,0,0,0,0,
0,0,0,0,0,0,0,0,0,0,0,0,0,0,0,0,0,0,0,0,0,0,0,0,0,0,0,0,0,0,0,0,0,0,0,0,0,0,0,0,0,0,0,0,0,0,0,0,9971,9972,9973,9974,9975,9976,0,0,0,0,0,0
</data>
 </layer>
 <layer id="6" name="Folhagem3" width="60" height="40">
  <data encoding="csv">
0,0,0,0,0,0,0,0,0,0,0,0,0,0,0,0,0,0,0,0,0,0,0,0,0,0,0,0,0,0,0,0,0,0,0,0,0,0,0,0,0,0,0,0,0,0,0,0,0,0,0,0,0,0,0,0,0,0,0,0,
0,0,0,0,0,0,0,0,0,0,0,0,0,0,0,0,0,0,0,0,0,0,0,0,0,0,0,0,0,0,0,0,0,0,0,0,0,0,0,0,0,0,0,0,0,0,0,0,0,0,0,0,0,0,0,0,0,0,0,0,
0,0,0,0,0,0,0,0,0,0,0,0,0,0,0,0,0,0,0,0,0,0,0,0,0,0,0,0,0,0,0,0,0,0,0,0,0,0,0,0,0,0,0,0,0,0,0,0,0,0,0,0,0,0,0,0,0,0,0,0,
0,0,0,0,0,0,0,0,0,0,0,0,0,0,0,0,0,0,0,0,0,0,0,0,0,0,0,0,0,0,0,0,0,0,0,0,0,0,0,0,0,0,0,0,0,0,0,0,0,0,0,0,0,0,0,0,0,0,0,0,
0,0,0,0,0,0,0,0,0,0,0,0,0,0,0,0,0,0,0,0,0,0,0,0,0,0,0,0,0,0,0,0,0,0,0,0,0,0,0,0,0,0,0,0,0,0,0,0,0,0,0,0,0,0,0,0,0,0,0,0,
0,0,0,0,0,0,0,0,0,0,0,0,0,0,0,0,0,0,0,0,0,0,0,0,0,0,0,0,0,0,0,0,0,0,0,0,0,0,0,0,0,0,0,0,0,0,0,0,0,0,0,0,0,0,0,0,0,0,0,0,
0,0,0,0,0,0,0,0,0,0,0,0,0,0,0,0,0,0,0,0,0,0,0,0,0,0,0,0,0,0,0,0,0,0,0,0,0,0,0,0,0,0,0,0,0,0,0,0,0,0,0,0,0,0,0,0,0,0,0,0,
0,0,0,0,0,0,0,0,0,0,0,0,0,0,0,0,0,0,0,0,0,0,0,0,0,0,0,0,0,0,0,0,0,0,0,0,0,0,0,0,0,0,0,0,0,0,0,0,0,0,0,0,0,0,0,0,0,0,0,0,
0,0,0,0,0,0,0,0,0,0,0,0,0,0,0,0,0,0,0,0,0,0,0,0,0,0,0,0,0,0,0,0,0,0,0,0,0,0,0,0,0,0,0,0,0,0,0,0,0,0,0,0,0,0,0,0,0,0,0,0,
0,0,0,0,0,0,0,0,0,0,0,0,0,0,0,0,0,0,0,0,0,0,0,0,0,0,0,0,0,0,0,0,0,0,0,0,0,0,0,0,0,0,0,0,0,0,0,0,0,0,0,0,0,0,0,0,0,0,0,0,
0,0,0,0,0,0,0,0,0,0,0,0,0,0,0,0,0,0,0,0,0,0,0,0,0,0,0,0,0,0,0,0,0,0,0,0,0,0,0,0,0,0,0,0,0,0,0,0,0,0,0,0,0,0,0,0,0,0,0,0,
0,0,0,0,0,0,0,0,0,0,0,0,0,0,0,0,0,0,0,0,0,0,0,0,0,0,0,0,0,0,0,0,0,0,0,0,0,0,0,0,0,0,0,0,0,0,0,0,0,0,0,0,0,0,0,0,0,0,0,0,
0,0,0,0,0,0,0,0,0,0,0,0,0,0,0,0,0,0,0,0,0,0,0,0,0,0,0,0,0,0,0,0,0,0,0,0,0,0,0,0,0,0,0,0,0,0,0,0,0,0,0,0,0,0,0,0,0,0,0,0,
0,0,0,0,0,0,0,0,0,0,0,0,0,0,0,0,0,0,0,0,0,0,0,0,0,0,0,0,0,0,0,0,0,0,0,0,0,0,0,0,0,0,0,0,0,0,0,0,0,0,0,0,0,0,0,0,0,0,0,0,
0,0,0,0,0,0,0,0,0,0,0,3647,3648,3649,3650,0,3647,3648,3649,3650,0,0,0,0,0,0,0,0,0,0,0,0,0,0,0,0,0,0,0,0,0,0,0,0,0,0,0,0,0,0,0,0,0,0,0,0,0,0,0,0,
0,0,0,0,0,0,0,0,0,0,0,3663,3664,3665,3666,0,3663,3664,3665,3666,0,0,0,0,0,0,0,0,0,0,0,0,0,0,0,0,0,0,0,0,0,0,0,0,0,0,0,0,0,0,0,0,0,0,0,0,0,0,0,0,
0,0,0,0,0,0,0,0,0,0,0,3679,3680,3681,3682,0,3679,3680,3681,3682,0,0,0,0,0,0,0,0,0,0,0,0,0,0,0,0,0,0,0,0,0,0,0,0,0,0,0,0,0,0,0,0,0,0,0,0,0,0,0,0,
0,0,0,0,0,0,0,0,0,0,0,0,0,0,0,0,0,0,0,0,0,0,0,0,0,0,0,0,0,0,0,0,0,0,0,0,0,0,0,0,0,0,0,0,0,0,0,0,0,0,0,0,0,0,0,0,0,0,0,0,
0,0,0,0,0,0,0,0,0,0,0,0,0,0,0,0,0,0,0,0,0,0,0,0,0,0,0,0,0,0,0,0,0,0,0,0,0,0,0,0,0,0,0,0,0,0,0,0,0,0,0,0,0,0,0,0,0,0,0,0,
0,0,0,0,0,0,0,0,0,0,0,0,0,0,0,0,0,0,0,0,0,0,0,0,0,0,0,0,0,0,0,0,0,0,0,0,0,0,0,0,0,0,0,0,0,0,0,0,0,0,0,0,0,0,0,0,0,0,0,0,
0,0,0,0,0,0,0,0,0,0,0,0,0,0,0,0,0,0,0,0,0,0,0,0,0,0,0,0,0,0,0,0,0,0,0,0,0,0,0,0,0,0,0,0,0,0,0,0,0,0,0,0,0,0,0,0,0,0,0,0,
0,0,0,0,0,0,0,0,0,0,0,0,0,0,0,0,0,0,0,0,0,0,0,0,0,0,0,0,0,0,0,0,0,0,0,0,0,0,0,0,0,0,0,0,0,0,0,0,0,0,0,0,0,0,0,0,0,0,0,0,
0,0,0,0,0,0,0,0,0,0,0,0,0,0,0,0,0,0,0,0,0,0,0,0,0,0,0,0,0,0,0,0,0,0,0,0,0,0,0,0,0,0,0,0,0,0,0,0,0,0,0,0,0,0,0,0,0,0,0,0,
0,0,0,0,0,0,0,0,0,0,0,0,0,0,0,0,0,0,0,0,0,0,0,0,0,0,0,0,0,0,0,0,0,0,0,0,0,0,0,0,0,0,0,0,0,0,0,0,0,0,0,0,0,0,0,0,0,0,9896,0,
0,0,0,0,0,0,0,0,0,0,0,0,0,0,0,0,0,0,0,0,0,0,0,0,0,0,0,0,0,0,0,0,0,0,0,0,0,0,0,0,0,0,0,0,0,0,0,0,0,0,0,0,0,0,0,0,0,0,9912,0,
0,0,0,0,0,0,0,0,0,0,0,0,0,0,0,0,0,0,0,0,0,0,0,0,0,0,0,0,0,0,0,0,0,0,0,0,0,0,0,0,0,0,0,0,0,0,0,0,0,0,0,0,0,0,0,0,0,0,0,0,
0,0,0,0,0,0,0,0,0,0,0,0,0,0,0,0,0,0,0,0,0,0,0,0,0,0,0,0,0,0,0,0,0,0,0,0,0,0,0,0,0,0,0,0,0,0,0,0,0,0,0,0,0,0,0,0,0,0,0,0,
0,0,0,0,0,0,0,0,0,0,0,0,0,0,0,0,0,0,0,0,0,0,0,0,0,0,0,0,0,0,0,0,0,0,0,0,0,0,0,0,0,0,0,0,0,0,0,0,0,0,0,0,0,0,0,0,0,0,9960,0,
0,0,0,0,0,0,0,0,0,0,0,0,0,0,0,0,0,0,0,0,0,0,0,0,0,0,0,0,0,0,0,0,0,0,0,0,0,0,0,0,0,0,0,0,0,0,0,0,0,0,0,0,0,9971,0,0,0,0,9976,0,
0,0,0,0,0,0,0,0,0,0,0,0,0,0,0,0,0,0,0,0,0,0,0,0,0,0,0,0,0,0,0,0,0,0,0,0,0,0,0,0,0,0,0,0,0,0,0,0,0,0,0,0,0,0,0,0,0,0,0,0,
0,0,0,0,0,0,0,0,0,0,0,0,0,0,0,0,0,0,0,0,0,0,0,0,0,0,0,0,0,0,0,0,0,0,0,0,0,0,0,0,0,0,0,0,0,0,0,0,0,0,0,0,0,0,0,0,0,0,0,0,
0,0,0,0,0,0,0,0,0,0,0,0,0,0,0,0,0,0,0,0,0,0,0,0,0,0,0,0,0,0,0,0,0,0,0,0,0,0,0,0,0,0,0,0,0,0,0,0,0,0,0,0,0,0,0,0,0,0,0,0,
0,0,0,0,0,0,0,0,0,0,0,0,0,0,0,0,0,0,0,0,0,0,0,0,0,0,0,0,0,0,0,0,0,0,0,0,0,0,0,0,0,0,0,0,0,9891,9891,9892,9893,9894,9895,9896,9894,9895,9896,0,0,0,0,0,
0,0,0,0,0,0,0,0,0,0,0,0,0,0,0,0,0,0,0,0,0,0,0,0,0,0,0,0,0,0,0,0,0,0,0,0,0,0,0,0,0,0,0,0,0,0,0,9908,9909,9910,9911,9912,9910,9911,9912,0,0,0,0,0,
0,0,0,0,0,0,0,0,0,0,0,0,0,0,0,0,0,0,0,0,0,0,0,0,0,0,0,0,0,0,0,0,0,0,0,0,0,0,0,0,0,0,0,0,0,0,0,9924,9925,9926,9927,9928,9926,9927,9928,0,0,0,0,0,
0,0,0,0,0,0,0,0,0,0,0,0,0,0,0,0,0,0,0,0,0,0,0,0,0,0,0,0,0,0,0,0,0,0,0,0,0,0,0,0,0,0,0,0,0,0,0,9940,9941,9942,9943,9944,9942,9943,9944,0,0,0,0,0,
0,0,0,0,0,0,0,0,0,0,0,0,0,0,0,0,0,0,0,0,0,0,0,0,0,0,0,0,0,0,0,0,0,0,0,0,0,0,0,0,0,0,0,0,0,9955,9955,9956,9957,9958,9959,9960,9958,9959,9960,0,0,0,0,0,
0,0,0,0,0,0,0,0,0,0,0,0,0,0,0,0,0,0,0,0,0,0,0,0,0,0,0,0,0,0,0,0,0,0,0,0,0,0,0,0,0,0,0,0,0,9971,9971,9972,9973,9974,9975,9976,9974,9975,9976,0,0,0,0,0,
0,0,0,0,0,0,0,0,0,0,0,0,0,0,0,0,0,0,0,0,0,0,0,0,0,0,0,0,0,0,0,0,0,0,0,0,0,0,0,0,0,0,0,0,0,0,0,0,0,0,0,0,0,0,0,0,0,0,0,0,
0,0,0,0,0,0,0,0,0,0,0,0,0,0,0,0,0,0,0,0,0,0,0,0,0,0,0,0,0,0,0,0,0,0,0,0,0,0,0,0,0,0,0,0,0,0,0,0,0,0,0,0,0,0,0,0,0,0,0,0
</data>
 </layer>
 <layer id="2" name="Folhagem2" width="60" height="40">
  <data encoding="csv">
0,0,0,0,0,0,0,0,0,0,0,0,0,0,0,0,0,0,0,0,0,0,0,0,0,0,0,0,0,0,0,0,0,0,0,0,0,0,0,0,0,0,0,0,0,0,0,0,0,0,0,0,0,0,0,0,0,0,0,0,
0,0,0,0,0,0,0,0,0,0,0,0,0,0,0,0,0,0,0,0,0,0,0,0,0,0,0,0,0,0,0,0,0,0,0,0,0,0,0,0,0,0,0,0,0,0,0,0,0,0,0,0,0,0,0,0,0,0,0,0,
0,0,0,0,0,0,0,0,0,0,0,0,0,0,0,0,0,0,0,0,0,0,0,0,0,0,0,0,0,0,0,0,0,0,0,0,0,0,0,0,0,0,0,0,0,0,0,0,0,0,0,0,0,0,0,0,0,0,0,0,
0,0,0,0,0,0,0,0,0,0,0,0,0,0,0,0,0,0,0,0,0,0,0,0,0,0,0,0,0,0,0,0,0,0,0,0,0,0,0,0,0,0,0,0,0,0,0,0,0,0,0,0,0,0,0,0,0,0,0,0,
0,0,0,0,0,0,0,0,0,0,0,0,0,0,0,0,0,0,0,0,0,0,0,0,0,0,0,0,0,0,0,0,0,0,0,0,0,0,0,0,0,0,0,0,0,0,0,0,0,0,0,0,0,0,0,0,0,0,0,0,
0,0,0,0,0,0,0,0,0,0,0,0,0,0,0,0,0,0,0,0,0,0,0,0,0,0,0,0,0,0,0,0,0,0,0,0,0,0,0,0,0,0,0,0,0,0,0,0,0,0,0,0,0,0,0,0,0,0,0,0,
0,0,0,0,0,0,0,0,0,0,0,0,0,0,0,0,0,0,0,0,0,0,0,0,0,0,0,0,0,0,0,0,0,0,0,0,0,0,0,0,0,0,0,0,0,0,0,0,0,0,0,0,0,0,0,0,0,0,0,0,
0,0,0,0,0,0,0,0,0,0,0,0,0,0,0,0,0,0,0,0,0,0,0,0,0,0,0,0,0,0,0,0,0,0,0,0,0,0,0,0,0,0,0,0,0,0,0,0,0,0,0,0,0,0,0,0,0,0,0,0,
0,0,0,0,0,0,0,0,0,0,0,0,0,0,0,0,0,0,0,0,0,0,0,0,0,0,0,0,0,0,0,0,0,0,0,0,0,0,0,0,0,0,0,0,0,0,0,0,0,0,0,0,0,0,0,0,0,0,0,0,
0,0,0,0,0,0,0,0,0,0,0,0,0,0,0,0,0,0,0,0,0,0,0,0,0,0,0,0,0,0,0,0,0,0,0,0,0,0,0,0,0,0,0,0,0,0,0,0,0,0,0,0,0,0,0,0,0,0,0,0,
0,0,0,0,0,0,0,0,0,0,0,0,0,0,0,0,0,0,0,0,0,0,0,0,0,0,0,0,0,0,0,0,0,0,0,0,0,0,0,0,0,0,0,0,0,0,0,0,0,0,0,0,0,0,0,0,0,0,0,0,
0,0,0,0,0,0,0,0,0,0,0,0,0,0,0,0,0,0,0,0,0,0,0,0,0,0,0,0,0,0,0,0,0,0,0,0,0,0,0,0,0,0,0,0,0,0,0,0,0,0,0,0,0,0,0,0,0,0,0,0,
0,0,0,0,0,0,0,0,0,0,0,0,0,0,0,0,0,0,0,0,0,0,0,0,0,0,0,0,0,0,0,0,0,0,0,0,0,0,0,0,0,0,0,0,0,0,0,0,0,0,0,0,0,0,0,0,0,0,0,0,
0,0,0,0,0,0,0,0,0,0,0,0,0,0,0,0,0,0,0,0,0,0,0,0,0,0,0,0,0,0,0,10611,10611,10611,10611,10611,10611,10611,10611,10611,10611,10611,10611,10611,10611,10611,10611,10611,10611,10611,10611,10611,10611,10611,10611,10611,10611,10611,10611,10611,
0,0,0,0,0,0,0,0,0,0,0,0,0,0,0,0,0,0,0,0,0,0,0,0,0,0,0,0,0,0,0,10611,10611,10611,10611,10611,10611,10611,10611,10611,10611,10611,10611,10611,10611,10611,10611,10611,10611,10611,10611,10611,10611,10611,10611,10611,10611,10611,10611,10611,
0,0,0,0,0,0,0,0,0,0,0,0,0,0,0,0,0,0,0,0,0,0,0,0,0,0,0,0,0,0,0,10611,10611,10611,10611,10611,10611,10611,10611,10611,10611,10611,10611,10611,10611,10611,10611,10611,10611,10611,10611,10611,10611,10611,10611,10611,10611,10611,10611,10611,
0,0,0,0,0,0,0,0,0,0,0,3647,3648,3649,3650,0,3647,3648,3649,3650,0,0,0,0,0,0,0,0,0,0,0,10611,10611,10611,10611,10611,10611,10611,10611,10611,10611,10611,10611,10611,10611,10611,10611,10611,10611,10611,10611,10611,10611,10611,10611,10611,10611,10611,10611,10611,
0,0,0,0,0,0,0,0,0,0,0,3663,3664,3665,3666,0,3663,3664,3665,3666,0,0,0,0,0,0,0,0,0,0,0,10611,10611,10611,10611,10611,10611,10611,10611,10611,10611,10611,10611,10611,10611,10611,10611,10611,10611,10611,10611,10611,10611,10611,10611,10611,10611,10611,10611,10611,
0,0,0,0,0,0,0,0,0,0,0,3679,3680,3681,3682,0,3679,3680,3681,3682,0,0,0,0,0,0,0,0,0,0,0,10611,10611,10611,10611,10611,10611,10611,10611,10611,10611,10611,10611,10611,10611,10611,10611,10611,10611,10611,10611,10611,10611,10611,10611,10611,10611,10611,10611,10611,
0,0,0,0,0,0,0,0,0,0,0,0,0,0,0,0,0,0,0,0,0,0,0,0,0,0,0,0,0,0,0,10611,10611,10611,10611,10611,10611,10611,10611,10611,10611,10611,10611,10611,10611,10611,10611,10611,10611,10611,10611,10611,10611,10611,10611,10611,10611,10611,10611,10611,
0,0,0,0,0,0,0,0,0,0,0,0,0,0,0,0,0,0,0,0,0,0,0,0,0,0,0,0,0,0,0,10611,10611,10611,10611,10611,10611,10611,10611,10611,10611,10611,10611,10611,10611,10611,10611,10611,10611,10611,10611,10611,10611,10611,10611,10611,10611,10611,10611,10611,
0,0,0,0,0,0,0,0,0,0,0,0,0,0,0,0,0,0,0,0,0,0,0,0,0,0,0,0,0,0,0,10611,10611,10611,10611,10611,10611,10611,10611,10611,10611,10611,10611,10611,10611,10611,10611,10611,10611,10611,10611,10611,10611,10611,10611,10611,10611,10611,10611,10611,
0,0,0,0,0,0,0,0,0,0,0,0,0,0,0,0,0,0,0,0,0,0,0,0,0,0,0,0,0,0,0,10611,10611,10611,10611,10611,10611,10611,10611,10611,10611,10611,10611,10611,10611,9891,0,0,0,9895,9896,10611,10611,10611,9891,10611,10611,10611,9895,9896,
0,0,0,0,0,0,0,0,0,0,0,0,0,0,0,0,0,0,0,0,0,0,0,0,0,0,0,0,0,0,0,10611,10611,10611,10611,10611,10611,10611,10611,10611,10611,10611,10611,0,0,0,0,0,0,0,0,10611,10611,10611,9907,10611,10611,10611,10611,9912,
0,0,0,0,0,0,0,0,0,0,0,0,0,0,0,0,0,0,0,0,0,0,0,0,0,0,0,0,0,0,0,10611,10611,10611,10611,10611,10611,10611,10611,10611,0,0,10611,10611,0,0,0,0,0,0,0,0,10611,10611,10611,10611,0,0,0,10611,
0,0,0,0,0,0,0,0,0,0,0,0,0,0,0,0,0,0,0,0,0,0,0,0,0,0,0,0,0,0,0,10611,10611,10611,10611,10611,0,0,0,0,0,0,0,0,0,0,0,0,0,0,0,0,0,10611,10611,0,0,0,0,10611,
0,0,0,0,0,0,0,0,0,0,0,0,0,0,0,0,0,0,0,0,0,0,0,0,0,0,0,0,0,0,0,10611,10611,10611,10611,0,0,10611,10611,10611,0,10611,10611,10611,0,0,0,0,0,0,0,0,0,0,0,0,0,0,0,3686,
0,0,0,0,0,0,0,0,0,0,0,0,0,0,0,0,0,0,0,0,0,0,0,0,0,0,0,0,0,0,0,10611,10611,10611,10611,0,0,0,0,0,0,10611,10611,10611,10611,9971,0,0,0,0,0,0,0,0,0,0,0,0,0,3702,
0,0,0,0,0,0,0,0,0,0,0,0,0,0,0,0,0,0,0,0,0,0,0,0,0,0,0,0,0,0,0,10611,10611,10611,10611,10611,10611,10611,10611,10611,10611,10611,10611,10611,10611,10611,10611,10611,0,0,0,0,0,0,0,0,0,0,0,0,
0,0,0,0,0,0,0,0,0,0,0,0,0,0,0,0,0,0,0,0,0,0,0,0,0,0,0,0,0,0,0,10611,10611,10611,10611,10611,10611,10611,10611,10611,10611,10611,10611,10611,10611,10611,10611,10611,10611,10611,10611,10611,3731,0,0,0,0,0,0,0,
0,0,0,0,0,0,0,0,0,0,0,0,0,0,0,0,0,0,0,0,0,0,0,0,0,0,0,0,0,0,0,10611,10611,10611,10611,10611,10611,10611,10611,10611,10611,10611,10611,10611,10611,10611,10611,10611,10611,10611,10611,10611,10611,10611,10611,10611,10611,10611,10611,10611,
0,0,0,0,0,0,0,0,0,0,0,0,0,0,0,0,0,0,0,0,0,0,0,0,0,0,0,0,0,0,0,10611,10611,10611,10611,10611,10611,10611,10611,10611,10611,10611,10611,10611,10611,10611,10611,10611,10611,10611,10611,10611,10611,10611,10611,10611,10611,10611,10611,10611,
0,0,0,0,0,0,0,0,0,0,0,0,0,0,0,0,0,0,0,0,0,0,0,0,0,0,0,0,0,0,0,10611,10611,10611,10611,10611,10611,10611,10611,10611,10611,10611,10611,10611,10611,10611,9891,9892,9893,9894,9895,9896,10611,9891,9892,9893,9894,9895,9896,9960,
0,0,0,0,0,0,0,0,0,0,0,0,0,0,0,0,0,0,0,0,0,0,0,0,0,0,0,0,0,0,0,10611,10611,10611,10611,10611,10611,10611,10611,10611,10611,10611,10611,10611,10611,0,9907,9908,9909,9910,9911,9912,10611,9907,9908,9909,9910,9911,9912,9976,
0,0,0,0,0,0,0,0,0,0,0,0,0,0,0,0,0,0,0,0,0,0,0,0,0,0,0,0,0,0,0,10611,10611,10611,10611,10611,10611,10611,10611,10611,10611,10611,10611,10611,10611,0,9923,9924,9891,9892,9893,9894,9895,9923,9924,9925,9926,9927,9928,10611,
0,0,0,0,0,0,0,0,0,0,0,0,0,0,0,0,0,0,0,0,0,0,0,0,0,0,0,0,0,0,0,0,0,0,0,0,0,0,0,0,0,0,0,0,0,0,9939,9940,9907,9908,9909,9910,9911,9939,9940,9941,9942,9943,9944,0,
0,0,0,0,0,0,0,0,0,0,0,0,0,0,0,0,0,0,0,0,0,0,0,0,0,0,0,0,0,0,0,0,0,0,0,0,0,0,0,0,0,0,0,0,0,0,9955,9956,9923,9924,9925,9926,9927,9955,9956,9957,9958,9959,9960,0,
0,0,0,0,0,0,0,0,0,0,0,0,0,0,0,0,0,0,0,0,0,0,0,0,0,0,0,0,0,0,0,0,0,0,0,0,0,0,0,0,0,0,0,0,0,0,9971,9972,9939,9940,9941,9942,9943,9971,9972,9973,9974,9975,9976,0,
0,0,0,0,0,0,0,0,0,0,0,0,0,0,0,0,0,0,0,0,0,0,0,0,0,0,0,0,0,0,0,0,0,0,0,0,0,0,0,0,0,0,0,0,0,0,0,0,9955,9956,9957,9958,9959,9960,0,0,0,0,0,0,
0,0,0,0,0,0,0,0,0,0,0,0,0,0,0,0,0,0,0,0,0,0,0,0,0,0,0,0,0,0,0,0,0,0,0,0,0,0,0,0,0,0,0,0,0,0,0,0,9971,9972,9973,9974,9975,9976,0,0,0,0,0,0
</data>
 </layer>
 <layer id="8" name="Folhagem1" width="60" height="40">
  <data encoding="csv">
0,0,0,0,0,0,0,0,0,0,0,0,0,0,0,0,0,0,0,0,0,0,0,0,0,0,0,0,0,0,0,0,0,0,0,0,0,0,0,0,0,0,0,0,0,0,0,0,0,0,0,0,0,0,0,0,0,0,0,0,
0,0,0,0,0,0,0,0,0,0,0,0,0,0,0,0,0,0,0,0,0,0,0,0,0,0,0,0,0,0,0,0,0,0,0,0,0,0,0,0,0,0,0,0,0,0,0,0,0,0,0,0,0,0,0,0,0,0,0,0,
0,0,0,0,0,0,0,0,0,0,0,0,0,0,0,0,0,0,0,0,0,0,0,0,0,0,0,0,0,0,0,0,0,0,0,0,0,0,0,0,0,0,0,0,0,0,0,0,0,0,0,0,0,0,0,0,0,0,0,0,
0,0,0,0,0,0,0,0,0,0,0,0,0,0,0,0,0,0,0,0,0,0,0,0,0,0,0,0,0,0,0,0,0,0,0,0,0,0,0,0,0,0,0,0,0,0,0,0,0,0,0,0,0,0,0,0,0,0,0,0,
0,0,0,0,0,0,0,0,0,0,0,0,0,0,0,0,0,0,0,0,0,0,0,0,0,0,0,0,0,0,0,0,0,0,0,0,0,0,0,0,0,0,0,0,0,0,0,0,0,0,0,0,0,0,0,0,0,0,0,0,
0,0,0,0,0,0,0,0,0,0,0,0,0,0,0,0,0,0,0,0,0,0,0,0,0,0,0,0,0,0,0,0,0,0,0,0,0,0,0,0,0,0,0,0,0,0,0,0,0,0,0,0,0,0,0,0,0,0,0,0,
0,0,0,0,0,0,0,0,0,0,0,0,0,0,0,0,0,0,0,0,0,0,0,0,0,0,0,0,0,0,0,0,0,0,0,0,0,0,0,0,0,0,0,0,0,0,0,0,0,0,0,0,0,0,0,0,0,0,0,0,
0,0,0,0,0,0,0,0,0,0,0,0,0,0,0,0,0,0,0,0,0,0,0,0,0,0,0,0,0,0,0,0,0,0,0,0,0,0,0,0,0,0,0,0,0,0,0,0,0,0,0,0,0,0,0,0,0,0,0,0,
0,0,0,0,0,0,0,0,0,0,0,0,0,0,0,0,0,0,0,0,0,0,0,0,0,0,0,0,0,0,0,0,0,0,0,0,0,0,0,0,0,0,0,0,0,0,0,0,0,0,0,0,0,0,0,0,0,0,0,0,
0,0,0,0,0,0,0,0,0,0,0,0,0,0,0,0,0,0,0,0,0,0,0,0,0,0,0,0,0,0,0,0,0,0,0,0,0,0,0,0,0,0,0,0,0,0,0,0,0,0,0,0,0,0,0,0,0,0,0,0,
0,0,0,0,0,0,0,0,0,0,0,0,0,0,0,0,0,0,0,0,0,0,0,0,0,0,0,0,0,0,0,0,0,0,0,0,0,0,0,0,0,0,0,0,0,0,0,0,0,0,0,0,0,0,0,0,0,0,0,0,
0,0,0,0,0,0,0,0,0,0,0,0,0,0,0,0,0,0,0,0,0,0,0,0,0,0,0,0,0,0,0,0,0,0,0,0,0,0,0,0,0,0,0,0,0,0,0,0,0,0,0,0,0,0,0,0,0,0,0,0,
0,0,0,0,0,0,0,0,0,0,0,0,0,0,0,0,0,0,0,0,0,0,0,0,0,0,0,0,0,0,0,0,0,0,0,0,0,0,0,0,0,0,0,0,0,0,0,0,0,0,0,0,0,0,0,0,0,0,0,0,
0,0,0,0,0,0,0,0,0,0,0,0,0,0,0,0,0,0,0,0,0,0,0,0,0,0,0,0,0,0,0,0,0,0,0,0,0,0,0,0,0,0,0,0,0,0,0,0,0,0,0,0,0,0,0,0,0,0,0,0,
0,0,0,0,0,0,0,0,0,0,0,0,0,0,0,0,0,0,0,0,0,0,0,0,0,0,0,0,0,0,0,0,0,0,0,0,0,0,0,0,0,0,0,0,0,0,0,0,0,0,0,0,0,0,0,0,0,0,0,0,
0,0,0,0,0,0,0,0,0,0,0,0,0,0,0,0,0,0,0,0,0,0,0,0,0,0,0,0,0,0,0,0,0,0,0,0,0,0,0,0,0,0,0,0,0,0,0,0,0,0,0,0,0,0,0,0,0,0,0,0,
0,0,0,0,0,0,0,0,0,0,0,0,0,0,0,0,0,0,0,0,0,0,0,0,0,0,0,0,0,0,0,0,0,0,0,0,0,0,0,0,0,0,0,0,0,0,0,0,0,0,0,0,0,0,0,0,0,0,0,0,
0,0,0,0,0,0,0,0,0,0,0,0,0,0,0,0,0,0,0,0,0,0,0,0,0,0,0,0,0,0,0,0,0,0,0,0,0,0,0,0,0,0,0,0,0,0,0,0,0,0,0,0,0,0,0,0,0,0,0,0,
0,0,0,0,0,0,0,0,0,0,0,3647,3648,3649,3650,0,3647,3648,3649,3650,0,0,0,0,0,0,0,0,0,0,0,0,0,0,0,0,0,0,0,0,0,0,0,0,0,0,0,0,0,0,0,0,0,0,0,0,0,0,0,0,
0,0,0,0,0,0,0,0,0,0,0,3663,3664,3665,3666,0,3663,3664,3665,3666,0,0,0,0,0,0,0,0,0,0,0,0,0,0,0,0,0,0,0,0,0,0,0,0,0,0,0,0,0,0,0,0,0,0,0,0,0,0,0,0,
0,0,0,0,0,0,0,0,0,0,0,3679,3680,3681,3682,0,3679,3680,3681,3682,0,0,0,0,0,0,0,0,0,0,0,0,0,0,0,0,0,0,0,0,0,0,0,0,0,0,0,0,0,0,0,0,0,0,0,0,0,0,0,0,
0,0,0,0,0,0,0,0,0,0,0,0,0,0,0,0,0,0,0,0,0,0,0,0,0,0,0,0,0,0,0,0,0,0,0,0,0,0,0,0,0,0,0,0,0,0,0,0,0,0,0,0,0,0,0,0,0,0,0,0,
0,0,0,0,0,0,0,0,0,0,0,0,0,0,0,0,0,0,0,0,0,0,0,0,0,0,0,0,0,0,0,0,0,0,0,0,0,0,0,0,0,0,0,0,0,0,0,0,0,0,0,0,0,0,0,0,0,0,0,0,
0,0,0,0,0,0,0,0,0,0,0,0,0,0,0,0,0,0,0,0,0,0,0,0,0,0,0,0,0,0,0,0,0,0,0,0,0,0,0,0,0,0,0,0,0,0,0,0,0,0,0,0,0,0,0,0,0,0,0,0,
0,0,0,0,0,0,0,0,0,0,0,0,0,0,0,0,0,0,0,0,0,0,0,0,0,0,0,0,0,0,0,0,0,0,0,0,0,0,0,0,0,0,0,0,0,0,0,0,0,0,0,0,0,0,0,0,0,0,0,0,
0,0,0,0,0,0,0,0,0,0,0,0,0,0,0,0,0,0,0,0,0,0,0,0,0,0,0,0,0,0,0,0,0,0,0,0,0,0,0,0,0,0,0,0,0,0,0,0,0,0,0,0,0,0,0,0,0,0,0,0,
0,0,0,0,0,0,0,0,0,0,0,0,0,0,0,0,0,0,0,0,0,0,0,0,0,0,0,0,0,0,0,0,0,0,0,0,0,0,0,0,0,0,0,0,0,0,0,0,0,0,0,0,0,0,0,0,0,0,0,0,
0,0,0,0,0,0,0,0,0,0,0,0,0,0,0,0,0,0,0,0,0,0,0,0,0,0,0,0,0,0,0,0,0,0,0,0,0,0,0,0,0,0,0,0,0,0,0,0,0,0,0,0,0,0,0,0,0,0,0,0,
0,0,0,0,0,0,0,0,0,0,0,0,0,0,0,0,0,0,0,0,0,0,0,0,0,0,0,0,0,0,0,0,0,0,0,0,0,0,0,0,0,0,0,0,0,0,0,0,0,0,0,0,0,0,0,0,0,0,0,0,
0,0,0,0,0,0,0,0,0,0,0,0,0,0,0,0,0,0,0,0,0,0,0,0,0,0,0,0,0,0,0,0,0,0,0,0,0,0,0,0,0,0,0,0,0,0,0,0,0,0,0,0,0,0,0,0,0,0,0,0,
0,0,0,0,0,0,0,0,0,0,0,0,0,0,0,0,0,0,0,0,0,0,0,0,0,0,0,0,0,0,0,0,0,0,0,0,0,0,0,0,0,0,0,0,0,0,0,0,0,0,0,0,0,0,0,0,0,0,0,0,
0,0,0,0,0,0,0,0,0,0,0,0,0,0,0,0,0,0,0,0,0,0,0,0,0,0,0,0,0,0,0,0,0,0,0,0,0,0,0,0,0,0,0,0,0,0,0,0,0,0,0,0,0,0,0,0,0,0,0,0,
0,0,0,0,0,0,0,0,0,0,0,0,0,0,0,0,0,0,0,0,0,0,0,0,0,0,0,0,0,0,0,0,0,0,0,0,0,0,0,0,0,0,0,0,0,0,0,0,0,0,0,0,0,0,0,0,0,0,0,0,
0,0,0,0,0,0,0,0,0,0,0,0,0,0,0,0,0,0,0,0,0,0,0,0,0,0,0,0,0,0,0,0,0,0,0,0,0,0,0,0,0,0,0,0,0,0,0,0,0,0,0,0,0,0,0,0,0,0,0,0,
0,0,0,0,0,0,0,0,0,0,0,0,0,0,0,0,0,0,0,0,0,0,0,0,0,0,0,0,0,0,0,0,0,0,0,0,0,0,0,0,0,0,0,0,0,0,0,0,0,0,0,9891,9892,9893,9894,9895,9896,0,0,0,
0,0,0,0,0,0,0,0,0,0,0,0,0,0,0,0,0,0,0,0,0,0,0,0,0,0,0,0,0,0,0,0,0,0,0,0,0,0,0,0,0,0,0,0,0,0,0,0,0,0,0,9907,9908,9909,9910,9911,9912,0,0,0,
0,0,0,0,0,0,0,0,0,0,0,0,0,0,0,0,0,0,0,0,0,0,0,0,0,0,0,0,0,0,0,0,0,0,0,0,0,0,0,0,0,0,0,0,0,0,0,0,0,0,0,9923,9924,9925,9926,9927,9928,0,0,0,
0,0,0,0,0,0,0,0,0,0,0,0,0,0,0,0,0,0,0,0,0,0,0,0,0,0,0,0,0,0,0,0,0,0,0,0,0,0,0,0,0,0,0,0,0,0,0,0,0,0,0,9939,9940,9941,9942,9943,9944,0,0,0,
0,0,0,0,0,0,0,0,0,0,0,0,0,0,0,0,0,0,0,0,0,0,0,0,0,0,0,0,0,0,0,0,0,0,0,0,0,0,0,0,0,0,0,0,0,0,0,0,0,0,0,9955,9956,9957,9958,9959,9960,0,0,0,
0,0,0,0,0,0,0,0,0,0,0,0,0,0,0,0,0,0,0,0,0,0,0,0,0,0,0,0,0,0,0,0,0,0,0,0,0,0,0,0,0,0,0,0,0,0,0,0,0,0,0,9971,9972,9973,9974,9975,9976,0,0,0
</data>
 </layer>
 <layer id="5" name="Construções" width="60" height="40" offsetx="-2" offsety="0">
  <data encoding="csv">
0,0,0,0,0,0,0,0,0,0,0,0,0,0,0,0,0,0,0,0,0,0,0,0,0,0,0,0,0,0,0,0,0,0,0,0,0,0,0,0,0,0,0,0,0,0,0,0,0,0,0,0,0,0,0,0,0,0,0,0,
0,0,0,0,0,0,0,0,0,0,0,0,0,0,0,0,0,0,0,0,0,0,0,0,0,0,0,0,0,0,0,0,0,0,0,0,0,0,0,0,0,0,0,0,0,0,0,0,0,0,0,0,0,0,0,0,0,0,0,0,
0,0,0,0,0,0,0,0,0,0,0,0,0,0,0,0,0,0,0,0,0,0,0,0,0,0,0,0,0,0,0,0,0,0,0,0,0,0,0,0,0,0,0,0,0,0,0,0,0,0,0,0,0,0,0,0,0,0,0,0,
0,0,0,0,0,0,0,0,0,0,0,0,0,0,0,0,0,0,0,0,0,0,0,0,0,0,0,0,0,0,0,0,0,0,0,0,0,0,0,0,0,0,0,0,0,0,0,0,0,0,0,0,0,0,0,0,0,0,0,0,
0,0,0,0,0,0,0,0,0,0,0,0,0,0,0,0,0,0,0,0,0,0,0,0,0,0,0,0,0,0,0,0,0,0,0,0,0,0,0,0,0,0,0,0,0,0,0,0,0,0,0,0,0,0,0,0,0,0,0,0,
0,0,0,0,0,0,0,0,0,0,0,0,0,0,0,0,0,0,0,0,0,0,0,0,0,0,0,0,0,0,0,0,0,0,0,0,0,0,0,0,0,0,0,0,0,0,0,0,0,0,0,0,0,0,0,0,0,0,0,0,
0,0,0,0,0,0,0,0,0,0,0,0,0,0,0,0,0,0,0,0,0,0,0,0,0,0,0,0,0,0,0,0,0,0,0,0,0,0,0,0,0,0,0,0,0,0,0,0,0,0,0,0,0,0,0,0,0,0,0,0,
0,0,0,0,0,0,0,0,0,0,0,0,0,0,0,0,0,0,0,0,0,0,0,0,0,0,0,0,0,0,0,0,0,0,0,0,0,0,0,0,0,0,0,0,0,0,0,0,0,0,0,0,0,0,0,0,0,0,0,0,
0,0,0,0,0,0,0,0,0,0,0,0,0,0,0,0,0,0,0,0,0,0,0,0,0,0,0,0,0,0,0,0,0,0,0,0,0,0,0,0,0,0,0,0,0,0,0,0,0,0,0,0,0,0,0,0,0,0,0,0,
0,0,0,0,0,0,0,0,0,0,0,0,0,0,0,0,0,0,0,0,0,0,0,0,0,0,0,0,0,0,0,0,0,0,0,0,0,0,0,0,0,0,0,0,0,0,0,0,0,0,0,0,0,0,0,0,0,0,0,0,
0,0,0,0,0,0,0,0,0,0,0,0,0,0,0,0,0,0,0,0,0,0,0,0,0,0,0,0,0,0,0,0,0,0,0,0,0,0,0,0,0,0,0,0,0,0,0,0,0,0,0,0,0,0,0,0,0,0,0,0,
0,0,0,0,0,0,0,0,0,0,0,0,0,0,0,0,0,0,0,0,0,0,0,0,0,0,0,0,0,0,0,0,0,0,0,0,0,0,0,0,0,0,0,0,0,0,0,0,0,0,0,0,0,0,0,0,0,0,0,0,
0,0,0,0,0,0,0,0,0,0,0,0,0,0,0,0,0,0,0,0,0,0,0,0,0,0,0,0,0,0,0,0,0,0,0,0,0,0,0,0,0,0,0,0,0,0,0,0,0,0,0,0,0,0,0,0,0,0,0,0,
0,0,0,0,0,0,0,0,0,0,0,0,0,0,0,0,0,0,0,0,0,0,0,0,0,0,0,0,0,0,0,0,0,0,0,0,0,0,0,0,0,0,0,0,0,0,0,0,0,0,0,0,0,0,0,0,0,14855,0,0,
0,0,0,0,0,0,0,0,0,0,0,0,0,0,0,0,0,0,0,0,0,0,0,0,0,0,0,0,0,0,0,0,0,0,0,0,0,0,0,0,0,0,0,0,0,0,0,0,0,0,0,0,0,0,0,0,0,0,0,0,
0,0,0,0,0,0,0,0,0,0,0,0,0,0,0,0,0,0,0,0,0,0,0,0,0,0,0,0,0,0,0,0,0,0,0,0,0,0,0,0,0,0,0,0,0,0,0,0,0,0,0,0,0,0,0,0,0,0,0,0,
0,0,0,0,0,0,0,0,0,0,0,0,0,0,0,0,0,0,0,0,0,0,0,0,0,0,0,0,0,0,0,0,0,0,0,0,0,0,0,0,0,0,0,0,0,0,0,0,0,0,0,0,0,0,0,0,0,0,0,0,
0,0,0,0,0,0,0,0,0,0,0,0,0,0,0,0,0,0,0,0,0,0,0,0,0,0,0,0,0,0,0,0,0,0,0,0,0,0,0,0,0,0,0,0,0,0,0,0,0,0,0,0,0,0,0,0,0,0,0,0,
0,0,0,0,0,0,0,0,0,0,0,0,0,0,0,0,0,0,0,0,0,0,0,0,0,0,0,0,0,0,0,0,0,0,0,0,0,0,0,0,0,0,0,0,0,0,0,0,0,0,0,0,0,0,0,0,0,0,0,0,
0,0,0,0,0,0,0,0,0,0,0,0,0,0,0,0,0,0,0,0,0,0,0,0,0,0,0,0,0,0,0,0,0,0,0,0,0,0,0,0,0,0,0,0,0,0,0,0,0,0,0,0,0,0,0,0,0,0,0,0,
0,0,0,0,0,0,0,0,0,0,0,0,0,0,0,0,0,0,0,0,0,0,0,0,0,0,0,0,0,0,0,0,0,0,0,0,0,0,0,0,0,0,0,0,0,0,0,0,0,0,0,0,0,0,0,0,0,0,0,0,
0,0,0,0,0,0,0,0,0,0,0,0,0,0,0,0,0,0,0,0,0,0,0,0,0,0,0,0,0,0,0,0,0,0,0,0,0,0,0,0,0,0,0,0,0,0,0,0,0,0,0,0,0,0,0,0,0,0,0,0,
0,0,0,0,0,0,0,0,0,0,0,0,0,0,0,0,0,0,0,0,0,0,0,0,0,0,0,0,0,0,0,0,0,0,0,0,0,0,0,0,0,0,0,0,0,0,0,0,0,0,0,0,0,0,0,0,0,0,0,0,
0,0,0,0,0,0,0,0,0,0,0,0,0,0,0,0,0,0,0,0,0,0,0,0,0,0,0,0,0,0,0,0,0,0,0,0,0,0,0,0,0,0,0,0,0,0,0,0,0,0,0,0,0,0,0,0,0,0,0,0,
0,0,0,0,0,0,0,0,0,0,0,0,0,0,0,0,0,0,0,0,0,0,0,0,0,0,0,0,0,0,0,0,14873,14874,14875,14876,14875,14876,14875,14876,14875,14876,14877,14878,0,0,14873,14874,14875,14876,14875,14876,14875,14876,14875,14876,14877,14878,0,0,
0,0,0,0,0,0,0,0,0,0,0,0,0,0,0,0,0,0,0,0,0,0,0,0,0,0,0,0,0,0,0,0,14889,14890,14891,14892,14891,14892,14891,14892,14891,14892,14893,14894,0,0,14889,14890,14891,14892,14891,14892,14891,14892,14891,14892,14893,14894,0,0,
0,0,0,0,0,0,0,0,0,0,0,0,0,0,0,0,0,0,0,0,0,0,0,0,0,0,0,0,0,0,0,0,14905,14906,14907,14908,14907,14908,14907,14908,14907,14908,14909,14910,0,0,14905,14906,14907,14908,14907,14908,14907,14908,14907,14908,14909,14910,0,0,
0,0,0,0,0,0,0,0,0,0,0,0,0,0,0,0,0,0,0,0,0,0,0,0,0,0,0,0,0,0,0,0,14921,14922,14923,14924,14923,14924,14923,14924,14923,14924,14925,14926,0,0,14921,14922,14923,14924,14923,14924,14923,14924,14923,14924,14925,14926,0,0,
0,0,0,0,0,0,0,0,0,0,0,0,0,0,0,0,0,0,0,0,0,0,0,0,0,0,0,0,0,0,0,0,14937,14938,14939,14940,14939,14940,14939,14940,14939,14940,14941,14942,0,0,14937,14938,14939,14940,14939,14940,14939,14940,14939,14940,14941,14942,0,0,
0,0,0,0,0,0,0,0,0,0,0,0,0,0,0,0,0,0,0,0,0,0,0,0,0,0,0,0,0,0,0,0,14953,14954,14955,14956,14954,14955,14956,14954,14955,14956,14957,14958,0,0,14953,14954,14955,14956,14957,14958,14954,14954,14955,14956,14957,14958,0,0,
0,0,0,0,0,0,0,0,0,0,0,0,0,0,0,0,0,0,0,0,0,0,0,0,0,0,0,0,0,0,0,0,14969,14970,14971,14972,14970,14971,14972,14970,14971,14972,14973,14974,0,0,14969,14970,14971,14972,14973,14974,14970,14970,14971,14972,14973,14974,0,0,
0,0,0,0,0,0,0,0,0,0,0,0,0,0,0,0,0,0,0,0,0,0,0,0,0,0,0,0,0,0,0,0,0,0,0,0,0,0,0,0,0,0,0,0,0,0,0,0,0,0,0,0,0,0,0,0,0,0,0,0,
0,0,0,0,0,0,0,0,0,0,0,0,0,0,0,0,0,0,0,0,0,0,0,0,0,0,0,0,0,0,0,0,0,0,0,0,0,0,0,0,0,0,0,0,0,0,0,0,0,0,0,0,0,0,0,0,0,0,0,0,
0,0,0,0,0,0,0,0,0,0,0,0,0,0,0,0,0,0,0,0,0,0,0,0,0,0,0,0,0,0,0,0,0,0,0,0,0,0,0,0,0,0,0,0,0,0,0,0,0,0,0,0,0,0,0,0,0,0,0,0,
0,0,0,0,0,0,0,0,0,0,0,0,0,0,0,0,0,0,0,0,0,0,0,0,0,0,0,0,0,0,0,0,0,0,0,0,0,0,0,0,0,0,0,0,0,0,0,0,0,0,0,0,0,0,0,0,0,0,0,0,
0,0,0,0,0,0,0,0,0,0,0,0,0,0,0,0,0,0,0,0,0,0,0,0,0,0,0,0,0,0,0,0,3221240510,3221240509,3221240508,3221240507,3221240506,3221240509,3221240508,3221240509,3221240508,3221240507,3221240506,3221240505,0,0,0,0,0,0,0,0,0,0,0,0,0,0,0,0,
0,0,0,0,0,0,0,0,0,0,0,0,0,0,0,0,0,0,0,0,0,0,0,0,0,0,0,0,0,0,0,0,3221240494,3221240493,3221240492,3221240491,3221240490,3221240493,3221240492,3221240493,3221240492,3221240491,3221240490,3221240489,0,0,0,0,0,0,0,0,0,0,0,0,0,0,0,0,
0,0,0,0,0,0,0,0,0,0,0,0,0,0,0,0,0,0,0,0,0,0,0,0,0,0,0,0,0,0,0,0,3221240478,3221240477,3221240476,3221240475,3221240474,3221240477,3221240476,3221240477,3221240476,3221240475,3221240474,3221240473,0,0,0,0,0,0,0,0,0,0,0,0,0,0,0,0,
0,0,0,0,0,0,0,0,0,0,0,0,0,0,0,0,0,0,0,0,0,0,0,0,0,0,0,0,0,0,0,0,15082,15083,15084,15085,15086,15082,15083,15082,15083,15084,15085,15086,0,0,0,0,0,0,0,0,0,0,0,0,0,0,0,0,
0,0,0,0,0,0,0,0,0,0,0,0,0,0,0,0,0,0,0,0,0,0,0,0,0,0,0,0,0,0,0,0,15098,15099,15100,15101,15102,15098,15099,15098,15099,15100,15101,15102,0,0,0,0,0,0,0,0,0,0,0,0,0,0,0,0
</data>
 </layer>
 <layer id="9" name="ConstruçãoRot" width="60" height="40">
  <data encoding="csv">
0,0,0,0,0,0,0,0,0,0,0,0,0,0,0,0,0,0,0,0,0,0,0,0,0,0,0,0,0,0,0,0,0,0,0,0,0,0,0,0,0,0,0,0,0,0,0,0,0,0,0,0,0,0,0,0,0,0,0,0,
0,0,0,0,0,0,0,0,0,0,0,0,0,0,0,0,0,0,0,0,0,0,0,0,0,0,0,0,0,0,0,0,0,0,0,0,0,0,0,0,0,0,0,0,0,0,0,0,0,0,0,0,0,0,0,0,0,0,0,0,
0,0,0,0,0,0,0,0,0,0,0,0,0,0,0,0,0,0,0,0,0,0,0,0,0,0,0,0,0,0,0,0,0,0,0,0,0,0,0,0,0,0,0,0,0,0,0,0,0,0,0,0,0,0,0,0,0,0,0,0,
0,0,0,0,0,0,0,0,0,0,0,0,0,0,0,0,0,0,0,0,0,0,0,0,0,0,0,0,0,0,0,0,0,0,0,0,0,0,0,0,0,0,0,0,0,0,0,0,0,0,0,0,0,0,0,0,0,0,0,0,
0,0,0,0,0,0,0,0,0,0,0,0,0,0,0,0,0,0,0,0,0,0,0,0,0,0,0,0,0,0,0,0,0,0,0,0,0,0,0,0,0,0,0,0,0,0,0,0,0,0,0,0,0,0,0,0,0,0,0,0,
0,0,0,0,0,0,0,0,0,0,0,0,0,0,0,0,0,0,0,0,0,0,0,0,0,0,0,0,0,0,0,0,0,0,0,0,0,0,0,0,0,0,0,0,0,0,0,0,0,0,0,0,0,0,0,0,0,0,0,0,
0,0,0,0,0,0,0,0,0,0,0,0,0,0,0,0,0,0,0,0,0,0,0,0,0,0,0,0,0,0,0,0,0,0,0,0,0,0,0,0,0,0,0,0,0,0,0,0,0,0,0,0,0,0,0,0,0,0,0,0,
0,0,0,0,0,0,0,0,0,0,0,0,0,0,0,0,0,0,0,0,0,0,0,0,0,0,0,0,0,0,0,0,0,0,0,0,0,0,0,0,0,0,0,0,0,0,0,0,0,0,0,0,0,0,0,0,0,0,0,0,
0,0,0,0,0,0,0,0,0,0,0,0,0,0,0,0,0,0,0,0,0,0,0,0,0,0,0,0,0,0,0,0,0,0,0,0,0,0,0,0,0,0,0,0,0,0,0,0,0,0,0,0,0,0,0,0,0,0,0,0,
0,0,0,0,0,0,0,0,0,0,0,0,0,0,0,0,0,0,0,0,0,0,0,0,0,0,0,0,0,0,0,0,0,0,0,0,0,0,0,0,0,0,0,0,0,0,0,0,0,0,0,0,0,0,0,0,0,0,0,0,
0,0,0,0,0,0,0,0,0,0,0,0,0,0,0,0,0,0,0,0,0,0,0,0,0,0,0,0,0,0,0,0,0,0,0,0,0,0,0,0,0,0,0,0,0,0,0,0,0,0,0,0,0,0,0,0,0,0,0,0,
0,0,0,0,0,0,0,0,0,0,0,0,0,0,0,0,0,0,0,0,0,0,0,0,0,0,0,0,0,0,0,0,0,0,0,0,0,0,0,0,0,0,0,0,0,0,0,0,0,0,0,0,0,0,0,0,0,0,0,0,
0,0,0,0,0,0,0,0,0,0,0,0,0,0,0,0,0,0,0,0,0,0,0,0,0,0,0,0,0,0,0,0,0,0,0,0,0,0,0,0,0,0,0,0,0,0,0,0,0,0,0,0,0,0,0,0,0,0,0,0,
0,0,0,0,0,0,0,0,0,0,0,0,0,0,0,0,0,0,0,0,0,0,0,0,0,0,0,0,0,0,0,0,0,0,0,0,0,0,0,0,0,0,0,0,0,0,0,0,0,0,0,0,0,0,0,0,0,0,0,0,
0,0,0,0,0,0,0,0,0,0,0,0,0,0,0,0,0,0,0,0,0,0,0,0,0,0,0,0,0,0,0,0,0,0,0,0,0,0,0,0,14879,0,0,0,0,0,0,0,0,0,0,0,0,0,0,0,0,0,0,0,
0,0,0,0,0,0,0,0,0,0,0,0,0,0,0,0,0,0,0,0,0,0,0,0,0,0,0,0,0,0,2684373563,2684373547,2684373531,2684373515,2684373499,2684373483,2684373467,2684373451,2684373435,2684373419,0,0,0,0,0,0,0,0,0,0,0,0,0,0,0,0,0,0,0,0,
0,0,0,0,0,0,0,0,0,0,0,0,0,0,0,0,0,0,0,2684363966,2684363950,2684363950,2684363950,2684363950,2684363934,0,0,0,0,0,2684373564,2684373548,2684373532,2684373516,2684373500,2684373484,2684373468,2684373452,2684373436,2684373420,0,0,0,0,0,0,0,0,0,0,0,0,0,0,0,0,0,0,0,0,
0,0,0,0,0,0,0,0,0,0,0,0,0,0,0,0,0,0,0,2684363967,2684363951,2684363951,2684363951,2684363951,2684363935,0,0,0,0,0,2684373565,2684373549,2684373533,2684373517,2684373501,2684373485,2684373469,2684373453,2684373437,2684373421,0,0,0,0,0,0,0,0,0,0,0,0,0,0,0,0,0,0,0,0,
0,0,0,0,0,0,0,0,0,0,0,0,0,0,0,0,0,0,0,2684363967,2684363951,2684363951,2684363951,2684363952,2684363936,0,0,0,0,0,2684373566,2684373550,2684373534,2684373518,2684373502,2684373486,2684373470,2684373454,2684373438,2684373422,0,0,0,0,0,0,0,0,0,0,0,0,0,0,0,0,0,0,0,0,
0,0,0,0,0,0,0,0,0,0,0,0,0,0,0,0,0,0,0,2684363967,2684363951,2684363952,2684363952,2684363951,2684363935,0,0,0,0,0,2684373567,2684373551,2684373535,2684373519,2684373503,2684373487,2684373471,2684373455,2684373439,2684373423,0,0,0,0,0,0,0,0,0,0,0,0,0,0,0,0,0,0,0,0,
0,0,0,0,0,0,0,0,0,0,0,0,0,0,0,0,0,0,0,2684363967,2684363951,2684363951,2684363951,2684363952,2684363936,0,0,0,0,0,2684373568,2684373552,2684373536,2684373520,2684373504,2684373488,2684373472,2684373456,2684373440,2684373424,0,0,0,0,0,0,0,0,0,0,0,0,0,0,0,0,0,0,0,0,
0,0,0,0,0,0,0,0,0,0,0,0,0,0,0,0,0,0,0,2684363967,2684363951,2684363951,2684363951,2684363951,2684363935,0,0,0,0,0,2684373569,2684373553,2684373537,2684373521,2684373505,2684373489,2684373473,2684373457,2684373441,2684373425,0,0,0,0,0,0,0,0,0,0,0,0,0,0,0,0,0,0,0,0,
0,0,0,0,0,0,0,0,0,0,0,0,0,0,0,0,0,0,0,2684363967,2684363952,2684363951,2684363951,2684363952,2684363936,0,0,0,0,0,2684373570,2684373554,2684373538,2684373522,2684373506,2684373490,2684373474,2684373458,2684373442,2684373426,0,0,0,0,0,0,0,0,0,0,0,0,0,0,0,0,0,0,0,0,
0,0,0,0,0,0,0,0,0,0,0,0,0,0,0,0,0,0,0,2684363967,2684363952,2684363952,2684363951,2684363951,2684363935,0,0,0,0,0,0,0,0,0,0,0,0,0,0,0,0,0,0,0,0,0,0,0,0,0,0,0,0,0,0,0,0,0,0,0,
0,0,0,0,0,0,0,0,0,0,0,0,0,0,0,0,0,0,0,2684363967,2684363952,2684363951,2684363951,2684363952,2684363936,0,0,0,0,0,0,0,0,0,0,0,0,0,0,0,0,0,0,0,0,0,0,0,0,0,0,0,0,0,0,0,0,0,0,0,
0,0,0,0,0,0,0,0,0,0,0,0,0,0,0,0,0,0,0,2684363967,2684363952,2684363951,2684363951,2684363951,2684363935,0,0,0,0,0,0,0,0,0,0,0,0,0,0,0,0,0,0,0,0,0,0,0,0,0,0,0,0,0,0,0,0,0,0,0,
0,0,0,0,0,0,0,0,0,0,0,0,0,0,0,0,0,0,0,2684363967,2684363952,2684363951,2684363951,2684363952,2684363936,0,0,0,0,0,0,0,0,0,0,0,0,0,0,0,0,0,0,0,0,0,0,0,0,0,0,0,0,0,0,0,0,0,0,0,
0,0,0,0,0,0,0,0,0,0,0,0,0,0,0,0,0,0,0,2684363967,2684363952,2684363951,2684363952,2684363951,2684363935,0,0,0,0,0,0,0,0,0,0,0,0,0,0,0,0,0,0,0,0,0,0,0,0,0,0,0,0,0,0,0,0,0,0,0,
0,0,0,0,0,0,0,0,0,0,0,0,0,0,0,0,0,0,0,2684363967,2684363952,2684363952,2684363952,2684363952,2684363936,0,0,0,0,0,0,0,0,0,0,0,0,0,0,0,0,0,0,0,0,0,0,0,0,0,0,0,0,0,0,0,0,0,0,0,
0,0,0,0,0,0,0,0,0,0,0,0,0,0,0,0,0,0,0,2684363969,2684363953,2684363953,2684363953,2684363953,2684363937,0,0,0,0,0,0,0,0,0,0,0,0,0,0,0,0,0,0,0,0,0,0,0,0,0,0,0,0,0,0,0,0,0,0,0,
0,0,0,0,0,0,0,0,0,0,0,0,0,0,0,0,0,0,0,0,0,0,0,0,0,0,0,0,0,0,0,0,0,0,0,0,0,0,0,0,0,0,0,0,0,0,0,0,0,0,0,0,0,0,0,0,0,0,0,0,
0,0,0,0,0,0,0,0,0,0,0,0,0,0,0,0,0,0,0,0,0,0,0,0,0,0,0,0,0,0,0,0,0,0,0,0,0,0,0,0,0,0,0,0,0,0,0,0,0,0,0,0,0,0,0,0,0,0,0,0,
0,0,0,0,0,0,0,0,0,0,0,0,0,0,0,0,0,0,0,0,0,0,0,0,0,0,0,0,0,0,0,0,0,0,0,0,0,0,0,0,0,0,0,0,0,0,0,0,0,0,0,0,0,0,0,0,0,0,0,0,
0,0,0,0,0,0,0,0,0,0,0,0,0,0,0,0,0,0,0,0,0,0,0,0,0,0,0,0,0,0,0,0,0,0,0,0,0,0,0,0,0,0,0,0,0,0,0,0,0,0,0,0,0,0,0,0,0,0,0,0,
0,0,0,0,0,0,0,0,0,0,0,0,0,0,0,0,0,0,0,0,0,0,0,0,0,0,0,0,0,0,0,0,0,0,0,0,0,0,0,0,0,0,0,0,0,0,0,0,0,0,0,0,0,0,0,0,0,0,0,0,
0,0,0,0,0,0,0,0,0,0,0,0,0,0,0,0,0,0,0,0,0,0,0,0,0,0,0,0,0,0,0,0,0,0,0,0,0,0,0,0,0,0,0,0,0,0,0,0,0,0,0,0,0,0,0,0,0,0,0,0,
0,0,0,0,0,0,0,0,0,0,0,0,0,0,0,0,0,0,0,0,0,0,0,0,0,0,0,0,0,0,0,0,0,0,0,0,0,0,0,0,0,0,0,0,0,0,0,0,0,0,0,0,0,0,0,0,0,0,0,0,
0,0,0,0,0,0,0,0,0,0,0,0,0,0,0,0,0,0,0,0,0,0,0,0,0,0,0,0,0,0,0,0,0,0,0,0,0,0,0,0,0,0,0,0,0,0,0,0,0,0,0,0,0,0,0,0,0,0,0,0,
0,0,0,0,0,0,0,0,0,0,0,0,0,0,0,0,0,0,0,0,0,0,0,0,0,0,0,0,0,0,0,0,0,0,0,0,0,0,0,0,0,0,0,0,0,0,0,0,0,0,0,0,0,0,0,0,0,0,0,0,
0,0,0,0,0,0,0,0,0,0,0,0,0,0,0,0,0,0,0,0,0,0,0,0,0,0,0,0,0,0,0,0,0,0,0,0,0,0,0,0,0,0,0,0,0,0,0,0,0,0,0,0,0,0,0,0,0,0,0,0
</data>
 </layer>
</map>
