<?xml version="1.0" encoding="UTF-8"?>
<map version="1.10" tiledversion="1.11.0" orientation="orthogonal" renderorder="right-down" width="40" height="30" tilewidth="16" tileheight="16" infinite="0" nextlayerid="6" nextobjectid="1">
 <tileset firstgid="1" name="Interiors_free_32x32" tilewidth="16" tileheight="16" tilecount="5696" columns="32">
  <image source="Texture/Modern_tiles/Interiors_free/32x32/Interiors_free_32x32.png" width="512" height="2848"/>
 </tileset>
 <tileset firstgid="5697" name="pokemontileset" tilewidth="16" tileheight="16" tilecount="20832" columns="16">
  <image source="Texture/pokemontileset.png" width="256" height="20832"/>
 </tileset>
 <layer id="1" name="Camada de Blocos 1" width="40" height="30">
  <data encoding="csv">
0,0,0,0,0,0,0,0,0,0,0,0,0,0,0,0,0,0,0,0,21500,21500,21500,21500,0,0,0,0,0,0,0,0,0,0,0,0,0,0,0,0,
0,0,0,0,0,0,0,0,0,0,0,0,0,0,0,0,0,0,0,0,21500,21500,21500,21500,0,0,0,0,0,0,0,0,0,0,0,0,0,0,0,0,
0,0,0,0,0,0,0,0,0,0,0,0,0,0,0,0,0,0,0,0,21500,21500,21500,21500,0,0,0,0,0,0,0,0,0,0,0,0,0,0,0,0,
0,0,0,0,0,0,0,0,0,0,0,0,0,0,0,0,0,0,0,0,21500,21500,21500,21500,0,0,0,0,0,0,0,0,0,0,0,0,0,0,0,0,
0,0,0,0,0,0,0,0,0,0,0,0,0,0,0,0,0,0,0,0,21500,21500,21500,21500,0,0,0,0,0,0,0,0,0,0,0,0,0,0,0,0,
0,0,0,0,0,0,0,0,0,0,0,0,0,0,0,0,0,0,0,0,21500,21500,21500,21500,0,0,0,0,0,0,0,0,0,0,0,0,0,0,0,0,
0,0,0,0,0,0,0,0,0,0,0,0,0,0,0,0,0,0,0,0,21500,21500,21500,21500,0,0,0,0,0,0,0,0,0,0,0,0,0,0,0,0,
0,0,0,0,0,0,0,0,0,0,0,0,0,0,0,0,0,0,0,0,21500,21500,21500,21500,0,0,0,0,0,0,0,0,0,0,0,0,0,0,0,0,
0,0,0,0,0,0,0,0,0,0,0,0,0,0,0,0,0,0,0,0,21500,21500,21500,21500,0,0,0,0,0,0,0,0,0,0,0,0,0,0,0,0,
0,0,0,0,0,0,0,0,0,0,0,0,0,0,0,0,0,0,0,0,21500,21500,21500,21500,0,0,0,0,0,0,0,0,0,0,0,0,0,0,0,0,
0,0,0,0,0,0,0,0,0,0,0,0,0,0,0,0,0,0,0,0,21500,21500,21500,21500,0,0,0,0,0,0,0,0,0,0,0,0,0,0,0,0,
0,0,0,0,0,0,0,0,0,0,0,0,0,0,0,0,0,0,0,0,21500,21500,21500,21500,0,0,0,0,0,0,0,0,0,0,0,0,0,0,0,0,
0,0,0,0,0,0,0,0,0,0,0,0,0,0,0,0,0,0,0,0,21500,21500,21500,21500,0,0,0,0,0,0,0,0,0,0,0,0,0,0,0,0,
0,0,0,0,0,0,0,0,0,0,0,0,0,0,0,0,0,0,0,0,21500,21500,21500,21500,0,0,0,0,0,0,0,0,0,0,0,0,0,0,0,0,
0,0,0,0,0,0,0,0,0,0,0,0,0,0,0,0,0,0,0,0,21500,21500,21500,21500,0,0,0,0,0,0,0,0,0,0,0,0,0,0,0,0,
0,0,0,0,0,0,0,0,0,0,0,0,0,0,0,0,0,0,0,0,21500,21500,21500,21500,0,0,0,0,0,0,0,0,0,0,0,0,0,0,0,0,
0,0,0,0,0,0,0,0,0,0,0,0,0,0,0,0,0,0,0,0,21500,21500,21500,21500,0,0,0,0,0,0,0,0,0,0,0,0,0,0,0,0,
0,0,0,0,0,0,0,0,0,0,0,0,0,0,0,0,0,0,0,0,21500,21500,21500,21500,0,0,0,0,0,0,0,0,0,0,0,0,0,0,0,0,
0,0,0,0,0,0,0,0,0,0,0,0,0,0,0,0,0,0,0,0,21500,21500,21500,21500,0,0,0,0,0,0,0,0,0,0,0,0,0,0,0,0,
0,0,0,0,0,0,0,0,0,0,0,0,0,0,0,0,0,0,0,0,21500,21500,21500,21500,0,0,0,0,0,0,0,0,0,0,0,0,0,0,0,0,
0,0,0,0,0,0,0,0,0,0,0,0,0,0,0,0,0,0,0,0,21500,21500,21500,21500,0,0,0,0,0,0,0,0,0,0,0,0,0,0,0,0,
0,0,0,0,0,0,0,0,0,0,0,0,0,0,0,0,0,0,0,0,21500,21500,21500,21500,0,0,0,0,0,0,0,0,0,0,0,0,0,0,0,0,
0,0,0,0,0,0,0,0,0,0,0,0,0,0,0,0,0,0,0,0,21500,21500,21500,21500,0,0,0,0,0,0,0,0,0,0,0,0,0,0,0,0,
0,0,0,0,0,0,0,0,0,0,0,0,0,0,0,0,0,0,0,0,21500,21500,21500,21500,0,0,0,0,0,0,0,0,0,0,0,0,0,0,0,0,
0,0,0,0,0,0,0,0,0,0,0,0,0,0,0,0,0,0,0,0,21500,21500,21500,21500,0,0,0,0,0,0,0,0,0,0,0,0,0,0,0,0,
0,0,0,0,0,0,0,0,0,0,0,0,0,0,0,0,0,0,0,0,21500,21500,21500,21500,0,0,0,0,0,0,0,0,0,0,0,0,0,0,0,0,
0,0,0,0,0,0,0,0,0,0,0,0,0,0,0,0,0,0,0,0,21500,21500,21500,21500,0,0,0,0,0,0,0,0,0,0,0,0,0,0,0,0,
0,0,0,0,0,0,0,0,0,0,0,0,0,0,0,0,0,0,0,0,21500,21500,21500,21500,0,0,0,0,0,0,0,0,0,0,0,0,0,0,0,0,
0,0,0,0,0,0,0,0,0,0,0,0,0,0,0,0,0,0,0,0,21500,21500,21500,21500,0,0,0,0,0,0,0,0,0,0,0,0,0,0,0,0,
0,0,0,0,0,0,0,0,0,0,0,0,0,0,0,0,0,0,0,0,21500,21500,21500,21500,0,0,0,0,0,0,0,0,0,0,0,0,0,0,0,0
</data>
 </layer>
 <layer id="5" name="Camada de Blocos 4" width="40" height="30">
  <data encoding="csv">
0,0,0,0,0,0,0,0,0,0,0,0,0,0,0,0,0,0,0,0,0,0,0,0,14509,14509,14509,14509,14509,14509,14509,14509,14509,14509,14509,14509,14509,14509,14509,14509,
0,0,0,0,0,0,0,0,0,0,0,0,0,0,0,0,0,0,0,0,0,0,0,0,14509,14509,14509,14509,14509,14509,14509,14509,14509,14509,14509,14509,14509,14509,14509,14509,
0,0,0,0,0,0,0,0,0,0,0,0,0,0,0,0,0,0,0,0,0,0,0,0,14509,14509,14509,14509,14509,14509,14509,14509,14509,14509,14509,14509,14509,14509,14509,14509,
0,0,0,0,0,0,0,0,0,0,0,0,0,0,0,0,0,0,0,0,0,0,0,0,14509,14509,14509,14509,14509,14509,14509,14509,14509,14509,14509,14509,14509,14509,14509,14509,
0,0,0,0,0,0,0,0,0,0,0,0,0,0,0,0,0,0,0,0,0,0,0,0,14509,14509,14509,14509,14509,14509,14509,14509,14509,14509,14509,14509,14509,14509,14509,14509,
0,0,0,0,0,0,0,0,0,0,0,0,0,0,0,0,0,0,0,0,0,0,0,0,14509,14509,14509,14509,14509,14509,14509,14509,14509,14509,14509,14509,14509,14509,14509,14509,
0,0,0,0,0,0,0,0,0,0,0,0,0,0,0,0,0,0,0,0,0,0,0,0,14509,14509,14509,14509,14509,14509,14509,14509,14509,14509,14509,14509,14509,14509,14509,14509,
0,0,0,0,0,0,0,0,0,0,0,0,0,0,0,0,0,0,0,0,0,0,0,0,14509,14509,14509,14509,14509,14509,14509,14509,14509,14509,14509,14509,14509,14509,14509,14509,
0,0,0,0,0,0,0,0,0,0,0,0,0,0,0,0,0,0,0,0,0,0,0,0,14509,14509,14509,14509,14509,14509,14509,14509,14509,14509,14509,14509,14509,14509,14509,14509,
0,0,0,0,0,0,0,0,0,0,0,0,0,0,0,0,0,0,0,0,0,0,0,0,14509,14509,14509,14509,14509,14509,14509,14509,14509,14509,14509,14509,14509,14509,14509,14509,
0,0,0,0,0,0,0,0,0,0,0,0,0,0,0,0,0,0,0,0,0,0,0,0,14509,14509,14509,14509,14509,14509,14509,14509,14509,14509,14509,14509,14509,14509,14509,14509,
0,0,0,0,0,0,0,0,0,0,0,0,0,0,0,0,0,0,0,0,0,0,0,0,14509,14509,14509,14509,14509,14509,14509,14509,14509,14509,14509,14509,14509,14509,14509,14509,
0,0,0,0,0,0,0,0,0,0,0,0,0,0,0,0,0,0,0,0,0,0,0,0,14509,14509,14509,14509,14509,14509,14509,14509,14509,14509,14509,14509,14509,14509,14509,14509,
0,0,0,0,0,0,0,0,0,0,0,0,0,0,0,0,0,0,0,0,0,0,0,0,14509,14509,14509,14509,14509,14509,14509,14509,14509,14509,14509,14509,14509,14509,14509,14509,
0,0,0,0,0,0,0,0,0,0,0,0,0,0,0,0,0,0,0,0,0,0,0,0,14509,14509,14509,14509,14509,14509,14509,14509,14509,14509,14509,14509,14509,14509,14509,14509,
0,0,0,0,0,0,0,0,0,0,0,0,0,0,0,0,0,0,0,0,0,0,0,0,14509,14509,14509,14509,14509,14509,14509,14509,14509,14509,14509,14509,14509,14509,14509,14509,
0,0,0,0,0,0,0,0,0,0,0,0,0,0,0,0,0,0,0,0,0,0,0,0,14509,14509,14509,14509,14509,14509,14509,14509,14509,14509,14509,14509,14509,14509,14509,14509,
0,0,0,0,0,0,0,0,0,0,0,0,0,0,0,0,0,0,0,0,0,0,0,0,14509,14509,14509,14509,14509,14509,14509,14509,14509,14509,14509,14509,14509,14509,14509,14509,
0,0,0,0,0,0,0,0,0,0,0,0,0,0,0,0,0,0,0,0,0,0,0,0,14509,14509,14509,14509,14509,14509,14509,14509,14509,14509,14509,14509,14509,14509,14509,14509,
0,0,0,0,0,0,0,0,0,0,0,0,0,0,0,0,0,0,0,0,0,0,0,0,14509,14509,14509,14509,14509,14509,14509,14509,14509,14509,14509,14509,14509,14509,14509,14509,
0,0,0,0,0,0,0,0,0,0,0,0,0,0,0,0,0,0,0,0,0,0,0,0,14509,14509,14509,14509,14509,14509,14509,14509,14509,14509,14509,14509,14509,14509,14509,14509,
0,0,0,0,0,0,0,0,0,0,0,0,0,0,0,0,0,0,0,0,0,0,0,0,14509,14509,14509,14509,14509,14509,14509,14509,14509,14509,14509,14509,14509,14509,14509,14509,
0,0,0,0,0,0,0,0,0,0,0,0,0,0,0,0,0,0,0,0,0,0,0,0,14509,14509,14509,14509,14509,14509,14509,14509,14509,14509,14509,14509,14509,14509,14509,14509,
0,0,0,0,0,0,0,0,0,0,0,0,0,0,0,0,0,0,0,0,0,0,0,0,14509,14509,14509,14509,14509,14509,14509,14509,14509,14509,14509,14509,14509,14509,14509,14509,
0,0,0,0,0,0,0,0,0,0,0,0,0,0,0,0,0,0,0,0,0,0,0,0,14509,14509,14509,14509,14509,14509,14509,14509,14509,14509,14509,14509,14509,14509,14509,14509,
0,0,0,0,0,0,0,0,0,0,0,0,0,0,0,0,0,0,0,0,0,0,0,0,14509,14509,14509,14509,14509,14509,14509,14509,14509,14509,14509,14509,14509,14509,14509,14509,
0,0,0,0,0,0,0,0,0,0,0,0,0,0,0,0,0,0,0,0,0,0,0,0,14509,14509,14509,14509,14509,14509,14509,14509,14509,14509,14509,14509,14509,14509,14509,14509,
0,0,0,0,0,0,0,0,0,0,0,0,0,0,0,0,0,0,0,0,0,0,0,0,14509,14509,14509,14509,14509,14509,14509,14509,14509,14509,14509,14509,14509,14509,14509,14509,
0,0,0,0,0,0,0,0,0,0,0,0,0,0,0,0,0,0,0,0,0,0,0,0,14509,14509,14509,14509,14509,14509,14509,14509,14509,14509,14509,14509,14509,14509,14509,14509,
0,0,0,0,0,0,0,0,0,0,0,0,0,0,0,0,0,0,0,0,0,0,0,0,14509,14509,14509,14509,14509,14509,14509,14509,14509,14509,14509,14509,14509,14509,14509,14509
</data>
 </layer>
 <layer id="2" name="Camada de Blocos 2" width="40" height="30">
  <data encoding="csv">
0,0,0,0,0,0,0,0,0,0,0,0,0,0,0,0,0,0,0,0,0,0,0,0,0,0,0,0,0,0,0,0,0,0,0,0,0,0,0,0,
0,0,0,0,0,0,0,0,0,0,0,0,0,0,0,0,0,0,0,0,0,0,0,0,2684356463,2684356431,2684356399,0,0,0,0,0,0,0,0,0,0,0,0,0,
0,0,0,0,0,0,0,0,0,0,0,0,0,0,0,0,0,0,0,0,0,0,0,0,2684356464,2684356432,2684356400,0,0,0,0,0,0,0,0,0,0,0,0,0,
0,0,0,0,0,0,0,0,0,0,0,0,0,0,0,0,0,0,0,0,0,0,0,0,2684356465,2684356433,2684356401,0,0,0,0,0,0,0,0,0,0,0,0,0,
0,0,0,0,0,0,0,0,0,0,0,0,0,0,0,0,0,0,0,0,0,0,0,0,2684356464,2684356432,2684356400,0,0,0,0,0,0,0,0,0,0,0,0,0,
0,0,0,0,0,0,0,0,0,0,0,0,0,0,0,0,0,0,0,0,0,0,0,0,2684356465,2684356433,2684356401,0,0,0,0,0,0,0,0,0,0,0,0,0,
0,0,0,0,0,0,0,0,0,0,0,0,0,0,0,0,0,0,0,0,0,0,0,0,2684356466,2684356434,2684356402,0,0,0,0,0,0,0,0,0,0,0,0,0,
0,0,0,0,0,0,0,0,0,0,0,0,0,0,0,0,0,0,0,0,0,0,0,0,0,0,0,0,0,0,0,0,0,0,0,0,0,0,0,0,
0,0,0,0,0,0,0,0,0,0,0,0,0,0,0,0,0,0,0,0,0,0,0,0,0,0,0,0,0,0,0,0,0,0,0,0,0,0,0,0,
0,0,0,0,0,0,0,0,0,0,0,0,0,0,0,0,0,0,0,0,0,0,0,0,2684356463,2684356431,2684356399,0,0,0,0,0,0,0,0,0,0,0,0,0,
0,0,0,0,0,0,0,0,0,0,0,0,0,0,0,0,0,0,0,0,0,0,0,0,2684356464,2684356432,2684356400,0,0,0,0,0,0,0,0,0,0,0,0,0,
0,0,0,0,0,0,0,0,0,0,0,0,0,0,0,0,0,0,0,0,0,0,0,0,2684356465,2684356433,2684356401,0,0,0,0,0,0,0,0,0,0,0,0,0,
0,0,0,0,0,0,0,0,0,0,0,0,0,0,0,0,0,0,0,0,0,0,0,0,2684356464,2684356432,2684356400,0,0,0,0,0,0,0,0,0,0,0,0,0,
0,0,0,0,0,0,0,0,0,0,0,0,0,0,0,0,0,0,0,0,0,0,0,0,2684356465,2684356433,2684356401,0,0,0,0,0,0,0,0,0,0,0,0,0,
0,0,0,0,0,0,0,0,0,0,0,0,0,0,0,0,0,0,0,0,0,0,0,0,2684356466,2684356434,2684356402,0,0,0,0,0,0,0,0,0,0,0,0,0,
0,0,0,0,0,0,0,0,0,0,0,0,0,0,0,0,0,0,0,0,0,0,0,0,0,0,0,0,0,0,0,0,0,0,0,0,0,0,0,0,
0,0,0,0,0,0,0,0,0,0,0,0,0,0,0,0,0,0,0,0,0,0,0,0,0,0,0,0,0,0,0,0,0,0,0,0,0,0,0,0,
0,0,0,0,0,0,0,0,0,0,0,0,0,0,0,0,0,0,0,0,0,0,0,0,0,0,0,0,0,0,0,0,0,0,0,0,0,0,0,0,
0,0,0,0,0,0,0,0,0,0,0,0,0,0,0,0,0,0,0,0,0,0,0,0,0,0,0,0,0,0,0,0,0,0,0,0,0,0,0,0,
0,0,0,0,0,0,0,0,0,0,0,0,0,0,0,0,0,0,0,0,0,0,0,0,0,0,0,0,0,0,0,0,0,0,0,0,0,0,0,0,
0,0,0,0,0,0,0,0,0,0,0,0,0,0,0,0,0,0,0,0,0,0,0,0,0,0,0,0,0,0,0,0,0,0,0,0,0,0,0,0,
0,0,0,0,0,0,0,0,0,0,0,0,0,0,0,0,0,0,0,0,0,0,0,0,0,0,0,0,0,0,0,0,0,0,0,0,0,0,0,0,
0,0,0,0,0,0,0,0,0,0,0,0,0,0,0,0,0,0,0,0,0,0,0,0,0,0,0,0,0,0,0,0,0,0,0,0,0,0,0,0,
0,0,0,0,0,0,0,0,0,0,0,0,0,0,0,0,0,0,0,0,0,0,0,0,0,0,0,0,0,0,0,0,0,0,0,0,0,0,0,0,
0,0,0,0,0,0,0,0,0,0,0,0,0,0,0,0,0,0,0,0,0,0,0,0,0,0,0,0,0,0,0,0,0,0,0,0,0,0,0,0,
0,0,0,0,0,0,0,0,0,0,0,0,0,0,0,0,0,0,0,0,0,0,0,0,0,0,0,0,0,0,0,0,0,0,0,0,0,0,0,0,
0,0,0,0,0,0,0,0,0,0,0,0,0,0,0,0,0,0,0,0,0,0,0,0,0,0,0,0,0,0,0,0,0,0,0,0,0,0,0,0,
0,0,0,0,0,0,0,0,0,0,0,0,0,0,0,0,0,0,0,0,0,0,0,0,0,0,0,0,0,0,0,0,0,0,0,0,0,0,0,0,
0,0,0,0,0,0,0,0,0,0,0,0,0,0,0,0,0,0,0,0,0,0,0,0,0,0,0,0,0,0,0,0,0,0,0,0,0,0,0,0,
0,0,0,0,0,0,0,0,0,0,0,0,0,0,0,0,0,0,0,0,0,0,0,0,0,0,0,0,0,0,0,0,0,0,0,0,0,0,0,0
</data>
 </layer>
 <layer id="4" name="Camada de Blocos 3" width="40" height="30">
  <data encoding="csv">
14509,14509,14509,14509,14509,14509,14509,14509,14509,14509,14509,14509,14509,14509,14509,14509,14509,14509,14509,14509,0,0,0,0,0,0,0,0,0,0,0,0,0,0,0,0,0,0,0,0,
14509,14509,14509,14509,14509,14509,14509,14509,14509,14509,14509,14509,14509,14509,14509,14509,14509,14509,14509,14509,0,0,0,0,0,0,0,0,0,0,0,0,0,0,0,0,0,0,0,0,
14509,14509,14509,14509,14509,14509,14509,14509,14509,14509,14509,14509,14509,14509,14509,14509,14509,14509,14509,14509,0,0,0,0,0,0,0,0,0,0,0,0,0,0,0,0,0,0,0,0,
14509,14509,14509,14509,14509,14509,14509,14509,14509,14509,14509,14509,14509,14509,14509,14509,14509,14509,14509,14509,0,0,0,0,0,0,0,0,0,0,0,0,0,0,0,0,0,0,0,0,
14509,14509,14509,14509,14509,14509,14509,14509,14509,14509,14509,14509,14509,14509,14509,14509,14509,14509,14509,14509,0,0,0,0,0,0,0,0,0,0,0,0,0,0,0,0,0,0,0,0,
14509,14509,14509,14509,14509,14509,14509,14509,14509,14509,14509,14509,14509,14509,14509,14509,14509,14509,14509,14509,0,0,0,0,0,0,0,0,0,0,0,0,0,0,0,0,0,0,0,0,
14509,14509,14509,14509,14509,14509,14509,14509,14509,14509,14509,14509,14509,14509,14509,14509,14509,14509,14509,14509,0,0,0,0,0,0,0,0,0,0,0,0,0,0,0,0,0,0,0,0,
14509,14509,14509,14509,14509,14509,14509,14509,14509,14509,14509,14509,14509,14509,14509,14509,14509,14509,14509,14509,0,0,0,0,14531,0,0,0,0,0,0,0,0,0,0,0,0,0,0,0,
14509,14509,14509,14509,14509,14509,14509,14509,14509,14509,14509,14509,14509,14509,14509,14509,14509,14509,14509,14509,0,0,0,0,14531,0,0,0,0,0,0,0,0,0,0,0,0,0,0,0,
14509,14509,14509,14509,14509,14509,14509,14509,14509,14509,14509,14509,14509,14509,14509,14509,14509,14509,14509,14509,0,0,0,0,0,0,0,0,0,0,0,0,0,0,0,0,0,0,0,0,
14509,14509,14509,14509,14509,14509,14509,14509,14509,14509,14509,14509,14509,14509,14509,14509,14509,14509,14509,14509,0,0,0,0,0,0,0,0,0,0,0,0,0,0,0,0,0,0,0,0,
14509,14509,14509,14509,14509,14509,14509,14509,14509,14509,14509,14509,14509,14509,14509,14509,14509,14509,14509,14509,0,0,0,0,0,0,0,0,0,0,0,0,0,0,0,0,0,0,0,0,
14509,14509,14509,14509,14509,14509,14509,14509,14509,14509,14509,14509,14509,14509,14509,14509,14509,14509,14509,14509,0,0,0,0,0,0,0,0,0,0,0,0,0,0,0,0,0,0,0,0,
14509,14509,14509,14509,14509,14509,14509,14509,14509,14509,14509,14509,14509,14509,14509,14509,14509,14509,14509,14509,0,0,0,0,0,0,0,0,0,0,0,0,0,0,0,0,0,0,0,0,
14509,14509,14509,14509,14509,14509,14509,14509,14509,14509,14509,14509,14509,14509,14509,14509,14509,14509,14509,14509,0,0,0,0,0,0,0,0,0,0,0,0,0,0,0,0,0,0,0,0,
14509,14509,14509,14509,14509,14509,14509,14509,14509,14509,14509,14509,14509,14509,14509,14509,14509,14509,14509,14516,0,0,0,0,14531,0,0,0,0,0,0,0,0,0,0,0,0,0,0,0,
14509,14509,14509,14509,14509,14509,14509,14509,14509,14509,14509,14509,14509,14509,14509,14509,14509,14509,14509,14516,0,0,0,0,14531,0,0,0,0,0,0,0,0,0,0,0,0,0,0,0,
14509,14509,14509,14509,14509,14509,14509,14509,14509,14509,14509,14509,14509,14509,14509,14509,14509,14509,14509,14509,0,0,0,0,0,0,0,0,0,0,0,0,0,0,0,0,0,0,0,0,
14509,14509,14509,14509,14509,14509,14509,14509,14509,14509,14509,14509,14509,14509,14509,14509,14509,14509,14509,14509,0,0,0,0,0,0,0,0,0,0,0,0,0,0,0,0,0,0,0,0,
14509,14509,14509,14509,14509,14509,14509,14509,14509,14509,14509,14509,14509,14509,14509,14509,14509,14509,14509,14509,0,0,0,0,0,0,0,0,0,0,0,0,0,0,0,0,0,0,0,0,
14509,14509,14509,14509,14509,14509,14509,14509,14509,14509,14509,14509,14509,14509,14509,14509,14509,14509,14509,14516,0,0,0,0,14531,0,0,0,0,0,0,0,0,0,0,0,0,0,0,0,
14509,14509,14509,14509,14509,14509,14509,14509,14509,14509,14509,14509,14509,14509,14509,14509,14509,14509,14509,14516,0,0,0,0,14531,0,0,0,0,0,0,0,0,0,0,0,0,0,0,0,
14509,14509,14509,14509,14509,14509,14509,14509,14509,14509,14509,14509,14509,14509,14509,14509,14509,14509,14509,14509,0,0,0,0,0,0,0,0,0,0,0,0,0,0,0,0,0,0,0,0,
14509,14509,14509,14509,14509,14509,14509,14509,14509,14509,14509,14509,14509,14509,14509,14509,14509,14509,14509,14509,0,0,0,0,0,0,0,0,0,0,0,0,0,0,0,0,0,0,0,0,
14509,14509,14509,14509,14509,14509,14509,14509,14509,14509,14509,14509,14509,14509,14509,14509,14509,14509,14509,14509,0,0,0,0,0,0,0,0,0,0,0,0,0,0,0,0,0,0,0,0,
14509,14509,14509,14509,14509,14509,14509,14509,14509,14509,14509,14509,14509,14509,14509,14509,14509,14509,14509,14509,0,0,0,0,0,0,0,0,0,0,0,0,0,0,0,0,0,0,0,0,
14509,14509,14509,14509,14509,14509,14509,14509,14509,14509,14509,14509,14509,14509,14509,14509,14509,14509,14509,14509,0,0,0,0,14531,0,0,0,0,0,0,0,0,0,0,0,0,0,0,0,
14509,14509,14509,14509,14509,14509,14509,14509,14509,14509,14509,14509,14509,14509,14509,14509,14509,14509,14509,14509,0,0,0,0,14531,0,0,0,0,0,0,0,0,0,0,0,0,0,0,0,
14509,14509,14509,14509,14509,14509,14509,14509,14509,14509,14509,14509,14509,14509,14509,14509,14509,14509,14509,14509,0,0,0,0,0,0,0,0,0,0,0,0,0,0,0,0,0,0,0,0,
14509,14509,14509,14509,14509,14509,14509,14509,14509,14509,14509,14509,14509,14509,14509,14509,14509,14509,14509,14509,0,0,0,0,0,0,0,0,0,0,0,0,0,0,0,0,0,0,0,0
</data>
 </layer>
</map>
