<?xml version="1.0" encoding="UTF-8"?>
<map version="1.10" tiledversion="1.11.0" orientation="orthogonal" renderorder="right-down" width="40" height="30" tilewidth="16" tileheight="16" infinite="0" nextlayerid="6" nextobjectid="1">
 <tileset firstgid="1" name="pokemontileset" tilewidth="16" tileheight="16" tilecount="20832" columns="16">
  <image source="Texture/pokemontileset.png" width="256" height="20832"/>
 </tileset>
 <tileset firstgid="20833" name="Interiors_free_32x32" tilewidth="16" tileheight="16" tilecount="5696" columns="32">
  <image source="Texture/Modern_tiles/Interiors_free/32x32/Interiors_free_32x32.png" width="512" height="2848"/>
 </tileset>
 <layer id="1" name="Camada de Blocos 1" width="40" height="30">
  <data encoding="csv">
8819,8819,8819,8819,8819,8819,8819,8819,8819,8819,8819,8819,8819,8819,8819,8819,8819,8819,8819,8819,18779,18779,18779,18779,8819,8819,8819,8819,8819,8819,8819,8819,8819,8819,8819,8819,8819,8819,8819,8819,
8819,8819,8819,8819,8819,8819,8819,8819,8819,8819,8819,8819,8819,8819,8819,8819,8819,8819,8819,8819,18779,18779,18779,18779,8819,8819,8819,8819,8819,8819,8819,8819,8819,8819,8819,8819,8819,8819,8819,8819,
8819,8819,8819,8819,8819,8819,8819,8819,8819,8819,8819,8819,8819,8819,8819,8819,8819,8819,8819,8819,18779,18779,18779,18779,8819,8819,8819,8819,8819,8819,8819,8819,8819,8819,8819,8819,8819,8819,8819,8819,
8819,8819,8819,8819,8819,8819,8819,8819,8819,8819,8819,8819,8819,8819,8819,8819,8819,8819,8819,8819,18779,18779,18779,18779,8819,8819,8819,8819,8819,8819,8819,8819,8819,8819,8819,8819,8819,8819,8819,8819,
8819,8819,8819,8819,8819,8819,8819,8819,8819,8819,8819,8819,8819,8819,8819,8819,8819,8819,8819,8819,18779,18779,18779,18779,8819,8819,8819,8819,8819,8819,8819,8819,8819,8819,8819,8819,8819,8819,8819,8819,
8819,8819,8819,8819,8819,8819,8819,8819,8819,8819,8819,8819,8819,8819,8819,8819,8819,8819,8819,8819,18779,18779,18779,18779,8819,8819,8819,8819,8819,8819,8819,8819,8819,8819,8819,8819,8819,8819,8819,8819,
8819,8819,8819,8819,8819,8819,8819,8819,8819,8819,8819,8819,8819,8819,8819,8819,8819,8819,8819,8819,18779,18779,18779,18779,8819,8819,8819,8819,8819,8819,8819,8819,8819,8819,8819,8819,8819,8819,8819,8819,
8819,8819,8819,8819,8819,8819,8819,8819,8819,8819,8819,8819,8819,8819,8819,8819,8819,8819,8819,8819,18779,18779,18779,18779,8819,8819,8819,8819,8819,8819,8819,8819,8819,8819,8819,8819,8819,8819,8819,8819,
8819,8819,8819,8819,8819,8819,8819,8819,8819,8819,8819,8819,8819,8819,8819,8819,8819,8819,8819,8819,18779,18779,18779,18779,8819,8819,8819,8819,8819,8819,8819,8819,8819,8819,8819,8819,8819,8819,8819,8819,
8819,8819,8819,8819,8819,8819,8819,8819,8819,8819,8819,8819,8819,8819,8819,8819,8819,8819,8819,8819,8819,8819,8819,8819,8819,8819,8819,8819,8819,8819,8819,8819,8819,8819,8819,8819,8819,8819,8819,8819,
8819,8819,8819,8819,8819,8819,8819,8819,8819,8819,8819,8819,8819,8819,8819,8819,8819,8819,8819,8819,8819,8819,8819,8819,8819,8819,8819,8819,8819,8819,8819,8819,8819,8819,8819,8819,8819,8819,8819,8819,
8819,8819,8819,8819,8819,8819,8819,8819,8819,8819,8819,8819,8819,8819,8819,8819,8819,8819,8819,8819,8819,8819,8819,8819,8819,8819,8819,8819,8819,8819,8819,8819,8819,8819,8819,8819,8819,8819,8819,8819,
8819,8819,8819,8819,8819,8819,8819,8819,8819,8819,8819,8819,8819,8819,8819,8819,8819,8819,8819,8819,8819,8819,8819,8819,8819,8819,8819,8819,8819,8819,8819,8819,8819,8819,8819,8819,8819,8819,8819,8819,
8819,8819,8819,8819,8819,8819,8819,8819,8819,8819,8819,8819,8819,8819,8819,8819,8819,8819,8819,8819,8819,8819,8819,8819,8819,8819,8819,8819,8819,8819,8819,8819,8819,8819,8819,8819,8819,8819,8819,8819,
8819,8819,8819,8819,8819,8819,8819,8819,8819,8819,8819,8819,8819,8819,8819,8819,8819,8819,8819,8819,8819,8819,8819,8819,8819,8819,8819,8819,8819,8819,8819,8819,8819,8819,8819,8819,8819,8819,8819,8819,
8819,8819,8819,8819,8819,8819,8819,8819,8819,8819,8819,8819,8819,8819,8819,8819,8819,8819,8819,8819,8819,8819,8819,8819,8819,8819,8819,8819,8819,8819,8819,8819,8819,8819,8819,8819,8819,8819,8819,8819,
8819,8819,8819,8819,8819,8819,8819,8819,8819,8819,8819,8819,8819,8819,8819,8819,8819,8819,8819,8819,8819,8819,8819,8819,8819,8819,8819,8819,8819,8819,8819,8819,8819,8819,8819,8819,8819,8819,8819,8819,
8819,8819,8819,8819,8819,8819,8819,8819,8819,8819,8819,8819,8819,8819,8819,8819,8819,8819,8819,8819,8819,8819,8819,8819,8819,8819,8819,8819,8819,8819,8819,8819,8819,8819,8819,8819,8819,8819,8819,8819,
8819,8819,8819,8819,8819,8819,8819,8819,8819,8819,8819,8819,8819,8819,8819,8819,8819,8819,8819,8819,8819,8819,8819,8819,8819,8819,8819,8819,8819,8819,8819,8819,8819,8819,8819,8819,8819,8819,8819,8819,
8819,8819,8819,8819,8819,8819,8819,8819,8819,8819,8819,8819,8819,8819,8819,8819,8819,8819,8819,8819,8819,8819,8819,8819,8819,8819,8819,8819,8819,8819,8819,8819,8819,8819,8819,8819,8819,8819,8819,8819,
8819,8819,8819,8819,8819,8819,8819,8819,8819,8819,8819,8819,8819,8819,8819,8819,8819,8819,8819,8819,8819,8819,8819,8819,8819,8819,8819,8819,8819,8819,8819,8819,8819,8819,8819,8819,8819,8819,8819,8819,
8819,8819,8819,8819,8819,8819,8819,8819,8819,8819,8819,8819,8819,8819,8819,8819,8819,8819,8819,8819,8819,8819,8819,8819,8819,8819,8819,8819,8819,8819,8819,8819,8819,8819,8819,8819,8819,8819,8819,8819,
8819,8819,8819,8819,8819,8819,8819,8819,8819,8819,8819,8819,8819,8819,8819,8819,8819,8819,8819,8819,8819,8819,8819,8819,8819,8819,8819,8819,8819,8819,8819,8819,8819,8819,8819,8819,8819,8819,8819,8819,
8819,8819,8819,8819,8819,8819,8819,8819,8819,8819,8819,8819,8819,8819,8819,8819,8819,8819,8819,8819,8819,8819,8819,8819,8819,8819,8819,8819,8819,8819,8819,8819,8819,8819,8819,8819,8819,8819,8819,8819,
8819,8819,8819,8819,8819,8819,8819,8819,8819,8819,8819,8819,8819,8819,8819,8819,8819,8819,8819,8819,8819,8819,8819,8819,8819,8819,8819,8819,8819,8819,8819,8819,8819,8819,8819,8819,8819,8819,8819,8819,
8819,8819,8819,8819,8819,8819,8819,8819,8819,8819,8819,8819,8819,8819,8819,8819,8819,8819,8819,8819,8819,8819,8819,8819,8819,8819,8819,8819,8819,8819,8819,8819,8819,8819,8819,8819,8819,8819,8819,8819,
8819,8819,8819,8819,8819,8819,8819,8819,8819,8819,8819,8819,8819,8819,8819,8819,8819,8819,8819,8819,8819,8819,8819,8819,8819,8819,8819,8819,8819,8819,8819,8819,8819,8819,8819,8819,8819,8819,8819,8819,
8819,8819,8819,8819,8819,8819,8819,8819,8819,8819,8819,8819,8819,8819,8819,8819,8819,8819,8819,8819,8819,8819,8819,8819,8819,8819,8819,8819,8819,8819,8819,8819,8819,8819,8819,8819,8819,8819,8819,8819,
8819,8819,8819,8819,8819,8819,8819,8819,8819,8819,8819,8819,8819,8819,8819,8819,8819,8819,8819,8819,8819,8819,8819,8819,8819,8819,8819,8819,8819,8819,8819,8819,8819,8819,8819,8819,8819,8819,8819,8819,
8819,8819,8819,8819,8819,8819,8819,8819,8819,8819,8819,8819,8819,8819,8819,8819,8819,8819,8819,8819,8819,8819,8819,8819,8819,8819,8819,8819,8819,8819,8819,8819,8819,8819,8819,8819,8819,8819,8819,8819
</data>
 </layer>
 <layer id="5" name="Camada de Blocos 5" width="40" height="30">
  <data encoding="csv">
0,0,0,0,0,8814,8814,8814,8814,8814,8814,8814,8814,8814,8814,8814,8814,8814,8814,8814,0,0,0,0,8814,8814,8814,8814,8814,8814,8814,8814,8814,8814,8814,8814,8814,8814,8814,8814,
0,0,0,0,0,8814,8814,8814,8814,8814,8814,8814,8814,8814,8814,8814,8814,8814,8814,8814,0,0,0,0,8814,8814,8814,8814,8814,8814,8814,8814,8814,8814,8814,8814,8814,8814,8814,8814,
0,0,0,0,0,8814,8814,8814,8814,8814,8814,8814,8814,8814,8814,8814,8814,8814,8814,8814,0,0,0,0,8814,8814,8814,8814,8814,8814,8814,8814,8814,8814,8814,8814,8814,8814,8814,8814,
0,0,0,0,0,8814,8814,8814,8814,8814,8814,8814,8814,8814,8814,8814,8814,8814,8814,8814,0,0,0,0,8814,8814,8814,8814,8814,8814,8814,8814,8814,8814,8814,8814,8814,8814,8814,8814,
0,0,0,0,0,8814,8814,8814,8814,8814,8814,8814,8814,8814,8814,8814,8814,8814,8814,8814,0,0,0,0,8814,8814,8814,8814,8814,8814,8814,8814,8814,8814,8814,8814,8814,8814,8814,8814,
0,0,0,0,0,8814,8814,8814,8814,8814,8814,8814,8814,8814,8814,8814,8814,8814,8814,8814,0,0,0,0,8814,8814,8814,8814,8814,8814,8814,8814,8814,8814,8814,8814,8814,8814,8814,8814,
0,0,0,0,0,8814,8814,8814,8814,8814,8814,8814,8814,8814,8814,8814,8814,8814,8814,8814,0,0,0,0,8814,8814,8814,8814,8814,8814,8814,8814,8814,8814,8814,8814,8814,8814,8814,8814,
0,0,0,0,0,8814,0,0,0,0,0,0,0,0,0,0,0,0,0,8814,0,0,0,0,8814,8814,8814,8814,8814,8814,8814,8814,8814,8814,8814,8814,8814,8814,8814,8814,
0,0,0,0,0,8814,0,0,0,0,0,0,0,0,0,0,0,0,0,8814,0,0,0,0,8814,8814,8814,8814,8814,8814,8814,8814,8814,8814,8814,8814,8814,8814,8814,8814,
0,0,0,0,0,8814,0,0,0,0,0,0,0,0,0,0,0,0,0,8814,0,0,0,0,8814,8814,8814,8814,8814,8814,8814,8814,8814,8814,8814,8814,8814,8814,8814,8814,
0,0,0,0,0,0,0,0,0,0,0,0,0,0,0,0,0,0,0,0,0,0,0,0,8814,8814,8814,8814,8814,8814,8814,8814,8814,8814,8814,8814,8814,8814,8814,8814,
0,0,0,0,0,0,0,0,0,0,0,0,0,0,0,0,0,0,0,0,12937,12937,12937,12937,8814,8814,8814,8814,8814,8814,8814,8814,8814,8814,8814,8814,8814,8814,8814,8814,
0,0,0,0,0,0,0,0,0,0,0,0,0,0,0,0,0,0,0,0,0,0,0,0,0,0,0,0,0,0,0,0,0,0,0,0,0,0,0,0,
0,0,0,0,0,0,0,0,0,0,0,0,0,0,0,0,0,0,0,0,0,0,0,0,0,0,0,0,0,0,0,0,0,0,0,0,0,0,0,0,
0,0,0,0,0,0,0,0,0,0,0,0,0,0,0,0,0,0,0,0,0,0,0,0,0,0,0,0,0,0,0,0,0,0,0,0,0,0,0,0,
0,0,0,0,0,0,0,0,0,0,0,0,0,0,0,0,0,0,0,0,0,0,0,0,0,0,0,0,0,0,0,0,0,0,0,0,0,0,0,0,
0,0,0,0,0,0,0,0,0,0,0,0,0,0,0,0,0,0,0,0,0,0,0,0,0,0,0,0,0,0,0,0,0,0,0,0,0,0,0,0,
0,0,0,0,0,0,0,0,0,0,0,0,0,0,0,0,0,0,0,0,0,0,0,0,0,0,0,0,0,0,0,0,0,0,0,0,0,0,0,0,
0,0,0,0,0,0,0,0,0,0,0,0,0,0,0,0,0,0,0,0,0,0,0,0,0,0,0,0,0,0,0,0,0,0,0,0,0,0,0,0,
0,0,0,0,0,0,0,0,0,0,0,0,0,0,0,0,0,0,0,0,0,0,0,0,0,0,0,0,0,0,0,0,0,0,0,0,0,0,0,0,
0,0,0,0,0,0,0,0,0,0,0,0,0,0,0,0,0,0,0,0,0,0,0,0,0,0,0,0,0,0,0,0,0,0,0,0,0,0,0,0,
0,0,0,0,0,0,0,0,0,0,0,0,0,0,0,0,0,0,0,0,0,0,0,0,0,0,0,0,0,0,0,0,0,0,0,0,0,0,0,0,
0,0,0,0,0,8814,8814,8814,8814,8814,8814,8814,8814,8814,8814,8814,8814,8814,8814,8814,0,0,0,0,0,0,0,0,0,0,0,0,0,0,0,0,0,0,0,0,
0,0,0,0,0,8814,8814,8814,8814,8814,8814,8814,8814,8814,8814,8814,8814,8814,8814,8814,0,0,0,0,0,0,0,0,0,0,0,0,0,0,0,0,0,0,0,0,
0,0,0,0,0,8814,8814,8814,8814,8814,8814,8814,8814,8814,8814,8814,8814,8814,8814,8814,0,0,0,0,0,0,0,0,0,0,0,0,0,0,0,0,0,0,0,0,
0,0,0,0,0,8814,8814,8814,8814,8814,8814,8814,8814,8814,8814,8814,8814,8814,8814,8814,0,0,0,0,0,0,0,0,0,0,0,0,0,0,0,0,0,0,0,0,
0,0,0,0,0,8814,8814,8814,8814,8814,8814,8814,8814,8814,8814,8814,8814,8814,8814,8814,0,0,0,0,0,0,0,0,0,0,0,0,0,0,0,0,0,0,0,0,
0,0,0,0,0,8814,8814,8814,8814,8814,8814,8814,8814,8814,8814,8814,8814,8814,8814,8814,0,0,0,0,0,0,0,0,0,0,0,0,0,0,0,0,0,0,0,0,
0,0,0,0,0,8814,8814,8814,8814,8814,8814,8814,8814,8814,8814,8814,8814,8814,8814,8814,0,0,0,0,0,0,0,0,0,0,0,0,0,0,0,0,0,0,0,0,
0,0,0,0,0,8814,8814,8814,8814,8814,8814,8814,8814,8814,8814,8814,8814,8814,8814,8814,0,0,0,0,0,0,0,0,0,0,0,0,0,0,0,0,0,0,0,0
</data>
 </layer>
 <layer id="2" name="Camada de Blocos 2" width="40" height="30">
  <data encoding="csv">
0,0,0,0,0,0,0,0,0,0,0,0,0,0,0,0,0,0,0,0,0,0,0,0,0,0,0,0,0,0,0,0,0,0,0,0,0,0,0,0,
0,0,0,0,0,0,0,0,0,0,0,0,0,0,0,0,0,0,0,0,0,0,0,0,0,0,0,0,0,0,0,0,0,0,0,0,0,0,0,0,
0,0,0,0,0,0,0,0,0,0,0,0,0,0,0,0,0,0,0,0,0,0,0,0,0,0,0,0,0,0,0,0,0,0,0,0,0,0,0,0,
0,0,0,0,0,0,0,0,0,0,0,0,0,0,0,0,0,0,0,0,0,0,0,0,0,0,0,0,0,0,0,0,0,0,0,0,0,0,0,0,
0,0,0,0,0,0,0,0,0,0,0,0,0,0,0,0,0,0,0,0,0,0,0,0,0,0,0,0,0,0,0,0,0,0,0,0,0,0,0,0,
0,0,0,0,0,0,0,0,0,0,0,0,0,0,0,0,0,0,0,0,0,0,0,0,0,0,0,0,0,0,0,0,0,0,0,0,0,0,0,0,
0,0,0,0,0,0,0,0,0,0,0,0,0,0,0,0,0,0,0,0,0,0,0,0,0,0,0,0,0,0,0,0,0,0,0,0,0,0,0,0,
0,0,0,0,0,0,0,0,0,0,0,0,0,0,0,0,0,0,0,0,0,0,0,0,0,0,0,0,0,0,0,0,0,0,0,0,0,0,0,0,
0,0,0,0,0,0,0,0,0,0,0,0,0,0,0,0,0,0,0,0,0,0,0,0,0,0,0,0,0,0,0,0,0,0,0,0,0,0,0,0,
0,0,0,0,0,24619,24620,24621,24620,24621,24620,24621,24620,24621,24620,24621,24620,24620,24621,24622,0,0,0,0,0,0,0,0,0,0,0,0,0,0,0,0,0,0,0,0,
0,0,0,0,0,24651,24652,24653,24652,24653,24652,24653,24652,24653,24652,24653,24652,24652,24653,24654,0,0,0,0,0,0,0,0,0,0,0,0,0,0,0,0,0,0,0,0,
0,0,0,0,0,24683,24684,24685,24684,24685,24684,24685,24684,24685,24684,24685,24684,24684,24685,24686,0,0,0,0,0,0,0,0,0,0,0,0,0,0,0,0,0,0,0,0,
0,0,0,0,0,0,0,0,0,0,0,0,0,0,0,0,23269,23270,23271,23272,0,0,0,0,0,0,0,0,0,0,0,0,0,0,0,0,0,0,0,0,
0,0,0,0,0,0,0,0,0,0,0,0,0,0,0,0,23301,23302,23303,23304,0,0,0,0,0,0,0,0,0,0,0,0,0,0,0,0,0,0,0,0,
0,0,0,0,0,0,0,0,0,0,0,0,0,0,0,0,23333,23334,23335,23336,0,0,0,0,0,0,0,0,0,0,0,0,0,0,0,0,0,0,0,0,
0,0,0,0,0,0,0,0,0,0,0,0,0,0,0,0,0,0,0,0,0,0,0,0,0,0,0,0,0,0,0,0,0,0,0,0,0,0,0,0,
0,0,0,0,0,0,0,0,0,0,0,0,0,0,0,0,0,0,0,0,0,0,0,0,0,0,0,0,0,0,0,0,0,0,0,0,0,0,0,0,
0,0,0,0,0,0,0,0,0,0,0,0,0,0,0,0,0,0,0,0,0,0,0,0,0,0,0,0,0,0,0,0,0,0,0,0,0,0,0,0,
0,0,0,0,0,0,0,0,0,0,0,0,0,0,0,0,0,0,0,0,0,0,0,0,0,0,0,0,0,0,0,0,0,0,0,0,0,0,0,0,
0,0,0,0,0,0,0,0,0,0,0,0,0,0,0,0,0,0,0,0,0,0,0,0,0,0,0,0,0,0,0,0,0,0,0,0,0,0,0,0,
0,0,0,0,0,0,0,0,0,0,0,0,0,0,0,0,0,0,0,0,0,0,0,0,0,0,0,0,0,0,0,0,0,0,0,0,0,0,0,0,
0,0,0,0,0,0,0,0,0,0,0,0,0,0,0,0,0,0,0,0,0,0,0,0,0,0,0,0,0,0,0,0,0,0,0,0,0,0,0,0,
0,0,0,0,0,0,0,0,0,0,0,0,0,0,0,0,0,0,0,0,0,0,0,0,0,0,0,0,0,0,0,0,0,0,0,0,0,0,0,0,
0,0,0,0,0,0,0,0,0,0,0,0,0,0,0,0,0,0,0,0,0,0,0,0,0,0,0,0,0,0,0,0,0,0,0,0,0,0,0,0,
0,0,0,0,0,0,0,0,0,0,0,0,0,0,0,0,0,0,0,0,0,0,0,0,0,0,0,0,0,0,0,0,0,0,0,0,0,0,0,0,
0,0,0,0,0,0,0,0,0,0,0,0,0,0,0,0,0,0,0,0,0,0,0,0,0,0,0,0,0,0,0,0,0,0,0,0,0,0,0,0,
0,0,0,0,0,0,0,0,0,0,0,0,0,0,0,0,0,0,0,0,0,0,0,0,0,0,0,0,0,0,0,0,0,0,0,0,0,0,0,0,
0,0,0,0,0,0,0,0,0,0,0,0,0,0,0,0,0,0,0,0,0,0,0,0,0,0,0,0,0,0,0,0,0,0,0,0,0,0,0,0,
0,0,0,0,0,0,0,0,0,0,0,0,0,0,0,0,0,0,0,0,0,0,0,0,0,0,0,0,0,0,0,0,0,0,0,0,0,0,0,0,
0,0,0,0,0,0,0,0,0,0,0,0,0,0,0,0,0,0,0,0,0,0,0,0,0,0,0,0,0,0,0,0,0,0,0,0,0,0,0,0
</data>
 </layer>
 <layer id="3" name="Camada de Blocos 3" width="40" height="30">
  <data encoding="csv">
0,0,0,0,0,0,0,0,0,0,0,0,0,0,0,0,0,0,0,0,0,0,0,0,0,0,0,0,0,0,0,0,0,0,0,0,0,0,0,0,
0,0,0,0,0,0,0,0,0,0,0,0,0,0,0,0,0,0,0,0,0,0,0,0,0,0,0,0,0,0,0,0,0,0,0,0,0,0,0,0,
0,0,0,0,0,0,0,0,0,0,0,0,0,0,0,0,0,0,0,0,0,0,0,0,0,0,0,0,0,0,0,0,0,0,0,0,0,0,0,0,
0,0,0,0,0,0,0,0,0,0,0,0,0,0,0,0,0,0,0,0,0,0,0,0,0,0,0,0,0,0,0,0,0,0,0,0,0,0,0,0,
0,0,0,0,0,0,0,0,0,0,0,0,0,0,0,0,0,0,0,0,0,0,0,0,0,0,0,0,0,0,0,0,0,0,0,0,0,0,0,0,
0,0,0,0,0,0,0,0,0,0,0,0,0,0,0,0,0,0,0,0,0,0,0,0,0,0,0,0,0,0,0,0,0,0,0,0,0,0,0,0,
0,0,0,0,0,0,0,0,0,0,0,0,0,0,0,0,0,0,0,0,0,0,0,0,0,0,0,0,0,0,0,0,0,0,0,0,0,0,0,0,
0,0,0,0,0,22671,22672,22673,22672,22673,22672,22673,22672,22673,22672,22673,22672,22672,22673,22674,0,0,0,0,0,0,0,0,0,0,0,0,0,0,0,0,0,0,0,0,
0,0,0,0,0,22703,22704,22705,22704,22705,22704,22705,22704,22705,22704,22705,22704,22704,22705,22706,0,0,0,0,0,0,0,0,0,0,0,0,0,0,0,0,0,0,0,0,
0,0,0,0,0,22735,22736,22737,22736,22737,22736,22737,22736,22737,22736,22737,22736,22736,22737,22738,0,0,0,0,0,0,0,0,0,0,0,0,0,0,0,0,0,0,0,0,
0,0,0,0,0,0,0,0,0,0,0,0,0,0,0,0,0,0,0,0,0,0,0,0,0,0,0,0,0,0,0,0,0,0,0,0,0,0,0,0,
0,0,0,0,0,0,0,0,0,0,0,0,0,0,0,0,0,0,0,0,0,0,0,0,0,0,0,0,0,0,0,0,0,0,0,0,0,0,0,8813,
0,0,0,0,0,0,0,0,0,0,0,0,0,0,0,0,0,0,0,0,0,0,0,0,2731,2731,2731,2731,2731,2731,2731,2731,2731,2731,2731,2731,2731,2731,8813,8813,
0,0,0,0,0,0,0,0,0,0,0,0,0,0,0,0,0,0,0,0,0,0,0,0,2731,2731,2731,2731,2731,2731,2731,2731,2731,2731,2731,2731,2731,2731,8813,8813,
0,0,0,0,0,0,0,0,0,0,0,0,0,0,0,0,0,0,0,0,0,0,0,0,2731,2731,2731,2731,2731,2731,2731,2731,2731,2731,2731,2731,2731,2731,8813,8813,
0,0,0,0,0,0,0,0,0,0,0,0,0,0,0,0,0,0,0,0,0,0,0,0,2731,2731,2731,2731,2731,2731,2731,2731,2731,2731,2731,2731,2731,2731,8813,8813,
0,0,0,0,0,0,0,0,0,0,0,0,0,0,0,0,0,0,0,0,0,0,0,0,2731,2731,2731,2731,2731,2731,2731,2731,2731,2731,2731,2731,2731,2731,8813,8813,
0,0,0,0,0,0,0,0,0,0,0,0,0,0,0,0,0,0,0,0,0,0,0,0,2731,2731,2731,2731,2731,2731,2731,2731,2731,2731,2731,2731,2731,2731,8813,8813,
0,0,0,0,0,0,0,0,0,0,0,0,0,0,0,0,0,0,0,0,0,0,0,0,2731,2731,2731,2731,2731,2731,2731,2731,2731,2731,2731,2731,2731,2731,8813,8813,
0,0,0,0,0,0,0,0,0,0,0,0,0,0,0,0,0,0,0,0,0,0,0,0,2731,2731,2731,2731,2731,2731,2731,2731,2731,2731,2731,2731,2731,2731,8813,8813,
0,0,0,0,0,0,0,0,0,0,0,0,0,0,0,0,0,0,0,0,0,0,0,0,2731,2731,2731,2731,2731,2731,2731,2731,2731,2731,2731,2731,2731,2731,8813,8813,
0,0,0,0,0,0,0,0,0,0,0,0,0,0,0,0,0,0,0,0,0,0,0,0,2731,2731,2731,2731,2731,2731,2731,2731,2731,2731,2731,2731,2731,2731,8813,8813,
0,0,0,0,0,0,0,0,0,0,0,0,0,0,0,0,0,0,0,0,2731,2731,2731,2731,2731,2731,2731,2731,2731,2731,2731,2731,2731,2731,2731,2731,2731,2731,8813,8813,
0,0,0,0,0,0,0,0,0,0,0,0,0,0,0,0,0,0,0,0,2731,2731,2731,2731,2731,2731,2731,2731,2731,2731,2731,2731,2731,2731,2731,2731,2731,2731,8813,8813,
0,0,0,0,0,0,0,0,0,0,0,0,0,0,0,0,0,0,0,0,2731,2731,2731,2731,2731,2731,2731,2731,2731,2731,2731,2731,2731,2731,2731,2731,2731,2731,8813,8813,
0,0,0,0,0,0,0,0,0,0,0,0,0,0,0,0,0,0,0,0,2731,2731,2731,2731,2731,2731,2731,2731,2731,2731,2731,2731,2731,2731,2731,2731,2731,2731,8813,8813,
0,0,0,0,0,0,0,0,0,0,0,0,0,0,0,0,0,0,0,0,2731,2731,2731,2731,2731,2731,2731,2731,2731,2731,2731,2731,2731,2731,2731,2731,2731,2731,8813,8813,
0,0,0,0,0,0,0,0,0,0,0,0,0,0,0,0,0,0,0,0,2731,2731,2731,2731,2731,2731,2731,2731,2731,2731,2731,2731,2731,2731,2731,2731,2731,2731,8813,8813,
0,0,0,0,0,0,0,0,0,0,0,0,0,0,0,0,0,0,0,0,8813,8813,8813,8813,8813,8813,8813,8813,8813,8813,8813,8813,8813,8813,8813,8813,8813,8813,8813,8813,
0,0,0,0,0,0,0,0,0,0,0,0,0,0,0,0,0,0,8813,8813,8813,8813,8813,8813,8813,8813,8813,8813,8813,8813,8813,8813,8813,8813,8813,8813,8813,8813,8813,8813
</data>
 </layer>
 <layer id="4" name="Camada de Blocos 4" width="40" height="30">
  <data encoding="csv">
0,0,0,0,0,0,0,0,0,0,0,0,0,0,0,0,0,0,0,0,0,0,0,0,0,0,0,0,0,0,0,0,0,0,0,0,0,0,0,0,
0,0,0,0,0,0,0,0,0,0,0,0,0,0,0,0,0,0,0,0,0,0,0,0,0,0,0,0,0,0,0,0,0,0,0,0,0,0,0,0,
0,0,0,0,0,0,0,0,0,0,0,0,0,0,0,0,0,0,0,0,0,0,0,0,0,0,0,0,0,0,0,0,0,0,0,0,0,0,0,0,
0,0,0,0,0,0,0,0,0,0,0,0,0,0,0,0,0,0,0,0,0,0,0,0,0,0,0,0,0,0,0,0,0,0,0,0,0,0,0,0,
0,0,0,0,0,0,0,0,0,0,0,0,0,0,0,0,0,0,0,0,0,0,0,0,0,0,0,0,0,0,0,0,0,0,0,0,0,0,0,0,
0,0,0,0,0,0,0,0,0,0,0,0,0,0,0,0,0,0,0,0,0,0,0,0,0,0,0,0,0,0,0,0,0,0,0,0,0,0,0,0,
0,0,0,0,0,0,22377,22378,22379,22380,22381,22382,0,22377,22378,22379,22380,22381,22382,0,0,0,0,0,0,0,0,0,0,0,0,0,0,0,0,0,0,0,0,0,
0,0,0,0,0,0,22409,22410,22411,22412,22413,22414,0,22409,22410,22411,22412,22413,22414,0,0,0,0,0,0,0,0,0,0,0,0,0,0,0,0,0,0,0,0,0,
0,0,0,0,0,0,22441,22442,22443,22444,22445,22446,0,22441,22442,22443,22444,22445,22446,0,22391,22392,22391,22392,0,0,0,0,0,0,0,0,0,0,0,0,0,0,0,0,
0,0,0,0,0,0,22473,22474,22475,22476,22477,22478,0,22473,22474,22475,22476,22477,22478,0,22423,22424,22423,22424,0,0,0,0,0,0,0,0,0,0,0,0,0,0,0,0,
0,0,0,0,0,0,0,0,0,0,0,0,0,0,0,0,0,0,0,0,22455,22456,22455,22456,0,0,0,0,0,0,0,0,0,0,0,0,0,0,0,0,
0,0,0,0,0,0,0,0,0,0,0,0,0,0,0,0,0,0,0,0,22487,22488,22487,22488,0,0,0,0,0,0,0,0,0,0,0,0,0,0,0,0,
0,0,0,0,0,0,0,0,0,0,0,0,0,0,0,0,0,0,0,0,0,0,0,0,0,0,0,0,0,0,0,0,0,0,0,0,0,0,0,0,
0,0,0,0,0,0,0,0,0,0,0,0,0,0,0,0,0,0,0,0,0,0,0,0,0,0,0,0,0,0,0,0,0,0,0,0,0,0,0,0,
0,0,0,0,0,0,0,0,0,0,0,0,0,0,0,0,0,0,0,0,0,0,0,0,0,0,0,0,0,0,0,0,0,0,0,0,0,0,0,0,
0,0,0,0,0,0,0,0,0,0,0,0,0,0,0,0,0,0,0,0,0,0,0,0,0,0,0,0,0,0,0,0,0,0,0,0,0,0,0,0,
0,0,0,0,0,0,0,0,0,0,0,0,0,0,0,0,0,0,0,0,0,0,0,0,0,0,0,0,0,0,0,0,0,0,0,0,0,0,0,0,
0,0,0,0,0,0,0,0,0,0,0,0,0,0,0,0,0,0,0,0,0,0,0,0,0,0,0,0,0,0,0,0,0,0,0,0,0,0,0,0,
0,0,0,0,0,0,0,0,0,0,0,0,0,0,0,0,0,0,0,0,0,0,0,0,0,0,0,0,0,0,0,0,0,0,0,0,0,0,0,0,
0,0,0,0,0,0,0,0,0,0,0,0,0,0,0,0,0,0,0,0,0,0,0,0,0,0,0,0,0,0,0,0,0,0,0,0,0,0,0,0,
0,0,0,0,0,0,0,0,0,0,0,0,0,0,0,0,0,0,0,0,0,0,0,0,0,0,0,0,0,0,0,0,0,0,0,0,0,0,0,0,
0,0,0,0,0,0,0,0,0,0,0,0,0,0,0,0,0,0,0,0,0,0,0,0,0,0,0,0,0,0,0,0,0,0,0,0,0,0,0,0,
0,0,0,0,0,0,0,0,0,0,0,0,0,0,0,0,0,0,0,0,0,0,0,0,0,0,0,0,0,0,0,0,0,0,0,0,0,0,0,0,
0,0,0,0,0,0,0,0,0,0,0,0,0,0,0,0,0,0,0,0,0,0,0,0,0,0,0,0,0,0,0,0,0,0,0,0,0,0,0,0,
0,0,0,0,0,0,0,0,0,0,0,0,0,0,0,0,0,0,0,0,0,0,0,0,0,0,0,0,0,0,0,0,0,0,0,0,0,0,0,0,
0,0,0,0,0,0,0,0,0,0,0,0,0,0,0,0,0,0,0,0,0,0,0,0,0,0,0,0,0,0,0,0,0,0,0,0,0,0,0,0,
0,0,0,0,0,0,0,0,0,0,0,0,0,0,0,0,0,0,0,0,0,0,0,0,0,0,0,0,0,0,0,0,0,0,0,0,0,0,0,0,
0,0,0,0,0,0,0,0,0,0,0,0,0,0,0,0,0,0,0,0,0,0,0,0,0,0,0,0,0,0,0,0,0,0,0,0,0,0,0,0,
0,0,0,0,0,0,0,0,0,0,0,0,0,0,0,0,0,0,0,0,0,0,0,0,0,0,0,0,0,0,0,0,0,0,0,0,0,0,0,0,
0,0,0,0,0,0,0,0,0,0,0,0,0,0,0,0,0,0,0,0,0,0,0,0,0,0,0,0,0,0,0,0,0,0,0,0,0,0,0,0
</data>
 </layer>
</map>
