<?xml version="1.0" encoding="UTF-8"?>
<map version="1.10" tiledversion="1.11.0" orientation="orthogonal" renderorder="right-down" width="40" height="30" tilewidth="16" tileheight="16" infinite="0" nextlayerid="11" nextobjectid="1">
 <tileset firstgid="1" name="pokemontileset" tilewidth="16" tileheight="16" tilecount="20832" columns="16">
  <image source="Texture/pokemontileset.png" width="256" height="20832"/>
 </tileset>
 <tileset firstgid="20833" name="Interiors_free_32x32" tilewidth="16" tileheight="16" tilecount="5696" columns="32">
  <image source="Texture/Modern_tiles/Interiors_free/32x32/Interiors_free_32x32.png" width="512" height="2848"/>
 </tileset>
 <layer id="1" name="Camada de Blocos 1" width="40" height="30">
  <data encoding="csv">
8819,8819,8819,8819,8819,8819,8819,8819,8819,8819,8819,8819,8819,8819,8819,8819,8819,8819,8819,8819,8819,8819,8819,8819,8819,8819,8819,8819,8819,8819,8819,8819,8819,8819,8819,8819,8819,8819,8819,8819,
8819,8819,8819,8819,8819,8819,8819,8819,8819,8819,8819,8819,8819,8819,8819,8819,8819,8819,8819,8819,8819,8819,8819,8819,8819,8819,8819,8819,8819,8819,8819,8819,8819,8819,8819,8819,8819,8819,8819,8819,
8819,8819,8819,8819,8819,8819,8819,8819,8819,8819,8819,8819,8819,8819,8819,8819,8819,8819,8819,8819,8819,8819,8819,8819,8819,8819,8819,8819,8819,8819,8819,8819,8819,8819,8819,8819,8819,8819,8819,8819,
8819,8819,8819,8819,8819,8819,8819,8819,8819,8819,8819,8819,8819,8819,8819,8819,8819,8819,8819,8819,8819,8819,8819,8819,8819,8819,8819,8819,8819,8819,8819,8819,8819,8819,8819,8819,8819,8819,8819,8819,
8819,8819,8819,8819,8819,8819,8819,8819,8819,8819,8819,8819,8819,8819,8819,8819,8819,8819,8819,8819,8819,8819,8819,8819,8819,8819,8819,8819,8819,8819,8819,8819,8819,8819,8819,8819,8819,8819,8819,8819,
8819,8819,8819,8819,8819,8819,8819,8819,8819,8819,8819,8819,8819,8819,8819,8819,8819,8819,8819,8819,8819,8819,8819,8819,8819,8819,8819,8819,8819,8819,8819,8819,8819,8819,8819,8819,8819,8819,8819,8819,
8819,8819,8819,8819,8819,8819,8819,8819,8819,8819,8819,8819,8819,8819,8819,8819,8819,8819,8819,8819,8819,8819,8819,8819,8819,8819,8819,8819,8819,8819,8819,8819,8819,8819,8819,8819,8819,8819,8819,8819,
8819,8819,8819,8819,8819,8819,8819,8819,8819,8819,8819,8819,8819,8819,8819,8819,8819,8819,8819,8819,8819,8819,8819,8819,8819,8819,8819,8819,8819,8819,8819,8819,8819,8819,8819,8819,8819,8819,8819,8819,
8819,8819,8819,8819,8819,8819,8819,8819,8819,8819,8819,8819,8819,8819,8819,8819,8819,8819,8819,8819,8819,8819,8819,8819,8819,8819,8819,8819,8819,8819,8819,8819,8819,8819,8819,8819,8819,8819,8819,8819,
8819,8819,8819,8819,8819,8819,8819,8819,8819,8819,8819,8819,8819,8819,8819,8819,8819,8819,8819,8819,8819,8819,8819,8819,8819,8819,8819,8819,8819,8819,8819,8819,8819,8819,8819,8819,8819,8819,8819,8819,
8819,8819,8819,8819,8819,8819,8819,8819,8819,8819,8819,8819,8819,8819,8819,8819,8819,8819,8819,8819,8819,8819,8819,8819,8819,8819,8819,8819,8819,8819,8819,8819,8819,8819,8819,8819,8819,8819,8819,8819,
8819,8819,8819,8819,8819,8819,8819,8819,8819,8819,8819,8819,8819,8819,8819,8819,8819,8819,8819,8819,8819,8819,8819,8819,8819,8819,8819,8819,8819,8819,8819,8819,8819,8819,8819,8819,8819,8819,8819,8819,
8819,8819,8819,8819,8819,8819,8819,8819,8819,8819,8819,8819,8819,8819,8819,8819,8819,8819,8819,8819,8819,8819,8819,8819,8819,8819,8819,8819,8819,8819,8819,8819,8819,8819,8819,8819,8819,8819,8819,8819,
8819,8819,8819,8819,8819,8819,8819,8819,8819,8819,8819,8819,8819,8819,8819,8819,8819,8819,8819,8819,8819,8819,8819,8819,8819,8819,8819,8819,8819,8819,8819,8819,8819,8819,8819,8819,8819,8819,8819,8819,
8819,8819,8819,8819,8819,8819,8819,8819,8819,8819,8819,8819,8819,8819,8819,8819,8819,8819,8819,8819,8819,8819,8819,8819,8819,8819,8819,8819,8819,8819,8819,8819,8819,8819,8819,8819,8819,8819,8819,8819,
8819,8819,8819,8819,8819,8819,8819,8819,8819,8819,8819,8819,8819,8819,8819,8819,8819,8819,8819,8819,8819,8819,8819,8819,8819,8819,8819,8819,8819,8819,8819,8819,8819,8819,8819,8819,8819,8819,8819,8819,
8819,8819,8819,8819,8819,8819,8819,8819,8819,8819,8819,8819,8819,8819,8819,8819,8819,8819,8819,8819,8819,8819,8819,8819,8819,8819,8819,8819,8819,8819,8819,8819,8819,8819,8819,8819,8819,8819,8819,8819,
8819,8819,8819,8819,8819,8819,8819,8819,8819,8819,8819,8819,8819,8819,8819,8819,8819,8819,8819,8819,8819,8819,8819,8819,8819,8819,8819,8819,8819,8819,8819,8819,8819,8819,8819,8819,8819,8819,8819,8819,
8819,8819,8819,8819,8819,8819,8819,8819,8819,8819,8819,8819,8819,8819,8819,8819,8819,8819,8819,8819,8819,8819,8819,8819,8819,8819,8819,8819,8819,8819,8819,8819,8819,8819,8819,8819,8819,8819,8819,8819,
8819,8819,8819,8819,8819,8819,8819,8819,8819,8819,8819,8819,8819,8819,8819,8819,8819,8819,8819,8819,8819,8819,8819,8819,8819,8819,8819,8819,8819,8819,8819,8819,8819,8819,8819,8819,8819,8819,8819,8819,
8819,8819,8819,8819,8819,8819,8819,8819,8819,8819,8819,8819,8819,8819,8819,8819,8819,8819,8819,8819,8819,8819,8819,8819,8819,8819,8819,8819,8819,8819,8819,8819,8819,8819,8819,8819,8819,8819,8819,8819,
8819,8819,8819,8819,8819,8819,8819,8819,8819,8819,8819,8819,8819,8819,8819,8819,8819,8819,8819,8819,8819,8819,8819,8819,8819,8819,8819,8819,8819,8819,8819,8819,8819,8819,8819,8819,8819,8819,8819,8819,
8819,8819,8819,8819,8819,8819,8819,8819,8819,8819,8819,8819,8819,8819,8819,8819,8819,8819,8819,8819,8819,8819,8819,8819,8819,8819,8819,8819,8819,8819,8819,8819,8819,8819,8819,8819,8819,8819,8819,8819,
8819,8819,8819,8819,8819,8819,8819,8819,8819,8819,8819,8819,8819,8819,8819,8819,8819,8819,8819,8819,8819,8819,8819,8819,8819,8819,8819,8819,8819,8819,8819,8819,8819,8819,8819,8819,8819,8819,8819,8819,
8819,8819,8819,8819,8819,8819,8819,8819,8819,8819,8819,8819,8819,8819,8819,8819,8819,8819,8819,8819,8819,8819,8819,8819,8819,8819,8819,8819,8819,8819,8819,8819,8819,8819,8819,8819,8819,8819,8819,8819,
8819,8819,8819,8819,8819,8819,8819,8819,8819,8819,8819,8819,8819,8819,8819,8819,8819,8819,8819,8819,8819,8819,8819,8819,8819,8819,8819,8819,8819,8819,8819,8819,8819,8819,8819,8819,8819,8819,8819,8819,
8819,8819,8819,8819,8819,8819,8819,8819,8819,8819,8819,8819,8819,8819,8819,8819,8819,8819,8819,8819,8819,8819,8819,8819,8819,8819,8819,8819,8819,8819,8819,8819,8819,8819,8819,8819,8819,8819,8819,8819,
8819,8819,8819,8819,8819,8819,8819,8819,8819,8819,8819,8819,8819,8819,8819,8819,8819,8819,8819,8819,8819,8819,8819,8819,8819,8819,8819,8819,8819,8819,8819,8819,8819,8819,8819,8819,8819,8819,8819,8819,
8819,8819,8819,8819,8819,8819,8819,8819,8819,8819,8819,8819,8819,8819,8819,8819,8819,8819,8819,8819,8819,8819,8819,8819,8819,8819,8819,8819,8819,8819,8819,8819,8819,8819,8819,8819,8819,8819,8819,8819,
8819,8819,8819,8819,8819,8819,8819,8819,8819,8819,8819,8819,8819,8819,8819,8819,8819,8819,8819,8819,8819,8819,8819,8819,8819,8819,8819,8819,8819,8819,8819,8819,8819,8819,8819,8819,8819,8819,8819,8819
</data>
 </layer>
 <layer id="2" name="Camada de Blocos 2" width="40" height="30">
  <data encoding="csv">
0,0,0,0,23397,23398,23399,23400,0,0,23397,23398,23399,23400,0,0,0,23397,23398,23399,23400,0,0,0,23397,23398,23399,23400,0,0,0,0,0,0,0,0,0,0,0,0,
0,0,0,0,23429,23430,23431,23432,0,0,23429,23430,23431,23432,0,0,0,23429,23430,23431,23432,0,0,0,23429,23430,23431,23432,0,0,0,0,0,0,0,0,0,0,0,2684376385,
0,0,0,0,23461,23462,23463,23464,0,0,23461,23462,23463,23464,0,0,0,23461,23462,23463,23464,0,0,0,23461,23462,23463,23464,0,0,0,0,0,0,0,0,0,0,0,2684376386,
0,0,0,0,0,0,0,0,0,0,0,0,0,0,0,0,0,0,0,0,0,0,0,0,0,0,0,23432,0,0,0,0,0,0,0,0,0,0,0,2684376387,
0,0,0,0,0,0,0,0,0,0,0,0,0,0,0,0,0,0,0,0,0,0,0,0,0,0,23399,23400,0,0,0,0,0,0,0,0,0,0,0,2684376386,
0,0,0,0,0,0,0,0,0,0,0,0,0,0,0,0,0,0,0,0,0,0,0,0,0,0,0,0,0,0,0,0,0,0,0,0,0,0,0,2684376387,
0,0,0,0,0,0,0,0,0,0,0,0,0,0,0,0,0,0,0,0,0,0,0,0,0,0,0,0,0,0,0,0,0,0,0,0,0,0,0,2684376388,
0,0,0,0,0,0,0,0,0,0,0,0,0,0,0,0,0,0,0,0,0,0,0,0,0,0,0,0,0,0,0,0,0,0,0,0,0,0,0,0,
0,0,0,0,0,0,0,0,0,0,0,0,0,0,0,0,0,0,0,0,0,0,0,0,0,0,0,0,0,0,0,0,0,0,0,0,0,0,0,0,
0,0,0,0,0,0,0,0,0,0,0,0,0,0,0,0,0,0,0,0,0,0,0,0,0,0,0,0,0,0,0,0,0,0,0,0,0,0,0,2684376923,
0,0,0,0,0,0,0,0,0,0,0,0,0,0,0,0,0,0,0,0,0,0,0,0,0,0,0,0,0,0,0,0,0,0,0,0,0,0,0,2684376924,
0,0,0,0,0,0,0,0,0,0,0,0,0,0,0,0,0,0,0,0,0,0,0,0,0,0,0,0,0,0,0,0,0,0,0,0,0,0,0,2684376925,
0,0,0,0,0,0,0,0,0,0,0,0,0,0,0,0,0,0,0,0,0,0,0,0,0,0,0,0,0,0,0,0,0,0,0,0,0,0,0,2684376924,
0,0,0,0,0,0,0,0,0,0,0,0,0,0,0,0,0,0,0,0,0,0,0,0,0,0,0,0,0,0,0,0,0,0,0,0,0,0,0,2684376925,
0,0,0,0,0,0,0,0,0,0,0,0,0,0,0,0,0,0,0,0,0,0,0,0,0,0,0,0,0,0,0,0,0,0,0,0,0,0,0,2684376924,
0,0,0,0,0,0,0,0,0,0,0,0,0,0,0,0,0,0,0,0,0,0,0,0,0,0,0,0,0,0,0,0,0,0,0,0,0,0,0,2684376925,
0,0,0,0,0,0,0,0,0,0,0,0,0,0,0,0,0,0,2684377769,2684377737,2684377705,0,0,0,0,0,0,0,0,0,0,0,0,0,0,0,0,0,0,2684376924,
0,0,0,0,0,0,0,0,0,0,0,0,0,0,0,0,0,0,2684377770,2684377738,2684377706,0,0,0,0,0,0,0,0,0,0,0,0,0,0,0,0,0,0,2684376925,
0,0,0,0,0,0,0,0,0,0,0,0,0,0,0,0,0,0,0,0,0,0,0,0,0,0,0,0,0,0,0,0,0,0,0,0,0,0,0,2684376924,
0,0,0,0,23397,23398,23399,23400,0,0,23397,23398,23399,23400,0,0,0,23397,23398,23399,23400,0,0,0,23397,23398,23399,23400,0,0,0,0,0,0,0,0,0,0,0,2684376925,
0,0,0,0,23429,23430,23431,23432,0,0,23429,23430,23431,23432,0,0,0,23429,23430,23431,23432,0,0,0,23429,23430,23431,23432,0,0,0,0,0,0,0,0,0,0,0,2684376926,
0,0,0,0,23461,23462,23463,23464,0,0,23461,23462,23463,23464,0,0,0,23461,23462,23463,23464,0,0,0,23461,23462,23463,23464,0,0,0,0,0,0,0,0,0,0,0,0,
0,0,0,0,0,0,0,0,0,0,0,0,0,0,0,0,0,0,0,0,0,0,0,0,0,0,0,0,0,0,0,0,0,0,0,0,0,0,0,0,
0,0,0,0,0,0,0,0,0,0,0,0,0,0,0,0,0,0,0,0,0,0,0,0,0,0,0,0,0,0,0,0,0,0,0,0,0,0,0,2684376385,
0,0,0,0,0,0,0,0,0,0,0,0,0,0,0,0,0,0,0,0,0,0,0,0,0,0,0,0,0,0,0,0,0,0,0,0,0,0,0,2684376386,
0,0,0,0,0,0,0,0,0,0,0,0,0,0,0,0,0,0,0,0,0,0,0,0,0,0,0,0,0,0,0,0,0,0,0,0,0,0,0,2684376387,
0,0,0,0,0,0,0,0,0,0,0,0,0,0,0,0,0,0,0,0,0,0,0,0,0,0,0,0,0,0,0,0,0,0,0,0,0,0,0,2684376386,
0,0,0,0,0,0,0,0,0,0,0,0,0,0,0,0,0,0,0,0,0,0,0,0,0,0,0,0,0,0,0,0,0,0,0,0,0,0,0,2684376387,
21677,21678,0,0,0,0,0,0,0,0,0,0,0,0,0,0,0,0,0,0,0,0,0,0,0,0,0,0,0,0,0,0,0,0,0,0,0,0,0,2684376388,
21709,21710,0,0,0,0,0,0,0,0,0,0,0,0,0,0,0,0,0,0,0,0,0,0,0,0,0,0,0,0,0,0,0,0,0,0,0,0,0,0
</data>
 </layer>
 <layer id="7" name="Camada de Blocos 4" width="40" height="30">
  <data encoding="csv">
0,0,0,0,0,0,0,0,0,0,0,0,0,0,0,0,0,0,0,0,0,0,0,0,0,0,0,0,0,0,0,0,0,0,0,0,0,0,0,0,
0,0,0,0,0,0,0,0,0,0,0,0,0,0,0,0,0,0,0,0,0,0,0,0,0,0,0,0,0,0,0,0,0,0,0,0,0,0,0,0,
0,0,0,0,23397,23398,23399,23400,0,0,23397,23398,23399,23400,0,0,0,23397,23398,23399,23400,0,0,0,23397,23398,23399,23400,0,0,0,0,0,0,0,0,0,0,0,0,
0,0,0,0,23429,23430,23431,23432,0,0,23429,23430,23431,23432,0,0,0,23429,23430,23431,23432,0,0,0,23429,23430,23431,23432,0,0,0,0,0,0,0,0,0,0,0,0,
0,0,0,0,23461,23462,23463,23464,0,0,23461,23462,23463,23464,0,0,0,23461,23462,23463,23464,0,0,0,23461,23462,23463,23464,0,0,0,0,0,0,0,0,0,0,0,0,
0,0,0,0,0,0,0,0,0,0,0,0,0,0,0,0,0,0,0,0,0,0,0,0,0,0,0,0,0,0,0,0,0,0,0,0,0,0,0,0,
0,0,0,0,0,0,0,0,0,0,0,0,0,0,0,0,0,0,0,0,0,0,0,0,0,0,0,0,0,0,0,0,0,0,0,0,0,0,0,0,
0,0,0,0,0,0,0,0,0,0,0,0,0,0,0,0,0,0,0,0,0,0,0,0,0,0,0,0,0,0,0,0,0,0,0,0,0,0,0,0,
0,0,0,0,0,0,0,0,0,0,0,0,0,0,0,0,0,0,0,0,0,0,0,0,0,0,0,0,0,0,0,0,0,0,0,0,0,0,0,0,
0,0,0,0,0,0,0,0,0,0,0,0,0,0,0,0,0,0,0,0,0,0,0,0,0,0,0,0,0,0,0,0,0,0,0,0,0,0,0,0,
0,0,0,0,0,0,0,0,0,0,0,0,0,0,0,0,0,0,0,0,0,0,0,0,0,0,0,0,0,0,0,0,0,0,0,0,0,0,0,0,
0,0,0,0,0,0,0,0,0,0,0,0,0,0,0,0,0,0,0,0,0,0,0,0,0,0,0,0,0,0,0,0,0,0,0,0,0,0,0,0,
0,0,0,0,0,0,0,0,0,0,0,0,0,0,0,0,0,0,0,0,0,0,0,0,0,0,0,0,0,0,0,0,0,0,0,0,0,0,0,0,
0,0,0,0,0,0,0,0,0,0,0,0,0,0,0,0,0,0,0,0,0,0,0,0,0,0,0,0,0,0,0,0,0,0,0,0,0,0,0,0,
0,0,0,0,0,0,0,0,0,0,0,0,0,0,0,0,0,0,0,0,0,0,0,0,0,0,0,0,0,0,0,0,0,0,0,0,0,0,0,0,
0,0,0,0,0,0,0,0,0,0,0,0,0,0,0,0,0,0,0,0,0,0,0,0,0,0,0,0,0,0,0,0,0,0,0,0,0,0,0,0,
0,0,0,0,0,0,0,0,0,0,0,0,0,0,0,0,0,0,0,0,0,0,0,0,0,0,0,0,0,0,0,0,0,0,0,0,0,0,0,0,
0,0,0,0,0,0,0,0,0,0,0,0,0,0,0,0,0,0,0,0,0,0,0,0,0,0,0,0,0,0,0,0,0,0,0,0,0,0,0,0,
0,0,0,0,0,0,0,0,0,0,0,0,0,0,0,0,0,0,0,0,0,0,0,0,0,0,0,0,0,0,0,0,0,0,0,0,0,0,0,0,
0,0,0,0,0,0,0,0,0,0,0,0,0,0,0,0,0,0,0,0,0,0,0,0,0,0,0,0,0,0,0,0,0,0,0,0,0,0,0,0,
0,0,0,0,0,0,0,0,0,0,0,0,0,0,0,0,0,0,0,0,0,0,0,0,0,0,0,0,0,0,0,0,0,0,0,0,0,0,0,0,
0,0,0,0,23397,23398,23399,23400,0,0,23397,23398,23399,23400,0,0,0,23397,23398,23399,23400,0,0,0,23397,23398,23399,23400,0,0,0,0,0,0,0,0,0,0,0,0,
0,0,0,0,23429,23430,23431,23432,0,0,23429,23430,23431,23432,0,0,0,23429,23430,23431,23432,0,0,0,23429,23430,23431,23432,0,0,0,0,0,0,0,0,0,0,0,0,
0,0,0,0,23461,23462,23463,23464,0,0,23461,23462,23463,23464,0,0,0,23461,23462,23463,23464,0,0,0,23461,23462,23463,23464,0,0,0,0,0,0,0,0,0,0,0,0,
0,0,0,0,0,0,0,0,0,0,0,0,0,0,0,0,0,0,0,0,0,0,0,0,0,0,0,0,0,0,0,0,0,0,0,0,0,0,0,0,
0,0,0,0,0,0,0,0,0,0,0,0,0,0,0,0,0,0,0,0,0,0,0,0,0,0,0,0,0,0,0,0,0,0,0,0,0,0,0,0,
0,0,0,0,0,0,0,0,0,0,0,0,0,0,0,0,0,0,0,0,0,0,0,0,0,0,0,0,0,0,0,0,0,0,0,0,0,0,0,0,
0,0,0,0,0,0,0,0,0,0,0,0,0,0,0,0,0,0,0,0,0,0,0,0,0,0,0,0,0,0,0,0,0,0,0,0,0,0,0,0,
0,0,0,0,0,0,0,0,0,0,0,0,0,0,0,0,0,0,0,0,0,0,0,0,0,0,0,0,0,0,0,0,0,0,0,0,0,0,0,0,
0,0,0,0,0,0,0,0,0,0,0,0,0,0,0,0,0,0,0,0,0,0,0,0,0,0,0,0,0,0,0,0,0,0,0,0,0,0,0,0
</data>
 </layer>
 <layer id="8" name="Camada de Blocos 5" width="40" height="30">
  <data encoding="csv">
0,0,0,0,0,0,0,0,0,0,0,0,0,0,0,0,0,0,0,0,0,0,0,0,0,0,0,0,0,0,0,0,0,0,0,0,0,0,0,0,
0,0,0,0,0,0,0,0,0,0,0,0,0,0,0,0,0,0,0,0,0,0,0,0,0,0,0,0,0,0,0,0,0,0,0,0,0,0,0,0,
0,0,0,0,0,0,0,0,0,0,0,0,0,0,0,0,0,0,0,0,0,0,0,0,0,0,0,0,0,0,0,0,0,0,0,0,0,0,0,0,
0,0,0,0,0,0,0,0,0,0,0,0,0,0,0,0,0,0,0,0,0,0,0,0,0,0,0,0,0,0,0,0,0,0,0,0,0,0,0,0,
0,0,0,0,23397,23398,23399,23400,0,0,23397,23398,23399,23400,0,0,0,23397,23398,23399,23400,0,0,0,23397,23398,23399,23400,0,0,0,0,0,0,0,0,0,0,0,0,
0,0,0,0,23429,23430,23431,23432,0,0,23429,23430,23431,23432,0,0,0,23429,23430,23431,23432,0,0,0,23429,23430,23431,23432,0,0,0,0,0,0,0,0,0,0,0,0,
0,0,0,0,23461,23462,23463,23464,0,0,23461,23462,23463,23464,0,0,0,23461,23462,23463,23464,0,0,0,23461,23462,23463,23464,0,0,0,0,0,0,0,0,0,0,0,0,
0,0,0,0,0,0,0,0,0,0,0,0,0,0,0,0,0,0,0,0,0,0,0,0,0,0,0,0,0,0,0,0,0,0,0,0,0,0,0,0,
0,0,0,0,0,0,0,0,0,0,0,0,0,0,0,0,0,0,0,0,0,0,0,0,0,0,0,0,0,0,0,0,0,0,0,0,0,0,0,0,
0,0,0,0,0,0,0,0,0,0,0,0,0,0,0,0,0,0,0,0,0,0,0,0,0,0,0,0,0,0,0,0,0,0,0,0,0,0,0,0,
0,0,0,0,0,0,0,0,0,0,0,0,0,0,0,0,0,0,0,0,0,0,0,0,0,0,0,0,0,0,0,0,0,0,0,0,0,0,0,0,
0,0,0,0,0,0,0,0,0,0,0,0,0,0,0,0,0,0,0,0,0,0,0,0,0,0,0,0,0,0,0,0,0,0,0,0,0,0,0,0,
0,0,0,0,0,0,0,0,0,0,0,0,0,0,0,0,0,0,0,0,0,0,0,0,0,0,0,0,0,0,0,0,0,0,0,0,0,0,0,0,
0,0,0,0,0,0,0,0,0,0,0,0,0,0,0,0,0,0,0,0,0,0,0,0,0,0,0,0,0,0,0,0,0,0,0,0,0,0,0,0,
0,0,0,0,0,0,0,0,0,0,0,0,0,0,0,0,0,0,0,0,0,0,0,0,0,0,0,0,0,0,0,0,0,0,0,0,0,0,0,0,
0,0,0,0,0,0,0,0,0,0,0,0,0,0,0,0,0,0,0,0,0,0,0,0,0,0,0,0,0,0,0,0,0,0,0,0,0,0,0,0,
0,0,0,0,0,0,0,0,0,0,0,0,0,0,0,0,0,0,0,0,0,0,0,0,0,0,0,0,0,0,0,0,0,0,0,0,0,0,0,0,
0,0,0,0,0,0,0,0,0,0,0,0,0,0,0,0,0,0,0,0,0,0,0,0,0,0,0,0,0,0,0,0,0,0,0,0,0,0,0,0,
0,0,0,0,0,0,0,0,0,0,0,0,0,0,0,0,0,0,0,0,0,0,0,0,0,0,0,0,0,0,0,0,0,0,0,0,0,0,0,0,
0,0,0,0,0,0,0,0,0,0,0,0,0,0,0,0,0,0,0,0,0,0,0,0,0,0,0,0,0,0,0,0,0,0,0,0,0,0,0,0,
0,0,0,0,0,0,0,0,0,0,0,0,0,0,0,0,0,0,0,0,0,0,0,0,0,0,0,0,0,0,0,0,0,0,0,0,0,0,0,0,
0,0,0,0,0,0,0,0,0,0,0,0,0,0,0,0,0,0,0,0,0,0,0,0,0,0,0,0,0,0,0,0,0,0,0,0,0,0,0,0,
0,0,0,0,0,0,0,0,0,0,0,0,0,0,0,0,0,0,0,0,0,0,0,0,0,0,0,0,0,0,0,0,0,0,0,0,0,0,0,0,
0,0,0,0,23397,23398,23399,23400,0,0,23397,23398,23399,23400,0,0,0,23397,23398,23399,23400,0,0,0,23397,23398,23399,23400,0,0,0,0,0,0,0,0,0,0,0,0,
0,0,0,0,23429,23430,23431,23432,0,0,23429,23430,23431,23432,0,0,0,23429,23430,23431,23432,0,0,0,23429,23430,23431,23432,0,0,0,0,0,0,0,0,0,0,0,0,
0,0,0,0,23461,23462,23463,23464,0,0,23461,23462,23463,23464,0,0,0,23461,23462,23463,23464,0,0,0,23461,23462,23463,23464,0,0,0,0,0,0,0,0,0,0,0,0,
0,0,0,0,0,0,0,0,0,0,0,0,0,0,0,0,0,0,0,0,0,0,0,0,0,0,0,0,0,0,0,0,0,0,0,0,0,0,0,0,
0,0,0,0,0,0,0,0,0,0,0,0,0,0,0,0,0,0,0,0,0,0,0,0,0,0,0,0,0,0,0,0,0,0,0,0,0,0,0,0,
0,0,0,0,0,0,0,0,0,0,0,0,0,0,0,0,0,0,0,0,0,0,0,0,0,0,0,0,0,0,0,0,0,0,0,0,0,0,0,0,
0,0,0,0,0,0,0,0,0,0,0,0,0,0,0,0,0,0,0,0,0,0,0,0,0,0,0,0,0,0,0,0,0,0,0,0,0,0,0,0
</data>
 </layer>
 <layer id="9" name="Camada de Blocos 6" width="40" height="30">
  <data encoding="csv">
0,0,0,0,0,0,0,0,0,0,0,0,0,0,0,0,0,0,0,0,0,0,0,0,0,0,0,0,0,0,0,0,0,0,0,0,0,0,0,0,
0,0,0,0,0,0,0,0,0,0,0,0,0,0,0,0,0,0,0,0,0,0,0,0,0,0,0,0,0,0,0,0,0,0,0,0,0,0,0,0,
0,0,0,0,0,0,0,0,0,0,0,0,0,0,0,0,0,0,0,0,0,0,0,0,0,0,0,0,0,0,0,0,0,0,0,0,0,0,0,0,
0,0,0,0,0,0,0,0,0,0,0,0,0,0,0,0,0,0,0,0,0,0,0,0,0,0,0,0,0,0,0,0,0,0,0,0,0,0,0,0,
0,0,0,0,0,0,0,0,0,0,0,0,0,0,0,0,0,0,0,0,0,0,0,0,0,0,0,0,0,0,0,0,0,0,0,0,0,0,0,0,
0,0,0,0,0,0,0,0,0,0,0,0,0,0,0,0,0,0,0,0,0,0,0,0,0,0,0,0,0,0,0,0,0,0,0,0,0,0,0,0,
0,0,0,0,23397,23398,23399,23400,0,0,23397,23398,23399,23400,0,0,0,23397,23398,23399,23400,0,0,0,23397,23398,23399,23400,0,0,0,0,0,0,0,0,0,0,0,0,
0,0,0,0,23429,23430,23431,23432,0,0,23429,23430,23431,23432,0,0,0,23429,23430,23431,23432,0,0,0,23429,23430,23431,23432,0,0,0,0,0,0,0,0,0,0,0,0,
0,0,0,0,23461,23462,23463,23464,0,0,23461,23462,23463,23464,0,0,0,23461,23462,23463,23464,0,0,0,23461,23462,23463,23464,0,0,0,0,0,0,0,0,0,0,0,0,
0,0,0,0,0,0,0,0,0,0,0,0,0,0,0,0,0,0,0,0,0,0,0,0,0,0,0,0,0,0,0,0,0,0,0,0,0,0,0,0,
0,0,0,0,0,0,0,0,0,0,0,0,0,0,0,0,0,0,0,0,0,0,0,0,0,0,0,0,0,0,0,0,0,0,0,0,0,0,0,0,
0,0,0,0,0,0,0,0,0,0,0,0,0,0,0,0,0,0,0,0,0,0,0,0,0,0,0,0,0,0,0,0,0,0,0,0,0,0,0,0,
0,0,0,0,0,0,0,0,0,0,0,0,0,0,0,0,0,0,0,0,0,0,0,0,0,0,0,0,0,0,0,0,0,0,0,0,0,0,0,0,
0,0,0,0,0,0,0,0,0,0,0,0,0,0,0,0,0,0,0,0,0,0,0,0,0,0,0,0,0,0,0,0,0,0,0,0,0,0,0,0,
0,0,0,0,0,0,0,0,0,0,0,0,0,0,0,0,0,0,0,0,0,0,0,0,0,0,0,0,0,0,0,0,0,0,0,0,0,0,0,0,
0,0,0,0,0,0,0,0,0,0,0,0,0,0,0,0,0,0,0,0,0,0,0,0,0,0,0,0,0,0,0,0,0,0,0,0,0,0,0,0,
0,0,0,0,0,0,0,0,0,0,0,0,0,0,0,0,0,0,0,0,0,0,0,0,0,0,0,0,0,0,0,0,0,0,0,0,0,0,0,0,
0,0,0,0,0,0,0,0,0,0,0,0,0,0,0,0,0,0,0,0,0,0,0,0,0,0,0,0,0,0,0,0,0,0,0,0,0,0,0,0,
0,0,0,0,0,0,0,0,0,0,0,0,0,0,0,0,0,0,0,0,0,0,0,0,0,0,0,0,0,0,0,0,0,0,0,0,0,0,0,0,
0,0,0,0,0,0,0,0,0,0,0,0,0,0,0,0,0,0,0,0,0,0,0,0,0,0,0,0,0,0,0,0,0,0,0,0,0,0,0,0,
0,0,0,0,0,0,0,0,0,0,0,0,0,0,0,0,0,0,0,0,0,0,0,0,0,0,0,0,0,0,0,0,0,0,0,0,0,0,0,0,
0,0,0,0,0,0,0,0,0,0,0,0,0,0,0,0,0,0,0,0,0,0,0,0,0,0,0,0,0,0,0,0,0,0,0,0,0,0,0,0,
0,0,0,0,0,0,0,0,0,0,0,0,0,0,0,0,0,0,0,0,0,0,0,0,0,0,0,0,0,0,0,0,0,0,0,0,0,0,0,0,
0,0,0,0,0,0,0,0,0,0,0,0,0,0,0,0,0,0,0,0,0,0,0,0,0,0,0,0,0,0,0,0,0,0,0,0,0,0,0,0,
0,0,0,0,0,0,0,0,0,0,0,0,0,0,0,0,0,0,0,0,0,0,0,0,0,0,0,0,0,0,0,0,0,0,0,0,0,0,0,0,
0,0,0,0,23397,23398,23399,23400,0,0,23397,23398,23399,23400,0,0,0,23397,23398,23399,23400,0,0,0,23397,23398,23399,23400,0,0,0,0,0,0,0,0,0,0,0,0,
0,0,0,0,23429,23430,23431,23432,0,0,23429,23430,23431,23432,0,0,0,23429,23430,23431,23432,0,0,0,23429,23430,23431,23432,0,0,0,0,0,0,0,0,0,0,0,0,
0,0,0,0,23461,23462,23463,23464,0,0,23461,23462,23463,23464,0,0,0,23461,23462,23463,23464,0,0,0,23461,23462,23463,23464,0,0,0,0,0,0,0,0,0,0,0,0,
0,0,0,0,0,0,0,0,0,0,0,0,0,0,0,0,0,0,0,0,0,0,0,0,0,0,0,0,0,0,0,0,0,0,0,0,0,0,0,0,
0,0,0,0,0,0,0,0,0,0,0,0,0,0,0,0,0,0,0,0,0,0,0,0,0,0,0,0,0,0,0,0,0,0,0,0,0,0,0,0
</data>
 </layer>
 <layer id="10" name="Camada de Blocos 7" width="40" height="30">
  <data encoding="csv">
0,0,0,0,0,0,0,0,0,0,0,0,0,0,0,0,0,0,0,0,0,0,0,0,0,0,0,0,0,0,0,0,0,0,0,0,0,0,0,0,
0,0,0,0,0,0,0,0,0,0,0,0,0,0,0,0,0,0,0,0,0,0,0,0,0,0,0,0,0,0,0,0,0,0,0,0,0,0,0,0,
0,0,0,0,0,0,0,0,0,0,0,0,0,0,0,0,0,0,0,0,0,0,0,0,0,0,0,0,0,0,0,0,0,0,0,0,0,0,0,0,
0,0,0,0,0,0,0,0,0,0,0,0,0,0,0,0,0,0,0,0,0,0,0,0,0,0,0,0,0,0,0,0,0,0,0,0,0,0,0,0,
0,0,0,0,0,0,0,0,0,0,0,0,0,0,0,0,0,0,0,0,0,0,0,0,0,0,0,0,0,0,0,0,0,0,0,0,0,0,0,0,
0,0,0,0,0,0,0,0,0,0,0,0,0,0,0,0,0,0,0,0,0,0,0,0,0,0,0,0,0,0,0,0,0,0,0,0,0,0,0,0,
0,0,0,0,0,0,0,0,0,0,0,0,0,0,0,0,0,0,0,0,0,0,0,0,0,0,0,0,0,0,0,0,0,0,0,0,0,0,0,0,
0,0,0,0,0,0,0,0,0,0,0,0,0,0,0,0,0,0,0,0,0,0,0,0,0,0,0,0,0,0,0,0,0,0,0,0,0,0,0,0,
0,0,0,0,23397,23398,23399,23400,0,0,23397,23398,23399,23400,0,0,0,23397,23398,23399,23400,0,0,0,23397,23398,23399,23400,0,0,0,0,0,0,0,0,0,0,0,0,
0,0,0,0,23429,23430,23431,23432,0,0,23429,23430,23431,23432,0,0,0,23429,23430,23431,23432,0,0,0,23429,23430,23431,23432,0,0,0,0,0,0,0,0,0,0,0,0,
0,0,0,0,23461,23462,23463,23464,0,0,23461,23462,23463,23464,0,0,0,23461,23462,23463,23464,0,0,0,23461,23462,23463,23464,0,0,0,0,0,0,0,0,0,0,0,0,
0,0,0,0,0,0,0,0,0,0,0,0,0,0,0,0,0,0,0,0,0,0,0,0,0,0,0,0,0,0,0,0,0,0,0,0,0,0,0,0,
0,0,0,0,0,0,0,0,0,0,0,0,0,0,0,0,0,0,0,0,0,0,0,0,0,0,0,0,0,0,0,0,0,0,0,0,0,0,0,0,
0,0,0,0,0,0,0,0,0,0,0,0,0,0,0,0,0,0,0,0,0,0,0,0,0,0,0,0,0,0,0,0,0,0,0,0,0,0,0,0,
0,0,0,0,0,0,0,0,0,0,0,0,0,0,0,0,0,0,0,0,0,0,0,0,0,0,0,0,0,0,0,0,0,0,0,0,0,0,0,0,
0,0,0,0,0,0,0,0,0,0,0,0,0,0,0,0,0,0,0,0,0,0,0,0,0,0,0,0,0,0,0,0,0,0,0,0,0,0,0,0,
0,0,0,0,0,0,0,0,0,0,0,0,0,0,0,0,0,0,0,0,0,0,0,0,0,0,0,0,0,0,0,0,0,0,0,0,0,0,0,0,
0,0,0,0,0,0,0,0,0,0,0,0,0,0,0,0,0,0,0,0,0,0,0,0,0,0,0,0,0,0,0,0,0,0,0,0,0,0,0,0,
0,0,0,0,0,0,0,0,0,0,0,0,0,0,0,0,0,0,0,0,0,0,0,0,0,0,0,0,0,0,0,0,0,0,0,0,0,0,0,0,
0,0,0,0,0,0,0,0,0,0,0,0,0,0,0,0,0,0,0,0,0,0,0,0,0,0,0,0,0,0,0,0,0,0,0,0,0,0,0,0,
0,0,0,0,0,0,0,0,0,0,0,0,0,0,0,0,0,0,0,0,0,0,0,0,0,0,0,0,0,0,0,0,0,0,0,0,0,0,0,0,
0,0,0,0,0,0,0,0,0,0,0,0,0,0,0,0,0,0,0,0,0,0,0,0,0,0,0,0,0,0,0,0,0,0,0,0,0,0,0,0,
0,0,0,0,0,0,0,0,0,0,0,0,0,0,0,0,0,0,0,0,0,0,0,0,0,0,0,0,0,0,0,0,0,0,0,0,0,0,0,0,
0,0,0,0,0,0,0,0,0,0,0,0,0,0,0,0,0,0,0,0,0,0,0,0,0,0,0,0,0,0,0,0,0,0,0,0,0,0,0,0,
0,0,0,0,0,0,0,0,0,0,0,0,0,0,0,0,0,0,0,0,0,0,0,0,0,0,0,0,0,0,0,0,0,0,0,0,0,0,0,0,
0,0,0,0,0,0,0,0,0,0,0,0,0,0,0,0,0,0,0,0,0,0,0,0,0,0,0,0,0,0,0,0,0,0,0,0,0,0,0,0,
0,0,0,0,0,0,0,0,0,0,0,0,0,0,0,0,0,0,0,0,0,0,0,0,0,0,0,0,0,0,0,0,0,0,0,0,0,0,0,0,
0,0,0,0,23397,23398,23399,23400,0,0,23397,23398,23399,23400,0,0,0,23397,23398,23399,23400,0,0,0,23397,23398,23399,23400,0,0,0,0,0,0,0,0,0,0,0,0,
0,0,0,0,23429,23430,23431,23432,0,0,23429,23430,23431,23432,0,0,0,23429,23430,23431,23432,0,0,0,23429,23430,23431,23432,0,0,0,0,0,0,0,0,0,0,0,0,
0,0,0,0,23461,23462,23463,23464,0,0,23461,23462,23463,23464,0,0,0,23461,23462,23463,23464,0,0,0,23461,23462,23463,23464,0,0,0,0,0,0,0,0,0,0,0,0
</data>
 </layer>
 <layer id="5" name="Camada de Blocos 3" width="40" height="30">
  <data encoding="csv">
0,0,0,0,0,0,21289,21290,0,0,0,0,21289,21290,0,0,0,0,0,21289,21290,0,0,0,0,0,21289,21290,0,0,0,0,0,0,0,0,0,0,0,0,
0,0,0,0,0,0,21321,21322,0,0,0,0,21321,21322,0,0,0,0,0,21321,21322,0,0,0,0,0,21321,21322,0,0,0,0,0,0,0,0,0,0,0,0,
0,0,0,0,0,0,21289,21290,0,0,0,0,21289,21290,0,0,0,0,0,21289,21290,0,0,0,0,0,21289,21290,0,0,0,0,0,0,0,0,0,0,0,0,
0,0,0,0,0,0,21321,21322,0,0,0,0,21321,21322,0,0,0,0,0,21321,21322,0,0,0,0,0,21321,21322,0,0,0,0,0,0,0,0,0,0,0,0,
0,0,0,0,0,0,21289,21290,0,0,0,0,21289,21290,0,0,0,0,0,21289,21290,0,0,0,0,0,21289,21290,0,0,0,0,0,0,0,0,0,0,0,0,
0,0,0,0,0,0,21321,21322,0,0,0,0,21321,21322,0,0,0,0,0,21321,21322,0,0,0,0,0,21321,21322,0,0,0,0,0,0,0,0,0,0,0,0,
0,0,0,0,0,0,21289,21290,0,0,0,0,21289,21290,0,0,0,0,0,21289,21290,0,0,0,0,0,21289,21290,0,0,0,0,0,0,0,0,0,0,0,0,
0,0,0,0,0,0,21321,21322,0,0,0,0,21321,21322,0,0,0,0,0,21321,21322,0,0,0,0,0,21321,21322,0,0,0,0,0,0,0,0,0,0,0,0,
0,0,0,0,0,0,21289,21290,0,0,0,0,21289,21290,0,0,0,0,0,21289,21290,0,0,0,0,0,21289,21290,0,0,0,0,0,0,0,0,0,0,0,0,
0,0,0,0,0,0,21321,21322,0,0,0,0,21321,21322,0,0,0,0,0,21321,21322,0,0,0,0,0,21321,21322,0,0,0,0,0,0,0,0,0,0,0,0,
0,0,0,0,0,0,0,0,0,0,0,0,0,0,0,0,0,0,0,0,0,0,0,0,0,0,0,0,0,0,0,0,0,0,0,0,0,0,0,0,
0,0,0,0,0,0,0,0,0,0,0,0,0,0,0,0,0,0,0,0,0,0,0,0,0,0,0,0,0,0,0,0,0,0,0,0,0,0,0,0,
0,0,0,0,0,0,0,0,0,0,0,0,0,0,0,0,0,0,0,0,0,0,0,0,0,0,0,0,0,0,0,0,0,0,0,0,0,0,0,0,
0,0,0,0,0,0,0,0,0,0,0,0,0,0,0,0,0,0,0,0,0,0,0,0,0,0,0,0,0,0,0,0,0,0,0,0,0,0,0,0,
0,0,0,0,0,0,0,0,0,0,0,0,0,0,0,0,0,0,0,0,0,0,0,0,0,0,0,0,0,0,0,0,0,0,0,0,0,0,0,0,
0,0,0,0,0,0,0,0,0,0,0,0,0,0,0,0,0,0,0,0,0,0,0,0,0,0,0,0,0,0,0,0,0,0,0,0,0,0,0,0,
0,0,0,0,0,0,0,0,0,0,0,0,0,0,0,0,0,0,0,0,0,0,0,0,0,0,0,0,0,0,0,0,0,0,0,0,0,0,0,0,
0,0,0,0,0,0,0,0,0,0,0,0,0,0,0,0,0,0,0,0,0,0,0,0,0,0,0,0,0,0,0,0,0,0,0,0,0,0,0,0,
0,0,0,0,0,0,0,0,0,0,0,0,0,0,0,0,0,0,0,0,0,0,0,0,0,0,0,0,0,0,0,0,0,0,0,0,0,0,0,0,
0,0,0,0,0,0,21289,21290,0,0,0,0,21289,21290,0,0,0,0,0,21289,21290,0,0,0,0,0,21289,21290,0,0,0,0,0,0,0,0,0,0,0,0,
0,0,0,0,0,0,21321,21322,0,0,0,0,21321,21322,0,0,0,0,0,21321,21322,0,0,0,0,0,21321,21322,0,0,0,0,0,0,0,0,0,0,0,0,
0,0,0,0,0,0,21289,21290,0,0,0,0,21289,21290,0,0,0,0,0,21289,21290,0,0,0,0,0,21289,21290,0,0,0,0,0,0,0,0,0,0,0,0,
0,0,0,0,0,0,21321,21322,0,0,0,0,21321,21322,0,0,0,0,0,21321,21322,0,0,0,0,0,21321,21322,0,0,0,0,0,0,0,0,0,0,0,0,
0,0,0,0,0,0,21289,21290,0,0,0,0,21289,21290,0,0,0,0,0,21289,21290,0,0,0,0,0,21289,21290,0,0,0,0,0,0,0,0,0,0,0,0,
0,0,0,0,0,0,21321,21322,0,0,0,0,21321,21322,0,0,0,0,0,21321,21322,0,0,0,0,0,21321,21322,0,0,0,0,0,0,0,0,0,0,0,0,
0,0,0,0,0,0,21289,21290,0,0,0,0,21289,21290,0,0,0,0,0,21289,21290,0,0,0,0,0,21289,21290,0,0,0,0,0,0,0,0,0,0,0,0,
0,0,0,0,0,0,21321,21322,0,0,0,0,21321,21322,0,0,0,0,0,21321,21322,0,0,0,0,0,21321,21322,0,0,0,0,0,0,0,0,0,0,0,0,
0,0,0,0,0,0,21289,21290,0,0,0,0,21289,21290,0,0,0,0,0,21289,21290,0,0,0,0,0,21289,21290,0,0,0,0,0,0,0,0,0,0,0,0,
0,0,0,0,0,0,21321,21322,0,0,0,0,21321,21322,0,0,0,0,0,21321,21322,0,0,0,0,0,21321,21322,0,0,0,0,0,0,0,0,0,0,0,0,
0,0,0,0,0,0,0,0,0,0,0,0,0,0,0,0,0,0,0,0,0,0,0,0,0,0,0,0,0,0,0,0,0,0,0,0,0,0,0,0
</data>
 </layer>
</map>
